liuchenxu125/GMR/soma-retargeter/assets/motions/csv/big_light_one_hand_pick_up_front_low_R_005__A508.csv
Frame,root_translateX,root_translateY,root_translateZ,root_rotateX,root_rotateY,root_rotateZ,left_hip_pitch_joint_dof,left_hip_roll_joint_dof,left_hip_yaw_joint_dof,left_knee_joint_dof,left_ankle_pitch_joint_dof,left_ankle_roll_joint_dof,right_hip_pitch_joint_dof,right_hip_roll_joint_dof,right_hip_yaw_joint_dof,right_knee_joint_dof,right_ankle_pitch_joint_dof,right_ankle_roll_joint_dof,waist_yaw_joint_dof,waist_roll_joint_dof,waist_pitch_joint_dof,left_shoulder_pitch_joint_dof,left_shoulder_roll_joint_dof,left_shoulder_yaw_joint_dof,left_elbow_joint_dof,left_wrist_roll_joint_dof,left_wrist_pitch_joint_dof,left_wrist_yaw_joint_dof,right_shoulder_pitch_joint_dof,right_shoulder_roll_joint_dof,right_shoulder_yaw_joint_dof,right_elbow_joint_dof,right_wrist_roll_joint_dof,right_wrist_pitch_joint_dof,right_wrist_yaw_joint_dof
0,0.029646502807736397,2.2888221740722656,78.02242279052734,0.9404977618807152,-1.5249942540695358,-92.7810683933677,1.935278,6.4175696,4.923174,8.938287,-8.20969,-7.2375283,2.747628,-8.321138,-9.455566,8.553497,-11.890596,6.720899,-2.953214,-0.60733426,6.747395,3.6779406,20.894958,-34.453014,56.049522,18.438946,-2.8471594,-4.8253083,0.72509825,-15.90168,26.004053,60.330708,-17.291044,-2.4296424,-7.032248
1,0.02876417711377144,2.2890493869781494,78.02234649658203,0.9472487930294416,-1.527459753328826,-92.78161556363477,1.937604,6.408673,4.9258423,8.93356,-8.1920185,-7.243879,2.7454314,-8.330345,-9.452191,8.561262,-11.893124,6.719855,-2.947555,-0.61927634,6.7562003,3.6782355,20.906454,-34.45544,56.034164,18.45874,-2.851965,-4.8260217,0.7121434,-15.9009905,26.007969,60.342674,-17.305567,-2.4255226,-7.019466
2,0.026832200586795807,2.2917401790618896,78.02131652832031,0.9562190657594081,-1.5300428950452563,-92.78234886418525,1.9421418,6.3980727,4.929397,8.924456,-8.170349,-7.2513227,2.7416945,-8.341208,-9.448044,8.572698,-11.897343,6.7184434,-2.9481654,-0.62884516,6.76311,3.685374,20.913887,-34.45657,56.013798,18.476753,-2.8543155,-4.825155,0.7052335,-15.900118,26.008186,60.35184,-17.332663,-2.4211996,-7.006464
3,0.029895924031734467,2.2914719581604004,78.0260238647461,0.9625676572007442,-1.532670880908464,-92.78298946520866,1.9458619,6.3895297,4.9320407,8.917615,-8.153302,-7.2563505,2.7396696,-8.349862,-9.4447975,8.580489,-11.900124,6.7179294,-2.9510453,-0.638757,6.7679133,3.691917,20.924976,-34.455845,55.997593,18.48974,-2.8587387,-4.8258014,0.7127654,-15.897471,26.001036,60.34823,-17.367947,-2.4175785,-6.9943194
4,0.03235301002860069,2.2940523624420166,78.02941131591797,0.9661519260510009,-1.5355423447525092,-92.78389429303711,1.9476514,6.384821,4.9332776,8.91758,-8.148189,-7.2550607,2.7400684,-8.354582,-9.442367,8.583376,-11.901097,6.7202015,-2.9450665,-0.6447898,6.7771745,3.693901,20.931015,-34.45721,55.97946,18.497244,-2.8604777,-4.8279996,0.7075935,-15.895793,26.001198,60.351345,-17.37699,-2.4157934,-6.9859715
5,0.033563386648893356,2.2948694229125977,78.02922821044922,0.9652590548009671,-1.5389367062823411,-92.78571879013369,1.9463148,6.3865304,4.9326887,8.928868,-8.163175,-7.24296,2.7438152,-8.35257,-9.440604,8.57944,-11.900063,6.7270975,-2.9377296,-0.6459789,6.788701,3.6937742,20.937216,-34.45907,55.95999,18.481714,-2.8618627,-4.8346143,0.7001047,-15.893595,26.005968,60.353367,-17.36812,-2.417606,-6.9827013
6,0.031481608748435974,2.297558069229126,78.02491760253906,0.961516328604159,-1.541979207176746,-92.78775255327582,1.9481248,6.3914766,4.9312096,8.934789,-8.185162,-7.2229724,2.7487895,-8.346979,-9.43955,8.571598,-11.898096,6.737502,-2.9307632,-0.6431406,6.797953,3.694088,20.938381,-34.459015,55.943035,18.45486,-2.8634548,-4.8428273,0.70007026,-15.892932,26.008047,60.348938,-17.354967,-2.4220026,-6.982068
7,0.029344340786337852,2.2989659309387207,78.02246856689453,0.9574780264049139,-1.545754897611954,-92.78967260107977,1.9465227,6.3974905,4.928931,8.950059,-8.212473,-7.2033663,2.7554502,-8.340409,-9.439352,8.562355,-11.895477,6.747643,-2.9251385,-0.63940966,6.8089757,3.693394,20.939959,-34.45905,55.92559,18.426092,-2.863777,-4.851153,0.70041734,-15.891746,26.012465,60.340683,-17.337488,-2.4268796,-6.9829035
8,0.03324069827795029,2.3011624813079834,78.02191925048828,0.9544902788476551,-1.5491730032775284,-92.78906693709851,1.945517,6.4014635,4.9251094,8.958998,-8.226285,-7.1923013,2.7630866,-8.335818,-9.442572,8.552157,-11.891148,6.7537956,-2.9290535,-0.63718474,6.816966,3.6967087,20.942583,-34.458122,55.909008,18.409603,-2.8626666,-4.8547397,0.70930403,-15.888879,26.018757,60.322178,-17.327452,-2.4296503,-6.9835954
9,0.02726319059729576,2.3014044761657715,78.02391052246094,0.9584981498965205,-1.5510496410264638,-92.78472207293301,1.9419527,6.3977203,4.919392,8.963461,-8.221768,-7.192385,2.765139,-8.339851,-9.450091,8.553142,-11.890961,6.7556157,-2.929628,-0.6420576,6.8228707,3.6977644,20.943909,-34.459904,55.898296,18.426876,-2.863101,-4.850696,0.7104975,-15.887038,26.027357,60.305096,-17.310944,-2.4290526,-6.979392
10,0.027742233127355576,2.30340313911438,78.02446746826172,0.965558356858804,-1.552303594418523,-92.77799808531981,1.9400994,6.38958,4.912609,8.9592085,-8.203327,-7.1992307,2.7659605,-8.348401,-9.461007,8.557732,-11.891763,6.754643,-2.9393284,-0.6523873,6.8223906,3.702195,20.946932,-34.462746,55.8933,18.45572,-2.8636377,-4.84066,0.72065884,-15.881684,26.042591,60.278854,-17.299915,-2.4251785,-6.975383
11,0.022537734359502792,2.3033576011657715,78.02755737304688,0.9710544027575938,-1.5530997793085481,-92.77132100654438,1.9392599,6.382187,4.9064894,8.952145,-8.182487,-7.2092576,2.7654874,-8.356074,-9.470906,8.56382,-11.892788,6.751669,-2.9423335,-0.662323,6.824648,3.7037306,20.94976,-34.467735,55.887558,18.492529,-2.8633065,-4.8303666,0.7175315,-15.875938,26.061205,60.26273,-17.274069,-2.4239926,-6.970764
12,0.02460053376853466,2.305149555206299,78.02811431884766,0.9728585714853285,-1.5535682555136432,-92.76709815579252,1.9367553,6.3806868,4.902383,8.950636,-8.171207,-7.2189436,2.764563,-8.357671,-9.475926,8.567955,-11.892791,6.74732,-2.9494514,-0.66631776,6.8237424,3.708792,20.951786,-34.472523,55.88184,18.5145,-2.8608222,-4.8218327,0.71727705,-15.870577,26.080858,60.24982,-17.246315,-2.4284372,-6.968056
13,0.02519342489540577,2.3114736080169678,78.02290344238281,0.9649949001656419,-1.5540051064092246,-92.766573587251,1.9382536,6.3887343,4.901618,8.945746,-8.168092,-7.230939,2.762983,-8.349265,-9.473771,8.56869,-11.890167,6.7396455,-2.9480596,-0.6603851,6.829479,3.7090137,20.953077,-34.476772,55.872063,18.52948,-2.8559666,-4.8192267,0.7136697,-15.866462,26.093254,60.238297,-17.208742,-2.4441993,-6.962787
14,0.025843575596809387,2.312653064727783,78.02176666259766,0.9528591622270403,-1.5543297412677055,-92.76844832085708,1.9417337,6.4026732,4.903257,8.939634,-8.169809,-7.2459593,2.7608378,-8.334509,-9.466736,8.568315,-11.886373,6.728983,-2.9521008,-0.65150374,6.8287363,3.7167346,20.955013,-34.482975,55.86193,18.532274,-2.8457942,-4.815042,0.70492554,-15.857458,26.122913,60.241123,-17.151224,-2.4673185,-6.9627447
15,0.0297127403318882,2.3110501766204834,78.02599334716797,0.9402158574514581,-1.554397197091811,-92.77112546946343,1.9426715,6.417279,4.905832,8.939295,-8.176731,-7.257573,2.7576067,-8.319369,-9.457943,8.568739,-11.883072,6.7194276,-2.9558387,-0.6396398,6.831862,3.7225435,20.95569,-34.485085,55.850887,18.534008,-2.8382037,-4.814273,0.71045375,-15.8510065,26.133549,60.227123,-17.117876,-2.4889202,-6.960519
16,0.029382998123764992,2.3122284412384033,78.024658203125,0.9340408516060927,-1.5535863116869155,-92.77346389517166,1.9394417,6.4266095,4.908906,8.944806,-8.185443,-7.2594423,2.7550447,-8.30954,-9.450132,8.566468,-11.879249,6.715167,-2.9496763,-0.6319898,6.836522,3.722881,20.956123,-34.49526,55.841778,18.534452,-2.8321364,-4.8128147,0.68846124,-15.844597,26.158773,60.239758,-17.06821,-2.5015695,-6.9633594
17,0.0291560310870409,2.3137729167938232,78.0244140625,0.9336944988692579,-1.5522305983549851,-92.77552055200559,1.9356083,6.427334,4.9142942,8.949522,-8.192915,-7.244444,2.7521698,-8.308789,-9.442075,8.564711,-11.87693,6.719497,-2.9529438,-0.62970054,6.8377295,3.7288623,20.95599,-34.501972,55.834106,18.524464,-2.832157,-4.8105173,0.6922454,-15.839421,26.172598,60.228905,-17.063707,-2.4968061,-6.9713087
18,0.029734481126070023,2.3153905868530273,78.0237808227539,0.9383882332841239,-1.5501189495602627,-92.77771697385353,1.9253929,6.423774,4.920928,8.965852,-8.206965,-7.2177653,2.748571,-8.312738,-9.4331255,8.562738,-11.875272,6.7294374,-2.952016,-0.62998265,6.840525,3.7321732,20.955698,-34.50998,55.82722,18.51037,-2.8359737,-4.8088484,0.69170094,-15.83579,26.18406,60.2212,-17.067886,-2.4827244,-6.982335
19,0.02800493687391281,2.318159341812134,78.02399444580078,0.9438110109922876,-1.5476144054783552,-92.7796496525424,1.9172533,6.4187183,4.927073,8.976308,-8.216832,-7.1915417,2.744811,-8.318057,-9.425809,8.561136,-11.874403,6.739868,-2.953328,-0.6340077,6.832355,3.7373755,20.953611,-34.530884,55.830803,18.4878,-2.837767,-4.804464,0.68968266,-15.820063,26.21048,60.227997,-17.06965,-2.4641492,-7.0004907
20,0.02848069928586483,2.3200809955596924,78.0253677368164,0.9473827313578775,-1.5462014424229513,-92.7813002212202,1.9101644,6.4156156,4.9299088,8.986382,-8.224124,-7.1776943,2.7417822,-8.32152,-9.422633,8.560159,-11.873785,6.7458405,-2.9523833,-0.6358222,6.831879,3.736546,20.95124,-34.548946,55.834778,18.477148,-2.8375971,-4.804954,0.6782588,-15.806091,26.229805,60.241253,-17.068287,-2.4539468,-7.013656
21,0.031089745461940765,2.32057523727417,78.02930450439453,0.9485838282526651,-1.545807621575474,-92.78245348220243,1.9104077,6.415007,4.928606,8.982495,-8.221019,-7.1822934,2.7401836,-8.322268,-9.426654,8.558607,-11.872656,6.745648,-2.954283,-0.6364109,6.830121,3.7361615,20.947098,-34.56952,55.84341,18.477695,-2.831363,-4.808556,0.6710778,-15.785944,26.24624,60.257935,-17.065636,-2.452488,-7.0259175
22,0.029050981625914574,2.3228983879089355,78.02571868896484,0.947003976820222,-1.5458680674859153,-92.78339396200255,1.9118309,6.4156704,4.924267,8.976699,-8.214869,-7.1980047,2.7386599,-8.321912,-9.435771,8.558364,-11.872367,6.7419744,-2.9560826,-0.6324094,6.840314,3.7369964,20.946108,-34.578114,55.84093,18.49569,-2.8251884,-4.8191924,0.667218,-15.7812805,26.253225,60.25868,-17.062422,-2.4574208,-7.0298705
23,0.030794672667980194,2.325441360473633,78.02696990966797,0.9462814172947855,-1.5466507152915228,-92.78379653582822,1.9175762,6.415748,4.919276,8.962659,-8.202878,-7.2166095,2.7376804,-8.321714,-9.444686,8.558921,-11.872755,6.7367496,-2.9584103,-0.63021666,6.8369637,3.735609,20.941566,-34.609146,55.852383,18.497223,-2.8137035,-4.825569,0.6600745,-15.763473,26.274958,60.280754,-17.053534,-2.46178,-7.041502
24,0.02859474904835224,2.325460910797119,78.02529907226562,0.9447203368155102,-1.5478657213018248,-92.78352943529872,1.9190781,6.415734,4.914868,8.95711,-8.194457,-7.230104,2.7372599,-8.321209,-9.448003,8.559421,-11.873504,6.7315845,-2.9595573,-0.627341,6.8435574,3.736811,20.93853,-34.6234,55.851254,18.506292,-2.8078678,-4.835107,0.6596398,-15.751933,26.285091,60.27723,-17.063143,-2.4622812,-7.044762
25,0.02516821026802063,2.3303377628326416,78.02523803710938,0.9459653429255139,-1.5486076305707597,-92.78235953358542,1.9198055,6.414117,4.9121757,8.951336,-8.184245,-7.2376037,2.7337391,-8.321481,-9.441849,8.565783,-11.878449,6.72482,-2.957038,-0.62950075,6.8352604,3.7266555,20.930182,-34.65535,55.87541,18.492025,-2.8058965,-4.841085,0.64706147,-15.724035,26.306204,60.29985,-17.083166,-2.4576936,-7.0516024
26,0.023995772004127502,2.331455707550049,78.02742004394531,0.9477444269787374,-1.549997473548607,-92.78017804221481,1.9190841,6.412535,4.909439,8.948718,-8.174017,-7.243058,2.7313023,-8.320895,-9.43048,8.572458,-11.884647,6.7160807,-2.95864,-0.62621784,6.8415575,3.7295818,20.927334,-34.6656,55.86912,18.48536,-2.8068142,-4.852957,0.655945,-15.714725,26.313545,60.27488,-17.129156,-2.4490082,-7.047753
27,0.02360307052731514,2.332866668701172,78.02554321289062,0.9493462544559211,-1.5518336226836917,-92.77801743962597,1.9166104,6.410451,4.9070725,8.950824,-8.16682,-7.245157,2.7293937,-8.321008,-9.418424,8.578992,-11.890135,6.7097373,-2.9582543,-0.6267285,6.840889,3.7241912,20.921118,-34.68697,55.878216,18.469816,-2.808916,-4.861094,0.6600328,-15.6946745,26.326475,60.261745,-17.16868,-2.439914,-7.046476
28,0.026493463665246964,2.3346362113952637,78.02781677246094,0.952436588452652,-1.5554223348790193,-92.77688802057894,1.9177693,6.407492,4.905787,8.950795,-8.161763,-7.242533,2.7293756,-8.322735,-9.410477,8.585043,-11.893311,6.710122,-2.9521203,-0.6262702,6.848125,3.7203612,20.917767,-34.700558,55.87793,18.468575,-2.8119392,-4.8672395,0.65066934,-15.684365,26.340075,60.25376,-17.177874,-2.4368532,-7.0421963
29,0.025375140830874443,2.338327646255493,78.02565002441406,0.9557880766722099,-1.5615376573883135,-92.77722383053438,1.9171648,6.404331,4.9052,8.962161,-8.16764,-7.2306647,2.7365756,-8.325782,-9.4090395,8.5808735,-11.887433,6.722604,-2.9528952,-0.6260772,6.8553686,3.7235236,20.915174,-34.708992,55.872765,18.475182,-2.8152447,-4.867738,0.65303576,-15.676701,26.34765,60.233406,-17.177664,-2.4368508,-7.037092
30,0.026254691183567047,2.3395440578460693,78.02815246582031,0.9599205493843593,-1.5694728751568363,-92.77858231522885,1.9190743,6.400205,4.9057226,8.9730835,-8.1763315,-7.2116804,2.746907,-8.330346,-9.410887,8.5732975,-11.876996,6.743466,-2.9540598,-0.6306056,6.856393,3.7241378,20.906569,-34.72082,55.880245,18.486418,-2.8186164,-4.8618054,0.6538987,-15.651627,26.353712,60.224506,-17.170017,-2.4377878,-7.035351
31,0.025178559124469757,2.3421387672424316,78.02603149414062,0.9650594496405955,-1.5777269668954743,-92.7796924450468,1.923422,6.395867,4.90647,8.980718,-8.183761,-7.194244,2.7580125,-8.335059,-9.414236,8.566265,-11.86755,6.763238,-2.9516275,-0.6328926,6.8671284,3.722455,20.902588,-34.727646,55.877544,18.498182,-2.8223367,-4.8573112,0.6462257,-15.639856,26.360659,60.212193,-17.142542,-2.443942,-7.0304976
32,0.02436242438852787,2.3431131839752197,78.02761840820312,0.9664092585839261,-1.5848164814376877,-92.77893270468527,1.9271933,6.3932257,4.905695,8.985185,-8.186083,-7.1874924,2.765605,-8.337968,-9.417633,8.564483,-11.863671,6.772278,-2.9557624,-0.6346445,6.8700128,3.728858,20.896805,-34.728813,55.875927,18.498678,-2.8233294,-4.8533373,0.6571232,-15.623996,26.362076,60.19309,-17.12772,-2.4544597,-7.0307536
33,0.023414351046085358,2.3445959091186523,78.0245132446289,0.9678537172569238,-1.5908454916160706,-92.77692812099446,1.9325761,6.392258,4.904158,8.983483,-8.17942,-7.1976323,2.7687879,-8.339246,-9.419535,8.571207,-11.869135,6.764845,-2.9533658,-0.6388023,6.873392,3.7263615,20.887642,-34.72977,55.883892,18.483727,-2.820338,-4.8506923,0.64424205,-15.600857,26.38043,60.20314,-17.083502,-2.4746027,-7.0398912
34,0.022223634645342827,2.3474178314208984,78.02731323242188,0.9669148159095453,-1.5966812530220642,-92.77427003875816,1.9416844,6.3918915,4.902646,8.973227,-8.164772,-7.218598,2.770344,-8.339364,-9.420982,8.582045,-11.879849,6.7471395,-2.9516423,-0.64135855,6.879377,3.729985,20.879425,-34.724358,55.88128,18.457376,-2.8135386,-4.849515,0.6427193,-15.582328,26.400713,60.199024,-17.030376,-2.50082,-7.052119
35,0.0244758203625679,2.3469386100769043,78.02703857421875,0.9655405008101098,-1.6009360788033193,-92.76931604778369,1.9476122,6.392718,4.8989034,8.964413,-8.1511135,-7.2407036,2.770235,-8.338563,-9.424829,8.593479,-11.891195,6.727492,-2.9529164,-0.6401022,6.883715,3.7398002,20.874187,-34.715748,55.87162,18.433134,-2.8077486,-4.849654,0.6540118,-15.571789,26.409117,60.183163,-16.98895,-2.527306,-7.060705
36,0.02422543242573738,2.349609613418579,78.02774047851562,0.9635478684757183,-1.6026214784173403,-92.76079389122202,1.9486059,6.3936777,4.891939,8.957855,-8.142511,-7.254067,2.7700372,-8.337207,-9.433122,8.600724,-11.898472,6.714253,-2.9702196,-0.6418651,6.878758,3.7461152,20.859442,-34.699265,55.88173,18.427273,-2.802535,-4.8465276,0.6318954,-15.542316,26.432217,60.2091,-16.95679,-2.5412583,-7.070841
37,0.02070329710841179,2.3548736572265625,78.02481079101562,0.9593834720701779,-1.599807826624752,-92.74631192625108,1.9410034,6.396314,4.880035,8.954991,-8.142315,-7.2549,2.770462,-8.333544,-9.449237,8.597754,-11.896902,6.7099633,-2.9869027,-0.6376707,6.873583,3.7575166,20.85004,-34.689697,55.87542,18.448172,-2.7950861,-4.842673,0.6406622,-15.521916,26.416208,60.196518,-16.966248,-2.5362802,-7.069201
38,0.021164502948522568,2.3557748794555664,78.02754974365234,0.9536355652944181,-1.5936640623027785,-92.72724200067333,1.9227827,6.4009886,4.863688,8.963977,-8.152414,-7.2489057,2.7708507,-8.327788,-9.471167,8.589213,-11.891151,6.709949,-3.0019543,-0.6319046,6.864133,3.7526171,20.838696,-34.692524,55.886475,18.481213,-2.7894292,-4.8378277,0.63611585,-15.4940405,26.382107,60.203823,-16.994276,-2.5238621,-7.062664
39,0.019906576722860336,2.3582777976989746,78.02921295166016,0.9494229487434088,-1.5876326976237831,-92.70823874194383,1.9058071,6.404896,4.846812,8.97037,-8.160992,-7.2404604,2.7719681,-8.322663,-9.49312,8.578942,-11.88361,6.71204,-3.0241156,-0.62359226,6.85535,3.764321,20.833492,-34.689816,55.877144,18.510857,-2.784387,-4.8339767,0.65601563,-15.480116,26.349459,60.18033,-17.030981,-2.506488,-7.0528812
40,0.017242243513464928,2.360975503921509,78.02627563476562,0.9464772231570091,-1.5856442433632507,-92.69402377138519,1.8944966,6.4064436,4.832232,8.976856,-8.165949,-7.2340636,2.7741668,-8.320538,-9.509401,8.574118,-11.879611,6.713975,-3.029868,-0.6201765,6.855344,3.7638962,20.827492,-34.694614,55.872856,18.52429,-2.7837992,-4.831947,0.6621665,-15.46279,26.323183,60.172474,-17.051456,-2.4956405,-7.044975
41,0.013224284164607525,2.3628783226013184,78.02375793457031,0.9480121947364066,-1.5900057756611288,-92.687072105872,1.8952453,6.4036493,4.8211946,8.977922,-8.162296,-7.2304926,2.779297,-8.323231,-9.517057,8.574567,-11.878422,6.716735,-3.0249414,-0.622429,6.860304,3.7551153,20.82177,-34.706226,55.877117,18.503498,-2.793085,-4.8330274,0.66531897,-15.447077,26.312767,60.17528,-17.054405,-2.4958785,-7.039801
42,0.013660874217748642,2.3646576404571533,78.02366638183594,0.9522515973358077,-1.5982675496498926,-92.68411085381899,1.8999703,6.3984976,4.811148,8.981893,-8.15651,-7.2275753,2.78658,-8.329025,-9.520096,8.577932,-11.878646,6.72092,-3.0192275,-0.6275692,6.8666496,3.7507174,20.81461,-34.716957,55.879463,18.46239,-2.8082564,-4.835868,0.6748491,-15.429198,26.313593,60.176197,-17.051636,-2.499631,-7.036048
43,0.013074294663965702,2.365696907043457,78.02385711669922,0.9570885677491279,-1.60653084197311,-92.68258888247323,1.9033258,6.39328,4.802455,8.989454,-8.152239,-7.225102,2.7919421,-8.335303,-9.521053,8.584353,-11.881028,6.7240767,-3.009681,-0.63143194,6.880701,3.7476149,20.812006,-34.723072,55.870697,18.42441,-2.8228655,-4.8400908,0.67662334,-15.423304,26.32312,60.17546,-17.040302,-2.504386,-7.030913
44,0.014626323245465755,2.3676536083221436,78.02790832519531,0.960599710814424,-1.610839667000151,-92.67961310008138,1.9037694,6.3898525,4.795786,8.992207,-8.147694,-7.2229786,2.7937214,-8.339308,-9.523074,8.589,-11.88359,6.7235646,-3.0069065,-0.634445,6.8861666,3.749135,20.809168,-34.72652,55.864857,18.40078,-2.8307905,-4.8410587,0.68698734,-15.417493,26.331816,60.171776,-17.050917,-2.505839,-7.029551
45,0.012934362515807152,2.3686294555664062,78.0298843383789,0.9616993646795353,-1.609420034915097,-92.67407450788144,1.8967289,6.3891044,4.791483,8.995489,-8.1478405,-7.219753,2.789713,-8.340749,-9.526514,8.592633,-11.888105,6.7170434,-3.0020866,-0.6359006,6.8887167,3.75018,20.806711,-34.72727,55.857212,18.41151,-2.8273094,-4.838376,0.6937142,-15.412838,26.33797,60.16938,-17.080887,-2.5026822,-7.031276
46,0.009054811671376228,2.3721158504486084,78.02696228027344,0.961296176221814,-1.6044641017267536,-92.66762376988635,1.8843728,6.390024,4.789134,9.000271,-8.150943,-7.2160687,2.781937,-8.340561,-9.530101,8.595605,-11.894025,6.706319,-2.9999166,-0.6398751,6.883135,3.7528613,20.79929,-34.720955,55.857906,18.447044,-2.8158503,-4.8315697,0.6919151,-15.399861,26.351904,60.18285,-17.12526,-2.4955454,-7.039863
47,0.006055445410311222,2.3740320205688477,78.02609252929688,0.9608737002025816,-1.598350933703827,-92.66171810236527,1.8739108,6.391448,4.788183,8.998116,-8.150114,-7.2145867,2.7723029,-8.339647,-9.533409,8.598888,-11.899342,6.695678,-2.9986696,-0.64271116,6.879077,3.7568665,20.792011,-34.710613,55.855934,18.48276,-2.8044913,-4.8254714,0.6920325,-15.388029,26.359993,60.194004,-17.17661,-2.4889543,-7.047141
48,0.008694139309227467,2.376802921295166,78.0289535522461,0.960495216934193,-1.5926203133643217,-92.65744491488165,1.8646151,6.3928485,4.787177,8.995452,-8.145975,-7.2179976,2.764063,-8.33824,-9.536374,8.599422,-11.899622,6.689329,-2.9942982,-0.6438802,6.878787,3.7577755,20.786695,-34.704853,55.853134,18.495243,-2.7994416,-4.821866,0.68977714,-15.37987,26.367727,60.205914,-17.209116,-2.4846168,-7.050464
49,0.008557825349271297,2.3805084228515625,78.02977752685547,0.9590719972451611,-1.587013137350026,-92.65571905282485,1.8614908,6.3937726,4.7868767,8.981068,-8.130403,-7.2309666,2.7569954,-8.336084,-9.538953,8.596814,-11.893223,6.6891947,-2.9920855,-0.64506817,6.8779397,3.7577841,20.778994,-34.697727,55.856865,18.47648,-2.8042135,-4.819561,0.67380846,-15.369192,26.385284,60.235367,-17.216616,-2.4821928,-7.050876
50,0.00620383070781827,2.386568307876587,78.02831268310547,0.9573379421540621,-1.5807522435033172,-92.65570315559724,1.8563619,6.39549,4.7868514,8.969768,-8.112979,-7.250802,2.749912,-8.332987,-9.541248,8.590946,-11.881209,6.692731,-2.9910817,-0.6434284,6.8767295,3.763118,20.774082,-34.690952,55.854816,18.434942,-2.8152347,-4.819301,0.66947657,-15.3630905,26.39462,60.256123,-17.22432,-2.4826155,-7.046628
51,0.004958724603056908,2.388301372528076,78.0296401977539,0.9559514749929531,-1.575161889405201,-92.65624405474442,1.8523666,6.397307,4.7866125,8.957855,-8.09551,-7.2690516,2.743188,-8.329781,-9.543316,8.585783,-11.869114,6.697501,-2.9890575,-0.6419979,6.877999,3.7671928,20.769756,-34.685604,55.852013,18.389856,-2.8263395,-4.820634,0.6690193,-15.35812,26.401997,60.270794,-17.224106,-2.4827082,-7.042371
52,0.006621329579502344,2.389961004257202,78.03024291992188,0.9537647393247025,-1.5714971796025716,-92.65592587515431,1.8477066,6.398836,4.7849402,8.952159,-8.084927,-7.277211,2.738601,-8.327502,-9.54539,8.580808,-11.859031,6.7011995,-2.988545,-0.643037,6.8811684,3.7660072,20.762907,-34.681393,55.856102,18.357258,-2.8332438,-4.822932,0.6506357,-15.350786,26.422388,60.301777,-17.203522,-2.4831762,-7.0430284
53,0.00410111341625452,2.393178939819336,78.02975463867188,0.9544593829862336,-1.5711720426671993,-92.65445906621157,1.8413203,6.4006667,4.7802434,8.958765,-8.086643,-7.2694964,2.7360778,-8.326402,-9.547678,8.579717,-11.85373,6.7032194,-2.9873867,-0.6451536,6.889664,3.764516,20.761343,-34.68133,55.853413,18.335358,-2.834093,-4.8310175,0.649207,-15.349,26.427444,60.31154,-17.18224,-2.4838803,-7.0456524
54,-0.0008202101453207433,2.395045757293701,78.02848052978516,0.9544456481364206,-1.573211090170459,-92.6525970450392,1.8340412,6.4027643,4.773702,8.97248,-8.095112,-7.2516522,2.7355874,-8.325861,-9.550014,8.57979,-11.850077,6.7048693,-2.9870086,-0.648231,6.9017463,3.7624342,20.759436,-34.68249,55.849117,18.319218,-2.8309698,-4.842012,0.6504139,-15.346362,26.433199,60.3158,-17.148998,-2.4840667,-7.0513606
55,-0.0033865792211145163,2.398510694503784,78.03096008300781,0.9552797719913955,-1.5750417644914059,-92.65056143908673,1.8251759,6.404602,4.7674527,8.9891205,-8.106101,-7.2324586,2.7349174,-8.325572,-9.552036,8.579924,-11.847774,6.706268,-2.988173,-0.65282285,6.912265,3.7568502,20.757633,-34.685867,55.85087,18.309443,-2.826542,-4.851431,0.6504418,-15.343329,26.440907,60.322056,-17.116198,-2.4850657,-7.059253
56,-0.0029229260981082916,2.401244640350342,78.03166198730469,0.9570934197281366,-1.5741679065165608,-92.6493664311618,1.8177875,6.4050107,4.7649364,8.995975,-8.10999,-7.220703,2.7316134,-8.325791,-9.552385,8.579016,-11.84588,6.7076406,-2.983097,-0.6590544,6.92174,3.7506385,20.756422,-34.690674,55.85364,18.316652,-2.823665,-4.8539705,0.6450081,-15.3410015,26.450409,60.33107,-17.092632,-2.4880557,-7.064914
57,-0.002602608408778906,2.4058468341827393,78.0333023071289,0.9609728768513236,-1.5688123743410076,-92.64870213193822,1.809523,6.4028707,4.7679567,8.993637,-8.106507,-7.218705,2.724475,-8.327153,-9.550227,8.576265,-11.84499,6.7104087,-2.9789867,-0.66782606,6.9238935,3.7401257,20.755005,-34.699608,55.868958,18.342434,-2.8237233,-4.843186,0.63052785,-15.338456,26.475445,60.35256,-17.076996,-2.4960089,-7.0725675
58,-0.004969842731952667,2.4083797931671143,78.03530883789062,0.9646133112937616,-1.5619273413796113,-92.64814194560552,1.8015997,6.398809,4.774445,8.986525,-8.099457,-7.2218437,2.717669,-8.329197,-9.546625,8.569706,-11.84397,6.714008,-2.97136,-0.6766497,6.9263344,3.736652,20.754808,-34.702885,55.87615,18.393112,-2.82366,-4.8279,0.62778515,-15.338178,26.485289,60.360058,-17.09055,-2.5042188,-7.0762105
59,-0.008574449457228184,2.4120898246765137,78.0353012084961,0.9698187426772681,-1.552615151620822,-92.64890988417487,1.796402,6.394773,4.782223,8.968618,-8.086029,-7.228191,2.705893,-8.331123,-9.542095,8.567247,-11.844998,6.7156816,-2.971678,-0.6886885,6.921056,3.7310858,20.753723,-34.711323,55.896996,18.435867,-2.8245482,-4.8055263,0.5998087,-15.337666,26.540695,60.39239,-17.068691,-2.515026,-7.086396
60,-0.008944299072027206,2.4166014194488525,78.03389739990234,0.9695808327974839,-1.546496243001278,-92.65005607729464,1.789598,6.396129,4.785116,8.9617605,-8.078535,-7.2364516,2.697391,-8.328377,-9.540748,8.564212,-11.844271,6.7123327,-2.980648,-0.6937855,6.9187727,3.7362814,20.752094,-34.70386,55.90752,18.45566,-2.822597,-4.7962275,0.5781477,-15.338316,26.58503,60.414154,-17.049809,-2.5222092,-7.0928454
61,-0.011188158765435219,2.4195940494537354,78.03176879882812,0.9639108190824969,-1.5440845746847407,-92.65254715714137,1.7866752,6.4038677,4.7819805,8.955916,-8.070532,-7.249737,2.6907203,-8.320298,-9.5434885,8.56502,-11.843496,6.7008142,-2.9789624,-0.6916705,6.92275,3.737667,20.751945,-34.70202,55.91369,18.437954,-2.817704,-4.8018093,0.5762282,-15.338499,26.587334,60.414577,-17.037556,-2.529253,-7.093372
62,-0.014095155522227287,2.4223697185516357,78.02790832519531,0.9536238431201349,-1.5426612981292611,-92.65718232534168,1.7832807,6.417398,4.775857,8.954019,-8.063751,-7.267987,2.6832018,-8.3071785,-9.547878,8.567163,-11.841328,6.683146,-2.9793153,-0.6848684,6.927341,3.7393901,20.751593,-34.69536,55.919422,18.392563,-2.8095438,-4.818335,0.5730455,-15.339044,26.587543,60.413948,-17.014004,-2.537846,-7.0925293
63,-0.01692672073841095,2.426025390625,78.02766418457031,0.9427311701849951,-1.5418995009271168,-92.6603510726013,1.7783293,6.4312825,4.7678614,8.95731,-8.060936,-7.2836075,2.6771033,-8.293945,-9.553651,8.569504,-11.839954,6.665561,-2.980295,-0.6775719,6.9358673,3.739508,20.751043,-34.684772,55.924828,18.347708,-2.8018973,-4.836132,0.56283295,-15.340756,26.586025,60.415356,-16.98837,-2.5433915,-7.0901923
64,-0.015628334134817123,2.428842544555664,78.03137969970703,0.9371055827510395,-1.540251237384216,-92.65958875980654,1.7735085,6.4401636,4.760552,8.957022,-8.058828,-7.2891636,2.6722307,-8.285075,-9.559301,8.570451,-11.84016,6.6540875,-2.9881008,-0.67343277,6.9412947,3.743678,20.750574,-34.673443,55.93058,18.320719,-2.796095,-4.8467607,0.56588626,-15.343027,26.579126,60.406075,-16.98525,-2.543162,-7.0873556
65,-0.01808716543018818,2.431154489517212,78.0307388305664,0.9351908034847446,-1.536178595992547,-92.65302977813583,1.7618012,6.4422936,4.753409,8.964026,-8.065227,-7.277945,2.6687126,-8.282236,-9.564622,8.567086,-11.841799,6.651648,-2.9920597,-0.6764532,6.945244,3.7387488,20.75071,-34.6728,55.945168,18.316528,-2.792263,-4.8466916,0.55630326,-15.345051,26.581364,60.40931,-16.977966,-2.5349636,-7.085684
66,-0.020742950960993767,2.434117555618286,78.03353118896484,0.9362293939770054,-1.5307735840179513,-92.64226712968662,1.7454189,6.4409356,4.745338,8.976311,-8.07732,-7.2556386,2.665804,-8.282712,-9.5703125,8.562701,-11.845535,6.6544886,-2.998146,-0.68241376,6.948047,3.7309885,20.751328,-34.67607,55.96417,18.323158,-2.7900574,-4.8409734,0.54044974,-15.34911,26.591558,60.417686,-16.967888,-2.5209494,-7.0837235
67,-0.021190552040934563,2.435243606567383,78.0348892211914,0.9392927847712562,-1.5259718020634163,-92.63066257958646,1.7291303,6.438918,4.737677,8.990262,-8.090619,-7.2331076,2.6646073,-8.283749,-9.576492,8.556897,-11.847991,6.6587334,-3.0091786,-0.68883365,6.9473567,3.7314377,20.752058,-34.677,55.979675,18.337198,-2.7880027,-4.832569,0.53676754,-15.353204,26.596838,60.41781,-16.974728,-2.50467,-7.082427
68,-0.0237711351364851,2.440204381942749,78.0331039428711,0.9394127397850112,-1.5241330789681358,-92.62210141023739,1.7208512,6.439176,4.732501,8.995408,-8.096375,-7.221469,2.6645608,-8.282954,-9.5826845,8.553591,-11.848269,6.660461,-3.01975,-0.69236714,6.949157,3.7330747,20.7527,-34.678127,55.99105,18.351316,-2.7857685,-4.826283,0.5345626,-15.356074,26.597578,60.417713,-16.99174,-2.4923377,-7.081309
69,-0.023206332698464394,2.442575454711914,78.03367614746094,0.9342795682599451,-1.5250300286129552,-92.6169570252497,1.7177845,6.444856,4.729503,8.997345,-8.096925,-7.2264676,2.6664772,-8.277528,-9.590932,8.5495825,-11.84235,6.658564,-3.0257225,-0.69065714,6.9586716,3.7311013,20.75396,-34.684032,55.99781,18.368864,-2.784097,-4.819301,0.51564807,-15.360982,26.59943,60.425575,-17.008957,-2.480986,-7.0767965
70,-0.02343885228037834,2.445035696029663,78.0364761352539,0.9287282418401559,-1.5280169025740278,-92.61496026883758,1.7214888,6.4525595,4.730118,8.992097,-8.0920315,-7.241181,2.6670284,-8.270764,-9.598322,8.550692,-11.835032,6.655334,-3.0359051,-0.68756497,6.964829,3.7358694,20.7549,-34.68666,56.002796,18.391111,-2.7819862,-4.8134913,0.5097909,-15.364745,26.59593,60.426857,-17.045935,-2.471637,-7.0738907
71,-0.026498226448893547,2.448852777481079,78.03224182128906,0.9214849768652181,-1.5331560792465273,-92.61172619779319,1.7272022,6.459913,4.728906,8.986417,-8.084806,-7.258007,2.6717155,-8.264355,-9.607394,8.549117,-11.826363,6.6512194,-3.0441635,-0.6824359,6.975635,3.7438881,20.756193,-34.690643,55.99907,18.413376,-2.7810905,-4.807024,0.5036294,-15.369875,26.583872,60.426666,-17.089836,-2.4642293,-7.068955
72,-0.029744789004325867,2.4499945640563965,78.03011322021484,0.9193775423549446,-1.5390144001781918,-92.6043443197095,1.7313207,6.463052,4.7222614,8.982655,-8.07611,-7.269152,2.6778858,-8.261897,-9.617951,8.550961,-11.823923,6.646893,-3.048601,-0.68017185,6.987688,3.744648,20.758696,-34.69992,55.99606,18.4225,-2.781449,-4.8057017,0.50238454,-15.378112,26.570871,60.423306,-17.11718,-2.462785,-7.0656123
73,-0.030480310320854187,2.4501702785491943,78.03175354003906,0.9219677036514505,-1.5472121540338553,-92.59010813905721,1.7335593,6.4608207,4.706701,8.984498,-8.06681,-7.2733684,2.6882324,-8.264717,-9.63114,8.555982,-11.82965,6.6415753,-3.0453827,-0.68351656,7.001332,3.7379203,20.763586,-34.71784,55.99356,18.41341,-2.7845237,-4.811766,0.5123222,-15.39293,26.563234,60.409767,-17.113804,-2.4671059,-7.0652175
74,-0.03578377515077591,2.4517245292663574,78.02967834472656,0.9261239898655418,-1.5572433291842736,-92.57177361535042,1.7342688,6.4555073,4.685305,8.990447,-8.056373,-7.2745934,2.7014515,-8.270696,-9.646119,8.5637455,-11.840812,6.6351075,-3.051243,-0.6931865,7.0123014,3.7345154,20.764906,-34.72365,55.99376,18.398806,-2.789024,-4.822304,0.51779485,-15.3965025,26.56594,60.40611,-17.101524,-2.4741113,-7.069891
75,-0.03597114235162735,2.452286958694458,78.0331039428711,0.9314231334824375,-1.5663136103431818,-92.55215746721723,1.7314953,6.448758,4.6624446,9.001452,-8.048504,-7.2727532,2.7134879,-8.27829,-9.661729,8.573025,-11.85329,6.6293983,-3.0537796,-0.7033599,7.021575,3.724943,20.769451,-34.743427,55.997005,18.371243,-2.7942364,-4.8314223,0.5243802,-15.407931,26.580969,60.401226,-17.06839,-2.4832478,-7.077301
76,-0.03886611387133598,2.4540634155273438,78.03623962402344,0.9354552401230408,-1.5703076321613074,-92.53756431624457,1.7270086,6.4428635,4.646299,9.00758,-8.041519,-7.268003,2.7191904,-8.284686,-9.673827,8.579313,-11.860404,6.6258235,-3.0573075,-0.71115005,7.027355,3.7225862,20.772755,-34.754932,55.995876,18.359282,-2.7981448,-4.834403,0.5206183,-15.416211,26.59004,60.409584,-17.05154,-2.4923518,-7.084376
77,-0.039345625787973404,2.455160140991211,78.03773498535156,0.9405840364115867,-1.5669284020741654,-92.52992967687602,1.7185756,6.436714,4.6397634,9.009518,-8.035708,-7.256238,2.7156649,-8.29099,-9.680643,8.581606,-11.859923,6.625115,-3.0691786,-0.71666425,7.0262957,3.7267013,20.775618,-34.76299,55.992863,18.355253,-2.7995098,-4.826926,0.5251983,-15.423051,26.59154,60.412262,-17.065502,-2.499838,-7.093769
78,-0.03982843458652496,2.45601487159729,78.03701782226562,0.9450947882418932,-1.5569447289354448,-92.52520099092675,1.6989816,6.4302826,4.636974,9.020999,-8.036512,-7.2387867,2.7034369,-8.297965,-9.685366,8.583815,-11.856204,6.6263356,-3.064879,-0.7168746,7.0218744,3.729449,20.785892,-34.799915,55.97667,18.342735,-2.797476,-4.8100123,0.53320724,-15.446157,26.592197,60.408306,-17.066574,-2.5097678,-7.102951
79,-0.039810650050640106,2.456193685531616,78.03598022460938,0.9491100054894243,-1.5469028319237264,-92.52226163342407,1.6849921,6.4255447,4.6365786,9.023302,-8.035592,-7.223822,2.6914911,-8.302803,-9.688912,8.58458,-11.851112,6.6286955,-3.067793,-0.7185803,7.018159,3.7345207,20.790583,-34.816036,55.96681,18.343063,-2.7959783,-4.7940683,0.53641963,-15.456536,26.58706,60.412376,-17.082928,-2.516803,-7.1121955
80,-0.04304134473204613,2.456148147583008,78.03581237792969,0.9488910155023693,-1.5407821129839954,-92.51780474386173,1.6743997,6.4260073,4.633026,9.027077,-8.038844,-7.219483,2.687284,-8.301919,-9.69462,8.579681,-11.8453245,6.631598,-3.0711474,-0.71673936,7.0149302,3.7425263,20.795162,-34.82592,55.96004,18.33845,-2.796792,-4.7841315,0.54573876,-15.46714,26.57482,60.415833,-17.098106,-2.5216618,-7.116077
81,-0.04631594941020012,2.454007863998413,78.0307388305664,0.9398421042462585,-1.5406079302883409,-92.51099306225888,1.6759039,6.4351254,4.625161,9.020744,-8.0439625,-7.231728,2.6946785,-8.291054,-9.703888,8.567078,-11.838132,6.6356716,-3.0661051,-0.7097822,7.0198936,3.746132,20.799335,-34.831226,55.955006,18.32745,-2.798384,-4.782571,0.5458419,-15.4775715,26.56435,60.425117,-17.08555,-2.5195892,-7.1118555
82,-0.04491003602743149,2.45523738861084,78.03243255615234,0.9271252133176832,-1.5436545446908423,-92.50307665340448,1.6840852,6.450358,4.6151066,9.00851,-8.051208,-7.2549524,2.7088606,-8.273305,-9.715036,8.549556,-11.830006,6.6410766,-3.060179,-0.69613224,7.028952,3.7569714,20.804586,-34.825966,55.943027,18.31468,-2.8026729,-4.7873173,0.5582294,-15.493076,26.542572,60.42161,-17.072008,-2.5154173,-7.0987644
83,-0.04507073760032654,2.455129384994507,78.0298843383789,0.9139897667935583,-1.547230318299118,-92.49579580193078,1.6918972,6.464907,4.6055746,8.998466,-8.05883,-7.279932,2.7231684,-8.256287,-9.725698,8.532793,-11.823194,6.646084,-3.062471,-0.6861526,7.032788,3.7700913,20.806358,-34.81594,55.93976,18.299738,-2.8043115,-4.79102,0.5761288,-15.499527,26.525005,60.41903,-17.067804,-2.5068583,-7.0906825
84,-0.04629208892583847,2.458638906478882,78.03041076660156,0.9087075258168594,-1.548084358600924,-92.49017439496446,1.6965551,6.471292,4.599436,8.987953,-8.059011,-7.2972746,2.7306418,-8.248049,-9.733699,8.522498,-11.820138,6.649041,-3.0600724,-0.68236583,7.0365324,3.7777326,20.807516,-34.807877,55.941277,18.294027,-2.804575,-4.7932262,0.57639563,-15.50472,26.512257,60.433353,-17.06026,-2.5027812,-7.088429
85,-0.04790272191166878,2.461290121078491,78.03130340576172,0.911505344170364,-1.5451591435772973,-92.48674849081367,1.6961117,6.4653955,4.5981913,8.977588,-8.04829,-7.3055263,2.7291553,-8.252691,-9.738062,8.52022,-11.822813,6.6487927,-3.0664802,-0.6850385,7.0363007,3.7968888,20.808432,-34.790546,55.93531,18.30232,-2.7995837,-4.792982,0.59321487,-15.510997,26.484324,60.433605,-17.094893,-2.502983,-7.093467
86,-0.047798119485378265,2.460484027862549,78.0320816040039,0.9228973640403778,-1.5399880529477084,-92.48498161705318,1.6932577,6.451805,4.6002703,8.965737,-8.029568,-7.309261,2.7200296,-8.26566,-9.739586,8.527337,-11.8314705,6.646353,-3.0596514,-0.6886517,7.0514874,3.8042343,20.811321,-34.76856,55.920998,18.328074,-2.7928722,-4.7962193,0.60744447,-15.534201,26.431967,60.418804,-17.140636,-2.5074933,-7.0952454
87,-0.046983152627944946,2.4591336250305176,78.03157806396484,0.9352925827341766,-1.534393019435121,-92.4840643793954,1.6886135,6.43659,4.603191,8.957162,-8.011358,-7.3085785,2.7097757,-8.280503,-9.740437,8.534973,-11.839676,6.643768,-3.0604742,-0.69893104,7.0494137,3.8139143,20.811653,-34.761665,55.92557,18.337921,-2.785201,-4.7927437,0.60778564,-15.540729,26.41806,60.43517,-17.162004,-2.5100338,-7.1095552
88,-0.045632608234882355,2.460629940032959,78.03348541259766,0.9432691414168742,-1.5306822780194915,-92.48336798545405,1.6817694,6.426018,4.6045914,8.959396,-8.002711,-7.3034134,2.7031615,-8.291737,-9.742268,8.539733,-11.843432,6.642867,-3.060217,-0.70681036,7.0519676,3.8230574,20.811714,-34.753902,55.92948,18.343735,-2.782942,-4.7893214,0.6146843,-15.546494,26.405457,60.440826,-17.170904,-2.5118132,-7.1220984
89,-0.047035131603479385,2.4620938301086426,78.03074645996094,0.9482244856988081,-1.5305662082106795,-92.48311040152679,1.6787059,6.4193053,4.6047206,8.964745,-8.000801,-7.2889624,2.6996708,-8.300284,-9.745888,8.546135,-11.843087,6.645205,-3.053128,-0.7135024,7.062824,3.8227324,20.812008,-34.753284,55.939034,18.337404,-2.7893972,-4.784942,0.61397743,-15.553683,26.407768,60.446995,-17.138956,-2.512194,-7.1356416
90,-0.045681580901145935,2.461108684539795,78.03143310546875,0.9524935743213866,-1.5327915381066468,-92.48358831195935,1.6740061,6.4149537,4.6040783,8.980643,-8.006555,-7.266988,2.699211,-8.307481,-9.750576,8.551197,-11.838589,6.649322,-3.0465317,-0.7193466,7.075807,3.8227222,20.812464,-34.75644,55.949715,18.321175,-2.8009512,-4.778571,0.61979955,-15.560746,26.42183,60.44375,-17.086096,-2.5110846,-7.1518235
91,-0.04196188971400261,2.4591944217681885,78.03399658203125,0.9532544655423137,-1.5341636457721175,-92.48427716339688,1.671553,6.4130692,4.6035914,8.990885,-8.011776,-7.246622,2.6984944,-8.311913,-9.754035,8.55552,-11.834137,6.653255,-3.0399735,-0.7235419,7.086928,3.8219223,20.81342,-34.763702,55.96241,18.303164,-2.8129063,-4.7723475,0.6197497,-15.572421,26.451096,60.44463,-17.017479,-2.5101302,-7.166095
92,-0.042961977422237396,2.4577884674072266,78.03628540039062,0.9517174143153689,-1.5313024473579058,-92.48406264858609,1.6644214,6.415408,4.602353,9.000768,-8.018927,-7.237297,2.695744,-8.31067,-9.754555,8.554708,-11.830131,6.6550117,-3.0531259,-0.71849126,7.0887694,3.8406694,20.81552,-34.76305,55.961437,18.28339,-2.8203886,-4.7671833,0.6176913,-15.604526,26.516857,60.439194,-16.933962,-2.5081804,-7.1724734
93,-0.04398055374622345,2.4575603008270264,78.03697967529297,0.9446164753775411,-1.5238579563807868,-92.48323126129058,1.6597055,6.424235,4.601609,8.994767,-8.022214,-7.2454233,2.6920025,-8.300248,-9.74957,8.546348,-11.827368,6.654472,-3.0559776,-0.71220696,7.0883493,3.8458354,20.816572,-34.765106,55.97038,18.284233,-2.8225594,-4.767293,0.6139694,-15.623219,26.54281,60.4461,-16.898016,-2.5127242,-7.164465
94,-0.043117087334394455,2.454465389251709,78.03662109375,0.9320499874210664,-1.513136573699195,-92.48173975160792,1.6528857,6.43887,4.600268,8.985566,-8.027508,-7.264768,2.6878762,-8.282521,-9.741146,8.531965,-11.824807,6.6525645,-3.0597777,-0.7023648,7.082362,3.8534043,20.817156,-34.766865,55.97931,18.294373,-2.8211238,-4.7694216,0.61862916,-15.638691,26.557379,60.44931,-16.883064,-2.5190444,-7.1472397
95,-0.04343966022133827,2.45772647857666,78.03241729736328,0.9209711219397348,-1.5010339992305732,-92.48035537793814,1.6482683,6.4520907,4.599612,8.968949,-8.028168,-7.2854023,2.6822064,-8.265692,-9.73217,8.517841,-11.822821,6.648917,-3.0604148,-0.69609576,7.0767465,3.8571353,20.817757,-34.771736,55.98917,18.30756,-2.8167174,-4.77236,0.61627537,-15.645442,26.569618,60.458782,-16.871813,-2.5235963,-7.1310687
96,-0.04304279759526253,2.457317352294922,78.03118133544922,0.9157674265231064,-1.489390725709873,-92.48081797210479,1.6398358,6.4586854,4.600466,8.961049,-8.027757,-7.297575,2.6722875,-8.257368,-9.724625,8.511799,-11.822863,6.6432443,-3.0651987,-0.6909103,7.0682297,3.864555,20.818546,-34.77898,55.99733,18.31289,-2.8130507,-4.776435,0.61568666,-15.65599,26.583977,60.469368,-16.86566,-2.5298414,-7.1210737
97,-0.04009896516799927,2.457507610321045,78.03166198730469,0.9187864507575437,-1.4775366166576838,-92.4836051451865,1.6295128,6.4539165,4.6038685,8.955403,-8.019495,-7.2978783,2.6540134,-8.262763,-9.718745,8.520092,-11.826901,6.632909,-3.0676866,-0.688623,7.0642953,3.8704238,20.819433,-34.79237,55.998302,18.311558,-2.807858,-4.7822075,0.61559284,-15.67208,26.59807,60.47225,-16.859018,-2.535206,-7.120529
98,-0.039795588701963425,2.4562833309173584,78.03329467773438,0.927227471602122,-1.4649906966933368,-92.48790542847848,1.616827,6.44256,4.6089625,8.952862,-8.006998,-7.291889,2.6306133,-8.27621,-9.713566,8.536113,-11.833211,6.618817,-3.067695,-0.6911224,7.0637608,3.8706944,20.819912,-34.80755,55.99986,18.310953,-2.800983,-4.7904496,0.6120593,-15.682153,26.60378,60.476753,-16.86405,-2.5401542,-7.1258154
99,-0.04136625677347183,2.455592155456543,78.03392028808594,0.9383640030104007,-1.4537668944874098,-92.49276692619813,1.6063489,6.429094,4.614682,8.949172,-7.9935775,-7.28275,2.6078196,-8.291923,-9.709162,8.554139,-11.840418,6.6064315,-3.0667837,-0.69440424,7.060802,3.8743742,20.819975,-34.824467,56.00011,18.30787,-2.7951314,-4.7978683,0.62588245,-15.693122,26.597689,60.46713,-16.88179,-2.5443997,-7.1326866
100,-0.04020392522215843,2.452928066253662,78.03682708740234,0.9451935496882857,-1.4463701304650265,-92.49624608876142,1.5972456,6.420279,4.6180787,8.953474,-7.989643,-7.273955,2.5946398,-8.302287,-9.707008,8.563414,-11.844351,6.6009727,-3.0623329,-0.6975832,7.062321,3.875441,20.819944,-34.836372,56.002323,18.309069,-2.7944336,-4.803638,0.6204041,-15.700483,26.596659,60.475292,-16.8824,-2.5492284,-7.1373568
101,-0.0383589044213295,2.4489998817443848,78.03742980957031,0.9478069985324956,-1.444664224323612,-92.49803325068949,1.5968832,6.416098,4.6191077,8.95498,-7.9917374,-7.2637606,2.5949762,-8.306306,-9.708183,8.560956,-11.844122,6.6071544,-3.0621588,-0.6964433,7.063024,3.8834136,20.819323,-34.845272,56.003094,18.302374,-2.8011317,-4.8056154,0.638737,-15.714723,26.58378,60.461987,-16.891844,-2.5537426,-7.136596
102,-0.039003886282444,2.4489095211029053,78.03559112548828,0.9481030602525459,-1.4473091122487154,-92.49894374626855,1.598148,6.4152594,4.618058,8.964748,-8.002554,-7.2514176,2.6044536,-8.306428,-9.712061,8.551549,-11.841367,6.6208057,-3.0666888,-0.6977912,7.0660434,3.8946416,20.818962,-34.844147,56.00484,18.296125,-2.8129733,-4.8057857,0.65388685,-15.720564,26.57403,60.451077,-16.899609,-2.556377,-7.1360064
103,-0.03787153214216232,2.4460501670837402,78.03532409667969,0.9479801961130278,-1.4504367274089418,-92.49987719911616,1.6037551,6.415053,4.617732,8.967757,-8.011325,-7.240947,2.6152422,-8.305558,-9.715609,8.541513,-11.838781,6.6348367,-3.0705209,-0.6993098,7.067824,3.9072034,20.818579,-34.839573,56.006195,18.292782,-2.8251803,-4.805291,0.6633026,-15.725907,26.564335,60.447353,-16.903032,-2.5591311,-7.135756
104,-0.03357970342040062,2.4425411224365234,78.03824615478516,0.9465252872119035,-1.4507878384607449,-92.50218069232731,1.6086683,6.4154987,4.6199727,8.965607,-8.015732,-7.236761,2.6233368,-8.303997,-9.716395,8.528733,-11.834004,6.641704,-3.0697503,-0.70015275,7.0692425,3.916374,20.818264,-34.8351,56.005764,18.295815,-2.8322544,-4.805303,0.66731966,-15.730152,26.558023,60.444042,-16.897017,-2.5604422,-7.13705
105,-0.034700263291597366,2.4438724517822266,78.03577423095703,0.9460326374950325,-1.4471713361614202,-92.50641906447555,1.606108,6.416851,4.625664,8.96882,-8.0206375,-7.242434,2.6154068,-8.304264,-9.71106,8.537497,-11.840286,6.63721,-3.068449,-0.70034707,7.065553,3.92338,20.817696,-34.82907,56.00682,18.303364,-2.833095,-4.8066635,0.67433894,-15.733963,26.551516,60.43705,-16.889084,-2.5599494,-7.142359
106,-0.033299483358860016,2.4405314922332764,78.0370864868164,0.9458904193833347,-1.441002027860239,-92.51251017961516,1.6083394,6.418503,4.635345,8.956757,-8.016401,-7.2548795,2.6048546,-8.303978,-9.702356,8.543731,-11.8447895,6.626087,-3.0601203,-0.70134336,7.061309,3.9274695,20.817156,-34.820312,56.005985,18.323187,-2.8299568,-4.809687,0.68286943,-15.7376,26.54474,60.422123,-16.8738,-2.5556316,-7.1497035
107,-0.032045766711235046,2.4386324882507324,78.03369140625,0.9442192765926078,-1.4344316270017659,-92.51827881442627,1.6103106,6.420779,4.6441855,8.944007,-8.011929,-7.2682223,2.5954196,-8.302723,-9.6941395,8.547154,-11.847449,6.6143985,-3.0604882,-0.6995683,7.0535684,3.9336958,20.816187,-34.811935,56.005783,18.33266,-2.8248963,-4.8101864,0.6937222,-15.741359,26.53645,60.409115,-16.867311,-2.5536423,-7.1562552
108,-0.03256426379084587,2.4346747398376465,78.03456115722656,0.9426095117361186,-1.4277751916772028,-92.52368561506455,1.6112423,6.4221606,4.650645,8.934615,-8.010512,-7.276399,2.5858483,-8.301982,-9.687418,8.551888,-11.849546,6.6083317,-3.0592544,-0.6987176,7.0484376,3.9396994,20.81562,-34.80943,55.99921,18.338388,-2.8159497,-4.8060575,0.6998465,-15.744458,26.532112,60.396355,-16.858791,-2.5500648,-7.15912
109,-0.028244338929653168,2.429426670074463,78.03700256347656,0.9409628590394666,-1.4203271854319064,-92.52745214673153,1.6068923,6.4240856,4.6509047,8.934017,-8.015411,-7.2777386,2.5818844,-8.2991,-9.685923,8.545371,-11.84416,6.6108704,-3.0699134,-0.69151825,7.0391254,3.9517236,20.815254,-34.823437,55.983597,18.316122,-2.800147,-4.791368,0.71136934,-15.751182,26.525564,60.383152,-16.865416,-2.5499022,-7.1551847
110,-0.02721414715051651,2.426326036453247,78.03556060791016,0.936887614746812,-1.4128852435901178,-92.53102437562205,1.6046342,6.4256735,4.648748,8.930064,-8.020282,-7.2754035,2.5789948,-8.295445,-9.68628,8.537688,-11.83697,6.6182194,-3.0885108,-0.6866568,7.0346417,3.956349,20.815525,-34.83341,55.97099,18.287796,-2.7833707,-4.774629,0.7097212,-15.752756,26.526869,60.37835,-16.87182,-2.5509305,-7.149157
111,-0.02455637790262699,2.4228527545928955,78.03805541992188,0.9332743653040136,-1.4051843126525367,-92.5332962083696,1.5983075,6.427513,4.6452947,8.933774,-8.028236,-7.271204,2.5768232,-8.291884,-9.687671,8.529249,-11.829403,6.626357,-3.0904627,-0.6759736,7.015788,3.9595385,20.818027,-34.89913,55.958576,18.22195,-2.7586176,-4.745588,0.7193606,-15.759865,26.528131,60.37798,-16.86692,-2.5506327,-7.1429024
112,-0.023811157792806625,2.419745922088623,78.03501892089844,0.931358033291782,-1.403070569326111,-92.53640447307906,1.5991588,6.4274397,4.646299,8.9364195,-8.033961,-7.266965,2.5785527,-8.291245,-9.68595,8.525251,-11.82531,6.631385,-3.0899909,-0.672646,7.0099545,3.9618485,20.819597,-34.923973,55.95272,18.19569,-2.7511687,-4.7332225,0.7286724,-15.764154,26.523396,60.37032,-16.86897,-2.5507915,-7.137637
113,-0.024003660306334496,2.4158823490142822,78.03334045410156,0.9332940589384481,-1.4076647924785446,-92.53985898613192,1.607236,6.42548,4.653023,8.940348,-8.03683,-7.2624426,2.5829182,-8.294533,-9.67952,8.531663,-11.828159,6.630863,-3.0838866,-0.6743787,7.0124817,3.9602516,20.820276,-34.927032,55.95942,18.191381,-2.76228,-4.735725,0.73748,-15.766563,26.519377,60.35995,-16.869734,-2.5501275,-7.135205
114,-0.024459728971123695,2.4129951000213623,78.03195190429688,0.9352194018023926,-1.4158376414590035,-92.54311158611497,1.6186208,6.4226804,4.662741,8.945886,-8.037899,-7.2570467,2.5894918,-8.299898,-9.671032,8.542097,-11.833622,6.6271787,-3.0765252,-0.6777016,7.01599,3.9620645,20.820175,-34.920628,55.970295,18.195988,-2.7823985,-4.744507,0.7540214,-15.767177,26.514486,60.34421,-16.875635,-2.5487654,-7.135323
115,-0.0226077139377594,2.408872127532959,78.03157806396484,0.940024143760491,-1.427740997948465,-92.5479448042184,1.6358588,6.418012,4.675064,8.949504,-8.038933,-7.2515073,2.597925,-8.30748,-9.660427,8.557062,-11.842781,6.6243334,-3.0622785,-0.6882584,7.028212,3.9572923,20.819296,-34.89099,55.989956,18.225721,-2.812683,-4.7625084,0.78173196,-15.769337,26.501534,60.30994,-16.886713,-2.545127,-7.1331654
116,-0.01839381642639637,2.404129981994629,78.0347671508789,0.9438429583463273,-1.4365075377892835,-92.55179260421393,1.6500529,6.4132533,4.6844807,8.951427,-8.041363,-7.246885,2.6071305,-8.314041,-9.653424,8.564102,-11.849083,6.625575,-3.0604544,-0.6945521,7.0392547,3.9615488,20.817587,-34.85921,55.9938,18.251982,-2.8304586,-4.7740655,0.799288,-15.772,26.493874,60.28636,-16.905672,-2.5437453,-7.1293597
117,-0.016974858939647675,2.4007554054260254,78.03195190429688,0.948949923154695,-1.442779616868576,-92.55518694948034,1.6595211,6.4072413,4.69065,8.957161,-8.049722,-7.24232,2.6169,-8.321059,-9.650568,8.5654,-11.85481,6.634266,-3.0617247,-0.69852704,7.0448976,3.9629946,20.816353,-34.848312,55.993404,18.259014,-2.8342206,-4.77608,0.80367583,-15.773687,26.498678,60.2836,-16.916544,-2.5448098,-7.124992
118,-0.0163987185806036,2.395315170288086,78.03191375732422,0.9550873731521707,-1.447019409384847,-92.55833113444423,1.6701635,6.3996267,4.6956787,8.955463,-8.056411,-7.237683,2.6274593,-8.32875,-9.650387,8.560775,-11.858964,6.647647,-3.06029,-0.7022921,7.047411,3.963062,20.81605,-34.84769,55.989624,18.260908,-2.831126,-4.773921,0.80712384,-15.773964,26.501831,60.28729,-16.928303,-2.5469468,-7.12011
119,-0.01689070276916027,2.3938207626342773,78.0325927734375,0.9598699165115325,-1.450917596682553,-92.56198222787509,1.682783,6.3927402,4.7006373,8.9493685,-8.061818,-7.234899,2.6379128,-8.335112,-9.649867,8.555272,-11.8629055,6.660584,-3.0616906,-0.7052446,7.048525,3.9632003,20.81573,-34.848694,55.984844,18.261208,-2.824903,-4.770196,0.8113746,-15.774141,26.506176,60.29222,-16.944372,-2.5494387,-7.115082
120,-0.01275893859565258,2.386801242828369,78.0346908569336,0.9605790879205153,-1.4531553259778924,-92.56675037003842,1.6926186,6.3905334,4.705661,8.945265,-8.0674925,-7.2361383,2.6453812,-8.336774,-9.646579,8.551004,-11.866199,6.667624,-3.0658312,-0.7041597,7.0452833,3.9666164,20.815052,-34.850193,55.979404,18.263407,-2.8186374,-4.7664304,0.818713,-15.774133,26.51163,60.29552,-16.9646,-2.551348,-7.111058
121,-0.010472092777490616,2.382138967514038,78.03417205810547,0.9549637651408723,-1.4502877377336163,-92.57336416900617,1.6995829,6.3963733,4.7110577,8.935998,-8.069885,-7.245091,2.6458433,-8.329188,-9.637738,8.546798,-11.866844,6.6652837,-3.0743685,-0.6951856,7.0352855,3.9766622,20.813805,-34.84758,55.970688,18.272526,-2.8133562,-4.7629056,0.83368737,-15.773417,26.510233,60.292236,-16.99818,-2.5523434,-7.1076493
122,-0.008094485849142075,2.3781042098999023,78.03231811523438,0.9440135538191236,-1.4436762471863545,-92.58132761685519,1.700343,6.408467,4.7159467,8.931775,-8.0751705,-7.259631,2.6413455,-8.315069,-9.625398,8.543145,-11.866665,6.657046,-3.0753248,-0.6818811,7.0270543,3.9806685,20.812159,-34.844296,55.961388,18.294197,-2.8081288,-4.7606072,0.8317306,-15.772195,26.506746,60.30134,-17.02488,-2.5537198,-7.1029634
123,-0.005564671941101551,2.3732495307922363,78.03276062011719,0.9339395421410243,-1.4367401242575384,-92.58867738232252,1.7011579,6.419967,4.72067,8.926138,-8.078543,-7.2731094,2.6365826,-8.3015585,-9.615177,8.539126,-11.865919,6.6479,-3.080869,-0.66778076,7.01812,3.9878612,20.809286,-34.83623,55.9498,18.316635,-2.8037007,-4.7594123,0.83886737,-15.768844,26.492653,60.302727,-17.066103,-2.5544145,-7.0983534
124,-0.00328691559843719,2.370544910430908,78.02931213378906,0.9289078912215893,-1.4328499055913382,-92.59379870648873,1.7037824,6.4248457,4.7250404,8.921293,-8.079519,-7.2789145,2.6336854,-8.296249,-9.612125,8.540009,-11.868702,6.6427455,-3.085336,-0.66017944,7.011556,3.9902346,20.80739,-34.832386,55.941483,18.330135,-2.802005,-4.760287,0.8479968,-15.765797,26.482754,60.300064,-17.09606,-2.552452,-7.0955896
125,-0.002817406551912427,2.3660387992858887,78.03314208984375,0.9346980508650979,-1.433483902767324,-92.59489211563489,1.7068973,6.418691,4.7287197,8.923062,-8.079306,-7.2728176,2.6376636,-8.303842,-9.621816,8.539778,-11.87275,6.643504,-3.0803046,-0.66456914,7.010968,3.9847283,20.805407,-34.832497,55.936623,18.342562,-2.8036387,-4.764478,0.85059905,-15.761646,26.475687,60.30013,-17.107056,-2.5454247,-7.0951157
126,-0.004437523428350687,2.3638594150543213,78.03118133544922,0.9459991096155317,-1.4366940086945992,-92.59371972703629,1.7079217,6.40647,4.7318106,8.93302,-8.080027,-7.259204,2.6427813,-8.319485,-9.639508,8.544521,-11.8805685,6.6472206,-3.086784,-0.6721522,7.0089083,3.9850225,20.804504,-34.83142,55.928944,18.340164,-2.8079295,-4.7696996,0.8646833,-15.758933,26.470692,60.290146,-17.12124,-2.5368772,-7.0961976
127,-0.0018626089440658689,2.3603432178497314,78.03145599365234,0.9568217394933624,-1.4401251501093038,-92.5919014370114,1.7109696,6.393595,4.7343917,8.93893,-8.079247,-7.244273,2.647944,-8.335819,-9.657883,8.550229,-11.888319,6.651997,-3.0864348,-0.6815482,7.0073175,3.9830754,20.80394,-34.831547,55.921673,18.342169,-2.8119009,-4.7769327,0.8804523,-15.756633,26.46557,60.2762,-17.128428,-2.5255415,-7.097991
128,-0.003396939020603895,2.3566715717315674,78.03128051757812,0.9624876271216043,-1.4404854620676852,-92.59340208226747,1.7133789,6.3873596,4.7381654,8.941981,-8.081818,-7.234442,2.6497545,-8.343995,-9.667048,8.553124,-11.891496,6.6554027,-3.0815399,-0.685673,7.0040936,3.9771545,20.803112,-34.835365,55.91696,18.344044,-2.8128068,-4.783049,0.8959365,-15.752133,26.458426,60.263397,-17.133566,-2.5160346,-7.100625
129,-0.0008139836718328297,2.351273775100708,78.03228759765625,0.956921120419081,-1.4358212484445145,-92.60005482383285,1.7133334,6.392153,4.743622,8.9434185,-8.091485,-7.2314734,2.6469538,-8.339027,-9.662453,8.550179,-11.886389,6.6565595,-3.0747595,-0.6771637,6.9960012,3.970962,20.801935,-34.84297,55.912125,18.342852,-2.8098407,-4.7878814,0.90351146,-15.7465105,26.452015,60.26394,-17.137508,-2.513104,-7.103283
130,0.002024973277002573,2.3500044345855713,78.03324127197266,0.9462882857223333,-1.4282471132084367,-92.60973526946526,1.7140378,6.4029517,4.7502384,8.939251,-8.10328,-7.2319646,2.6407738,-8.326777,-9.649705,8.54467,-11.876311,6.6569276,-3.0670612,-0.6606806,6.9848294,3.9691393,20.80032,-34.85021,55.90276,18.3424,-2.8036761,-4.7919035,0.90738654,-15.740856,26.447393,60.27062,-17.13819,-2.5131004,-7.106363
131,0.00389067898504436,2.3464980125427246,78.03209686279297,0.9358276018253577,-1.4211309788410238,-92.61910897374962,1.7153821,6.4145603,4.7561936,8.934936,-8.115358,-7.234513,2.6359599,-8.313208,-9.636015,8.538185,-11.866259,6.657227,-3.0640635,-0.64419204,6.9775395,3.966892,20.799784,-34.853176,55.89226,18.340132,-2.7981503,-4.795572,0.90791833,-15.739214,26.447794,60.273827,-17.135157,-2.5139894,-7.1078925
132,0.007075861562043428,2.3416404724121094,78.03138732910156,0.9267709036965305,-1.4156763382686715,-92.62711926115006,1.7149299,6.423636,4.761769,8.935906,-8.125796,-7.23828,2.6324158,-8.303102,-9.625961,8.533221,-11.860497,6.657828,-3.0641448,-0.630744,6.9669805,3.968035,20.798536,-34.861023,55.881393,18.328697,-2.7905953,-4.798409,0.9161635,-15.735138,26.446861,60.27361,-17.138535,-2.5137963,-7.1111174
133,0.007665826939046383,2.3382692337036133,78.0310287475586,0.9238902393025996,-1.4143382539596496,-92.63088884347249,1.7175006,6.4272766,4.7654347,8.935842,-8.129657,-7.2450347,2.6349409,-8.298771,-9.623977,8.528428,-11.86115,6.6593723,-3.065291,-0.6273688,6.9637513,3.9641578,20.798233,-34.8705,55.872696,18.312054,-2.7842278,-4.799098,0.9167436,-15.732445,26.44979,60.272617,-17.133574,-2.51177,-7.1130714
134,0.010999742895364761,2.3365800380706787,78.03272247314453,0.924712762227874,-1.4151055560976167,-92.63259664218717,1.7256196,6.4280024,4.768737,8.926695,-8.125048,-7.2546797,2.641118,-8.297395,-9.625593,8.522322,-11.864836,6.661439,-3.067558,-0.6293918,6.9609156,3.954312,20.799047,-34.893448,55.86929,18.279812,-2.7767696,-4.7968755,0.9147331,-15.726543,26.45878,60.2731,-17.121733,-2.5084884,-7.1162
135,0.010563668794929981,2.333658218383789,78.02973937988281,0.926036793425216,-1.4171490116111236,-92.63357730843259,1.7327791,6.4269686,4.7711844,8.921832,-8.12123,-7.262691,2.6483393,-8.298093,-9.628362,8.517707,-11.869865,6.6635523,-3.073948,-0.63354266,6.96049,3.9497066,20.800585,-34.906307,55.86278,18.25422,-2.7708807,-4.795761,0.92010176,-15.72154,26.463188,60.264492,-17.120033,-2.5060065,-7.117711
136,0.009922724217176437,2.331437110900879,78.028564453125,0.9287561660091194,-1.419620516891673,-92.63562742861106,1.7394345,6.4236917,4.7735415,8.9194,-8.1186695,-7.2643933,2.6527982,-8.301847,-9.629188,8.51885,-11.874901,6.6654086,-3.0685782,-0.640159,6.959678,3.937101,20.80318,-34.926697,55.86673,18.233866,-2.7669733,-4.794814,0.9148357,-15.715366,26.47829,60.27057,-17.098717,-2.5055432,-7.120086
137,0.012101787142455578,2.3276453018188477,78.02906036376953,0.934435099556092,-1.423808799471789,-92.6388796820159,1.7433344,6.41715,4.7747083,8.927756,-8.121602,-7.255577,2.656586,-8.3099985,-9.6281595,8.52478,-11.878475,6.6667037,-3.0610528,-0.6457667,6.9621687,3.933049,20.803947,-34.929478,55.867813,18.237747,-2.7668383,-4.7958474,0.92210186,-15.713336,26.485222,60.26618,-17.088963,-2.5096712,-7.119701
138,0.013670351356267929,2.3254945278167725,78.027587890625,0.941138070022654,-1.4297970926410457,-92.6428173062618,1.7481133,6.4073367,4.775444,8.9384165,-8.124605,-7.2397747,2.659304,-8.322384,-9.625945,8.536251,-11.882363,6.6677012,-3.0519,-0.65551126,6.96573,3.9262974,20.805195,-34.928688,55.87767,18.249472,-2.7696908,-4.797495,0.9360391,-15.709428,26.499653,60.25702,-17.076345,-2.5154793,-7.1203933
139,0.014173216186463833,2.3221724033355713,78.02947998046875,0.9476194710360054,-1.4338173959843035,-92.64604526989321,1.7519705,6.3982673,4.7756085,8.9465275,-8.126818,-7.2238493,2.66121,-8.333565,-9.624391,8.545415,-11.884427,6.668809,-3.0376406,-0.66182494,6.9702787,3.9197142,20.80546,-34.928535,55.884148,18.266747,-2.7723064,-4.8001347,0.936557,-15.708726,26.508476,60.25873,-17.061146,-2.5202212,-7.117608
140,0.013541186228394508,2.31681227684021,78.03071594238281,0.9524325521435892,-1.4360398453678842,-92.65008276599937,1.7578167,6.3923645,4.778086,8.946958,-8.127219,-7.214656,2.6605148,-8.340975,-9.6213045,8.554669,-11.887398,6.6709,-3.0397284,-0.6700468,6.968441,3.9125118,20.806301,-34.926735,55.898464,18.274317,-2.7748969,-4.8045616,0.93735087,-15.705689,26.539042,60.259933,-17.045712,-2.5198271,-7.116477
141,0.01194753684103489,2.317089080810547,78.02765655517578,0.9499963470664283,-1.4322759936441625,-92.65210645641835,1.7576312,6.3934236,4.779579,8.945888,-8.129152,-7.215427,2.6599262,-8.339283,-9.620749,8.550483,-11.884527,6.6742644,-3.0480769,-0.6689751,6.9609766,3.9123924,20.807293,-34.931385,55.900974,18.270874,-2.7723663,-4.8121,0.9214388,-15.703374,26.563147,60.275356,-17.039785,-2.5111055,-7.1098943
142,0.015646323561668396,2.313732147216797,78.03095245361328,0.9447131896467137,-1.4250724307533904,-92.65352404790691,1.7543691,6.3989906,4.780951,8.943496,-8.132193,-7.222062,2.658798,-8.331981,-9.620849,8.539585,-11.878608,6.678593,-3.0651815,-0.66358525,6.946321,3.9188643,20.808668,-34.938744,55.899643,18.259243,-2.7673519,-4.8220825,0.91961545,-15.700328,26.575174,60.280533,-17.06006,-2.4966395,-7.10012
143,0.019280990585684776,2.306973934173584,78.0345230102539,0.9386097297831899,-1.4168143692242683,-92.65533857474574,1.752506,6.4052243,4.7840867,8.936166,-8.133643,-7.2305455,2.6559858,-8.323908,-9.619977,8.528897,-11.872851,6.6826463,-3.0803704,-0.6575687,6.9309564,3.9240463,20.810492,-34.948235,55.898018,18.251526,-2.7628467,-4.8301206,0.92028296,-15.696874,26.578894,60.283466,-17.085882,-2.4822307,-7.0897913
144,0.01774471253156662,2.304100751876831,78.03250122070312,0.9359189010277609,-1.4101317494422523,-92.65866419717625,1.7524021,6.4101896,4.7901354,8.928519,-8.135164,-7.237315,2.6530848,-8.318114,-9.617222,8.521213,-11.868868,6.684887,-3.090036,-0.65263325,6.9190216,3.9246786,20.812346,-34.957317,55.89769,18.254692,-2.7618082,-4.8313184,0.9224765,-15.693759,26.57936,60.283234,-17.103884,-2.4736872,-7.08201
145,0.019342686980962753,2.3036704063415527,78.03129577636719,0.9330963234985953,-1.404242986949559,-92.66377313269103,1.7528191,6.413771,4.8012156,8.922055,-8.138209,-7.2429276,2.6478357,-8.315531,-9.611544,8.517565,-11.86654,6.6840944,-3.0939605,-0.6483402,6.9066515,3.9245996,20.813738,-34.965668,55.897392,18.277803,-2.7644646,-4.822235,0.92690015,-15.691464,26.578112,60.280117,-17.110233,-2.4702518,-7.075528
146,0.019491180777549744,2.3020646572113037,78.03024291992188,0.9319171257334237,-1.3977748859273154,-92.6706324986123,1.7528886,6.41676,4.816661,8.915406,-8.142071,-7.248783,2.6399183,-8.314725,-9.603206,8.517066,-11.865978,6.6812387,-3.0846612,-0.6473562,6.892572,3.9195218,20.816946,-34.98346,55.90002,18.316933,-2.7700596,-4.803757,0.93039614,-15.686603,26.574646,60.27907,-17.100811,-2.4696348,-7.0708957
147,0.019948387518525124,2.3003504276275635,78.0288314819336,0.9309935436140078,-1.393097047430629,-92.67801251689824,1.7568307,6.4188294,4.831792,8.9047575,-8.143497,-7.2524242,2.6327567,-8.314689,-9.594356,8.51916,-11.866988,6.6785808,-3.077757,-0.6466884,6.882247,3.9144611,20.820341,-34.993526,55.902405,18.354994,-2.7779787,-4.785299,0.93327165,-15.681782,26.570904,60.2771,-17.093729,-2.472763,-7.068703
148,0.01982523314654827,2.2994544506073,78.0262222290039,0.9311772872121569,-1.3907637426551078,-92.6858704585922,1.7579188,6.4202476,4.8423896,8.906288,-8.149614,-7.2511873,2.6292956,-8.314408,-9.585732,8.519713,-11.867023,6.6782084,-3.0713313,-0.6461572,6.873918,3.910288,20.822474,-34.996677,55.90685,18.375048,-2.7871997,-4.7726545,0.9383434,-15.678854,26.56824,60.275295,-17.09321,-2.4786296,-7.070387
149,0.022482119500637054,2.293757438659668,78.0291976928711,0.9323027906628845,-1.3907662941092536,-92.69574067803215,1.7598453,6.420422,4.847244,8.913325,-8.155588,-7.241154,2.6285987,-8.313888,-9.576471,8.520859,-11.866483,6.681779,-3.0554268,-0.6485794,6.8664284,3.9048223,20.824612,-34.993523,55.920254,18.376661,-2.804191,-4.7666006,0.9507435,-15.675547,26.566278,60.272175,-17.096052,-2.4908051,-7.0800548
150,0.026052201166749,2.290743827819824,78.03099822998047,0.934006615614704,-1.3932653826596701,-92.70646031214761,1.7632959,6.419026,4.847902,8.9240265,-8.161594,-7.2246614,2.631344,-8.313721,-9.567198,8.521479,-11.865342,6.687915,-3.0383134,-0.6562789,6.8649893,3.8952272,20.828653,-34.97729,55.939026,18.366781,-2.826828,-4.7674522,0.95157284,-15.669491,26.576311,60.278248,-17.09248,-2.5070262,-7.097054
151,0.024774495512247086,2.2906486988067627,78.02902221679688,0.9356481090824639,-1.3962812492868673,-92.71642524591631,1.766349,6.4173155,4.847795,8.93594,-8.168026,-7.208926,2.6343892,-8.313864,-9.558363,8.52263,-11.865081,6.693827,-3.0183659,-0.6586735,6.8606114,3.8921106,20.829453,-34.96941,55.95024,18.350199,-2.841943,-4.7654552,0.9568006,-15.668155,26.57857,60.282654,-17.091782,-2.5211122,-7.109729
152,0.02458595298230648,2.2879910469055176,78.0286865234375,0.9363583262596452,-1.3992883317500062,-92.72730148129344,1.7717744,6.4174075,4.8534756,8.942623,-8.174251,-7.201471,2.6370592,-8.312683,-9.547508,8.523174,-11.866262,6.696173,-3.0155938,-0.6653186,6.856552,3.894627,20.83209,-34.933846,55.963375,18.351053,-2.8565023,-4.7672367,0.95863736,-15.663696,26.594643,60.28416,-17.08768,-2.5333524,-7.1174517
153,0.024773217737674713,2.285993814468384,78.02813720703125,0.9368572452859365,-1.4008346707939736,-92.73630263873926,1.7810689,6.418979,4.8655133,8.935355,-8.177196,-7.20648,2.6371403,-8.310598,-9.536569,8.524822,-11.871055,6.693092,-3.0134528,-0.6668959,6.850605,3.902983,20.834188,-34.909355,55.962105,18.361568,-2.8530877,-4.7627463,0.94408995,-15.66086,26.609707,60.294174,-17.06556,-2.5361712,-7.1067595
154,0.024592146277427673,2.285463809967041,78.02725982666016,0.9348739326737165,-1.4019734525211824,-92.74502303001961,1.7917782,6.421923,4.881927,8.923697,-8.18096,-7.219378,2.6354787,-8.307714,-9.524667,8.527954,-11.878596,6.6864643,-3.0155923,-0.6670725,6.839362,3.918141,20.835913,-34.8842,55.956516,18.376947,-2.840282,-4.756194,0.9472391,-15.658418,26.610725,60.287582,-17.055792,-2.53379,-7.0853324
155,0.025467470288276672,2.282606601715088,78.0263900756836,0.9332691231642122,-1.4031515201058335,-92.75318324957556,1.8011199,6.4246397,4.8983665,8.914113,-8.184154,-7.2335653,2.63462,-8.305024,-9.513034,8.529725,-11.885397,6.679805,-3.0092578,-0.66688114,6.830022,3.9240215,20.837183,-34.87063,55.95491,18.392292,-2.82529,-4.749372,0.9440161,-15.657243,26.612228,60.28645,-17.034456,-2.5301898,-7.0644016
156,0.02609023079276085,2.282395839691162,78.02503967285156,0.9348974424057789,-1.4049639356136772,-92.76053883335827,1.8123387,6.4239807,4.911447,8.901377,-8.180232,-7.2422795,2.6339095,-8.305874,-9.502197,8.533433,-11.890831,6.6770105,-3.0020528,-0.6684374,6.821215,3.9271002,20.838123,-34.86199,55.956295,18.404198,-2.814625,-4.744423,0.94546825,-15.656765,26.615421,60.286266,-17.019405,-2.5280056,-7.0558634
157,0.02524862065911293,2.280325412750244,78.02485656738281,0.9389672281116827,-1.4070099441058204,-92.76674767212926,1.8161739,6.4197555,4.9184575,8.903766,-8.174138,-7.244528,2.6332483,-8.310884,-9.491976,8.538864,-11.893606,6.6785607,-2.9932246,-0.6720566,6.813267,3.9266205,20.839369,-34.856377,55.962215,18.412437,-2.8110454,-4.743334,0.9539509,-15.656549,26.6245,60.285587,-17.007063,-2.5285625,-7.068226
158,0.022632407024502754,2.276951551437378,78.02532958984375,0.9446391948434983,-1.409247289032984,-92.77197378487553,1.822091,6.4118967,4.922761,8.90093,-8.158571,-7.243489,2.6330616,-8.319209,-9.482235,8.544519,-11.894408,6.682753,-2.9793844,-0.6789171,6.806631,3.9209318,20.840866,-34.856903,55.9721,18.420187,-2.810296,-4.7442436,0.95368296,-15.657262,26.64644,60.296272,-16.98077,-2.5296342,-7.0946035
159,0.0243139136582613,2.2773935794830322,78.027099609375,0.9528851354872339,-1.4121256836668385,-92.77669162923824,1.8261515,6.4043684,4.925598,8.904349,-8.147367,-7.2393265,2.634222,-8.327471,-9.473869,8.549639,-11.894347,6.689221,-2.9652743,-0.6845719,6.800277,3.9165797,20.842009,-34.860256,55.979824,18.42898,-2.810577,-4.7447624,0.95248455,-15.658245,26.669296,60.309357,-16.957266,-2.5303617,-7.120345
160,0.026459479704499245,2.2749860286712646,78.03060150146484,0.9564537495374602,-1.4164007259365456,-92.7819383022939,1.832072,6.39948,4.9296365,8.908332,-8.145092,-7.2321095,2.638504,-8.332876,-9.467215,8.551254,-11.893386,6.697793,-2.9682467,-0.688063,6.787142,3.9258401,20.84468,-34.86103,55.981995,18.431929,-2.809761,-4.741388,0.9582396,-15.660925,26.703484,60.317623,-16.948668,-2.5274897,-7.134903
161,0.026256462559103966,2.272937536239624,78.02960205078125,0.9582905035886898,-1.423129452037982,-92.78858581951691,1.8383647,6.3990006,4.9354873,8.920276,-8.16104,-7.217123,2.647897,-8.333892,-9.462431,8.547402,-11.890339,6.7110887,-2.9643579,-0.6887015,6.78559,3.926045,20.845505,-34.864212,55.98082,18.448912,-2.808042,-4.735048,0.95133156,-15.661781,26.71104,60.330326,-16.96053,-2.5234537,-7.124297
162,0.025524809956550598,2.27312970161438,78.0256118774414,0.9585263940889902,-1.4317839114679687,-92.79598840419905,1.8471849,6.401284,4.9423594,8.933475,-8.186532,-7.19597,2.662417,-8.331779,-9.459337,8.537557,-11.884426,6.728279,-2.9727955,-0.685255,6.7823634,3.9339843,20.846483,-34.86851,55.97537,18.46282,-2.8057747,-4.7242727,0.9524343,-15.662449,26.713493,60.337513,-16.997,-2.5182521,-7.1006722
163,0.030775589868426323,2.2699387073516846,78.02699279785156,0.9577423126465473,-1.4405470100450055,-92.80213753571516,1.8586092,6.40382,4.9485164,8.940658,-8.209377,-7.178026,2.67653,-8.329147,-9.458135,8.529721,-11.880585,6.7439475,-2.9704854,-0.6830504,6.7800198,3.9382737,20.848278,-34.878075,55.96835,18.480688,-2.8040438,-4.7154346,0.94567806,-15.663721,26.71772,60.350952,-17.02606,-2.5112302,-7.0749583
164,0.028342390432953835,2.269071578979492,78.02406311035156,0.9557928876808716,-1.4481736424127358,-92.80489396111943,1.8669113,6.406819,4.951351,8.947554,-8.223899,-7.1731043,2.6901128,-8.325935,-9.459834,8.521946,-11.87861,6.752346,-2.9624195,-0.67996585,6.774014,3.9398506,20.851017,-34.893356,55.961216,18.485773,-2.8030052,-4.711359,0.9432057,-15.665624,26.728243,60.362476,-17.050161,-2.5036354,-7.059168
165,0.03325057029724121,2.267429828643799,78.0265121459961,0.9552701867826949,-1.4545303756510108,-92.80255045548766,1.8777711,6.4086194,4.950512,8.940705,-8.218414,-7.189066,2.7008543,-8.323583,-9.465219,8.521024,-11.883827,6.7500625,-2.9493268,-0.67978394,6.7605014,3.939762,20.855106,-34.91099,55.958023,18.478855,-2.8047707,-4.716233,0.95855,-15.668667,26.751335,60.36232,-17.074015,-2.4922369,-7.062159
166,0.028216242790222168,2.2661290168762207,78.0272216796875,0.9532685314232656,-1.4606212523776994,-92.79670673179801,1.8919183,6.4100175,4.9471807,8.922547,-8.199788,-7.2189794,2.7106898,-8.320866,-9.473764,8.523608,-11.893312,6.7407146,-2.9329967,-0.68014336,6.7476344,3.9376123,20.857964,-34.921677,55.954124,18.471601,-2.8087437,-4.728219,0.9785348,-15.671076,26.775297,60.3579,-17.105377,-2.4791036,-7.073804
167,0.02459188923239708,2.266247034072876,78.02323913574219,0.951921071799513,-1.464789057711346,-92.79012050300192,1.9029672,6.4114933,4.9428678,8.905624,-8.180724,-7.249952,2.7175817,-8.318631,-9.482997,8.527472,-11.903058,6.7295437,-2.9145844,-0.6820852,6.727144,3.9370294,20.86294,-34.93885,55.951633,18.454823,-2.812876,-4.740064,0.9859536,-15.676704,26.830214,60.3627,-17.101187,-2.4645855,-7.087847
168,0.021496791392564774,2.2610232830047607,78.02304077148438,0.9509236311785476,-1.4660103856221633,-92.7851510563189,1.9071958,6.413042,4.9387655,8.898401,-8.172343,-7.2689652,2.7217124,-8.316814,-9.491508,8.52804,-11.908108,6.721641,-2.8999965,-0.6802685,6.706141,3.942796,20.865278,-34.94496,55.94126,18.444643,-2.8165102,-4.749702,1.0027915,-15.67974,26.858416,60.35161,-17.111748,-2.454898,-7.087168
169,0.02548154816031456,2.259570360183716,78.0198745727539,0.9483633790749196,-1.4625347399200352,-92.78328569114115,1.9068748,6.414141,4.936311,8.892552,-8.172581,-7.2708898,2.71809,-8.316427,-9.498307,8.529462,-11.908459,6.718162,-2.884231,-0.6759964,6.6833158,3.9488049,20.866348,-34.947754,55.927605,18.438774,-2.8198183,-4.7560287,1.0176158,-15.681468,26.870077,60.333412,-17.113344,-2.4523768,-7.067348
170,0.023454932495951653,2.2594454288482666,78.01932525634766,0.9459011847925858,-1.4546777039404823,-92.78280476412579,1.8971851,6.4156437,4.933806,8.897919,-8.183116,-7.263308,2.7092562,-8.316656,-9.504808,8.529189,-11.904599,6.716335,-2.866417,-0.67038804,6.650416,3.960234,20.868286,-34.954494,55.911114,18.430206,-2.8223348,-4.7609377,1.0345495,-15.685527,26.886667,60.31015,-17.093184,-2.4527884,-7.036514
171,0.021932663396000862,2.2570719718933105,78.01936340332031,0.9449486717569484,-1.4475270823369824,-92.7826927284047,1.8883054,6.416561,4.9314647,8.9040165,-8.195247,-7.2519,2.7016356,-8.317095,-9.510454,8.527913,-11.900449,6.7158775,-2.8473225,-0.66390085,6.622942,3.9684346,20.86905,-34.95671,55.89348,18.424053,-2.825358,-4.7637753,1.0489781,-15.68761,26.890707,60.282425,-17.08451,-2.454859,-7.0023713
172,0.023879772052168846,2.258317708969116,78.02019500732422,0.9441643654375977,-1.4434698151109266,-92.78182661845216,1.8854283,6.41648,4.9293528,8.903151,-8.201149,-7.242516,2.6980076,-8.317984,-9.51458,8.526994,-11.899647,6.7164145,-2.820618,-0.6602902,6.5961328,3.9775062,20.871065,-34.963516,55.875633,18.420212,-2.8270028,-4.7626095,1.0626067,-15.693981,26.902744,60.25143,-17.079,-2.45147,-6.9752026
173,0.025227421894669533,2.255073070526123,78.021484375,0.9444325126112237,-1.4445482845369948,-92.78016270599215,1.8841327,6.4163795,4.9265275,8.910281,-8.209018,-7.234536,2.7012348,-8.318234,-9.516055,8.526513,-11.904553,6.7180505,-2.7949615,-0.658734,6.5760474,3.9838686,20.872913,-34.967308,55.86004,18.41937,-2.828049,-4.755769,1.0740281,-15.699758,26.91494,60.216652,-17.101236,-2.441272,-6.957515
174,0.027348283678293228,2.2540900707244873,78.02471160888672,0.9443757702368245,-1.4486755853768032,-92.77822114275894,1.8874992,6.415423,4.923919,8.914133,-8.214323,-7.2255354,2.7095177,-8.318351,-9.515552,8.524278,-11.912105,6.721029,-2.7728503,-0.6585464,6.5573854,3.9922616,20.874342,-34.966877,55.845608,18.419466,-2.8294544,-4.7449985,1.087427,-15.704129,26.92362,60.17859,-17.148,-2.4288383,-6.9440036
175,0.026166781783103943,2.254408121109009,78.02275085449219,0.9470152007990863,-1.4545886452434391,-92.77573044602597,1.8916146,6.413593,4.9211793,8.92026,-8.219177,-7.21872,2.7191105,-8.319687,-9.515177,8.523648,-11.920486,6.72478,-2.74514,-0.66017437,6.541204,3.9980001,20.875433,-34.966026,55.83263,18.419142,-2.830548,-4.734025,1.096786,-15.707334,26.93276,60.140545,-17.19397,-2.4156501,-6.9334164
176,0.02291899546980858,2.2547245025634766,78.0211181640625,0.9492419554188809,-1.4613195722952415,-92.77288891252813,1.8977703,6.410767,4.918873,8.922754,-8.219476,-7.217433,2.729444,-8.322577,-9.517168,8.522787,-11.926036,6.7286067,-2.7169855,-0.6629892,6.522056,4.0102882,20.878613,-34.965668,55.816265,18.407293,-2.8309543,-4.724685,1.1128964,-15.716455,26.968214,60.086266,-17.208736,-2.3997633,-6.9260535
177,0.019986556842923164,2.2525739669799805,78.02001190185547,0.952338085994298,-1.4689081846554533,-92.76910979426222,1.9061639,6.4057994,4.9173756,8.921384,-8.213098,-7.2261424,2.7390816,-8.328497,-9.523031,8.5250845,-11.928787,6.7330112,-2.6703,-0.66389346,6.5127993,4.007975,20.879845,-34.96964,55.80079,18.386526,-2.833793,-4.722861,1.1126674,-15.720823,26.991604,60.04623,-17.200775,-2.3956597,-6.91458
178,0.02089962363243103,2.2499122619628906,78.02236938476562,0.9585508683189036,-1.4783846415532664,-92.76531116614736,1.9226403,6.398483,4.9178214,8.906613,-8.196125,-7.241921,2.7514508,-8.336944,-9.530872,8.525847,-11.9281645,6.7382116,-2.639161,-0.6691803,6.486139,4.0237417,20.88259,-34.978603,55.787758,18.331074,-2.8325405,-4.7168097,1.1196975,-15.733432,27.09192,59.99671,-17.12306,-2.3839188,-6.9170265
179,0.018030406907200813,2.250894069671631,78.01956939697266,0.9627942407140175,-1.4884191709126189,-92.76071912449649,1.9378934,6.3909345,4.9169683,8.894369,-8.180596,-7.2565737,2.7614238,-8.346202,-9.538876,8.533321,-11.931124,6.743007,-2.615059,-0.66974914,6.4678574,4.0463467,20.88548,-34.969685,55.764355,18.286175,-2.8344166,-4.7153306,1.0982078,-15.754076,27.204908,59.958218,-17.041674,-2.3742175,-6.9161344
180,0.020148901268839836,2.251230478286743,78.0208740234375,0.9671638176134306,-1.4990360533559175,-92.75526989555507,1.9480928,6.3850965,4.912889,8.893987,-8.175521,-7.261966,2.7741985,-8.353079,-9.546015,8.536291,-11.933562,6.7463346,-2.5708995,-0.6714075,6.457787,4.0496917,20.885704,-34.96919,55.75514,18.265642,-2.839492,-4.7177978,1.1032182,-15.75742,27.225218,59.89514,-17.054747,-2.3642137,-6.9087725
181,0.019966481253504753,2.2505853176116943,78.02115631103516,0.9696804872699503,-1.5103437882881654,-92.7496961958954,1.9561657,6.3807745,4.90555,8.899111,-8.179209,-7.2534685,2.7867596,-8.358067,-9.550477,8.541147,-11.940406,6.7469893,-2.541023,-0.6743386,6.44356,4.0615773,20.886427,-34.965084,55.752342,18.257473,-2.8479285,-4.7186294,1.090919,-15.764972,27.274858,59.833157,-17.079851,-2.3392565,-6.9066057
182,0.017388537526130676,2.252720355987549,78.01776885986328,0.9731348060248985,-1.5222548937860432,-92.74368215465167,1.9581741,6.3779035,4.895254,8.918579,-8.194052,-7.236192,2.799489,-8.361629,-9.55358,8.548083,-11.950594,6.745757,-2.5263119,-0.6733967,6.430604,4.092177,20.887068,-34.937546,55.739838,18.27017,-2.8604717,-4.722943,1.0810505,-15.774569,27.310953,59.759037,-17.153006,-2.310003,-6.9016027
183,0.019296621903777122,2.2525134086608887,78.01628875732422,0.9753800163755989,-1.5341887510064276,-92.73615987715495,1.9624313,6.374984,4.883637,8.931884,-8.20695,-7.2167773,2.8129504,-8.364806,-9.55722,8.553959,-11.960235,6.744964,-2.503527,-0.6730606,6.4193163,4.110402,20.88716,-34.92221,55.73788,18.283255,-2.87201,-4.728734,1.076331,-15.778006,27.31881,59.67464,-17.248194,-2.2822278,-6.895919
184,0.023125585168600082,2.2537994384765625,78.01913452148438,0.974968385415269,-1.5444499433943009,-92.72513689546723,1.9628818,6.37279,4.869994,8.948009,-8.220615,-7.201829,2.826763,-8.366904,-9.564118,8.556476,-11.966147,6.7466874,-2.4815724,-0.67197406,6.408484,4.1300197,20.887594,-34.906624,55.73214,18.295942,-2.8764784,-4.735619,1.0675598,-15.782451,27.331154,59.579014,-17.32037,-2.2578807,-6.8921294
185,0.02295600436627865,2.2557990550994873,78.01811981201172,0.9737502477530249,-1.5529274635556432,-92.7096082012357,1.9640533,6.3711095,4.854739,8.956782,-8.230496,-7.19269,2.8417976,-8.367787,-9.573899,8.554318,-11.966413,6.753541,-2.4535432,-0.6688612,6.3987036,4.1370707,20.888166,-34.90665,55.732,18.2978,-2.8715553,-4.7460866,1.0422031,-15.786069,27.351007,59.488102,-17.348898,-2.2417262,-6.8932395
186,0.02146252617239952,2.256901264190674,78.01768493652344,0.97067311699968,-1.560052817114338,-92.69047578913371,1.9644912,6.3701077,4.837379,8.962649,-8.239753,-7.1859393,2.8583634,-8.367057,-9.585947,8.547447,-11.962226,6.763664,-2.4300628,-0.66380227,6.384759,4.144423,20.889078,-34.914646,55.734135,18.290648,-2.8598304,-4.758079,1.0106119,-15.791221,27.385149,59.393444,-17.350222,-2.228122,-6.8998594
187,0.019913075491786003,2.2570366859436035,78.0181884765625,0.9692351171709792,-1.566348812072062,-92.67026208328983,1.9657356,6.3680325,4.8196297,8.964417,-8.2453375,-7.1809897,2.8731768,-8.367583,-9.600112,8.542543,-11.959179,6.772856,-2.4115603,-0.6588763,6.3655224,4.1612024,20.889503,-34.91885,55.733604,18.283756,-2.8470476,-4.768075,0.99556565,-15.795403,27.405527,59.276108,-17.369902,-2.2180943,-6.9028125
188,0.019528424367308617,2.255011558532715,78.01692199707031,0.9695922839185614,-1.5718480513289705,-92.65198421059414,1.9661049,6.3642178,4.8031244,8.966121,-8.246496,-7.1774807,2.8852546,-8.370731,-9.615978,8.541733,-11.960832,6.7766547,-2.3823776,-0.65716344,6.3480215,4.1717095,20.889654,-34.9229,55.736702,18.282963,-2.8406627,-4.774918,0.9644727,-15.7979965,27.417337,59.160378,-17.394083,-2.213712,-6.8937817
189,0.019245104864239693,2.253511428833008,78.01488494873047,0.9724726422349359,-1.5773347767202652,-92.6351137516936,1.9644635,6.3573923,4.786802,8.970742,-8.241591,-7.175781,2.8948448,-8.37841,-9.636976,8.546111,-11.969443,6.771835,-2.3604507,-0.65890366,6.3258824,4.191897,20.889496,-34.9218,55.736416,18.276405,-2.8381412,-4.7697463,0.9431757,-15.798758,27.42045,59.023228,-17.445166,-2.2110002,-6.8705506
190,0.02160736359655857,2.2544565200805664,78.01834106445312,0.9779170847109675,-1.581115176455403,-92.61710970230112,1.9610686,6.3474894,4.768905,8.97294,-8.22967,-7.175759,2.9017577,-8.389804,-9.663676,8.553705,-11.982709,6.7615714,-2.3504004,-0.66896796,6.302719,4.2390604,20.889652,-34.90101,55.7178,18.28196,-2.8343582,-4.749586,0.9437699,-15.803654,27.418541,58.837036,-17.52659,-2.2009165,-6.830126
191,0.021541766822338104,2.2537848949432373,78.01787567138672,0.9822619326347352,-1.5857262135389667,-92.60119480458899,1.9594593,6.338463,4.7531633,8.975233,-8.218662,-7.1768227,2.9075515,-8.400742,-9.687723,8.5651045,-11.997963,6.7507133,-2.3158622,-0.67687076,6.2843924,4.260557,20.889711,-34.89408,55.715218,18.290033,-2.8376584,-4.7374234,0.89654726,-15.806635,27.421013,58.69143,-17.57232,-2.2029815,-6.7922535
192,0.021787777543067932,2.2539210319519043,78.02198791503906,0.9851005828675065,-1.5927783985151764,-92.58604911636267,1.9642526,6.3323083,4.7388744,8.972155,-8.211054,-7.1779666,2.9180622,-8.407629,-9.706693,8.571884,-12.008167,6.7446227,-2.294158,-0.67941064,6.2664332,4.2967973,20.890139,-34.87755,55.704277,18.298874,-2.840487,-4.7268333,0.86363274,-15.812474,27.424095,58.517124,-17.632719,-2.2013412,-6.768279
193,0.018859470263123512,2.255993127822876,78.020263671875,0.9828512795462381,-1.603122416190026,-92.57237836416721,1.9721764,6.3326526,4.726692,8.975273,-8.217223,-7.180012,2.9347758,-8.4069195,-9.716641,8.572941,-12.011449,6.744814,-2.2655494,-0.6748379,6.2452197,4.3285913,20.890308,-34.872818,55.701096,18.306292,-2.8439338,-4.725577,0.82938105,-15.814532,27.42659,58.341137,-17.686472,-2.2002392,-6.7687726
194,0.02347845956683159,2.25520396232605,78.019775390625,0.9772406083620205,-1.6160908506124276,-92.55981267241862,1.984357,6.3375373,4.7160683,8.978115,-8.229293,-7.183231,2.957539,-8.400759,-9.721372,8.5675955,-12.009127,6.748421,-2.2459877,-0.6646765,6.2188616,4.3868628,20.89161,-34.85611,55.68193,18.321486,-2.8455038,-4.7240496,0.8337291,-15.82028,27.420784,58.116238,-17.765158,-2.1930966,-6.7851844
195,0.02442224882543087,2.2535312175750732,78.0159912109375,0.9721740430008884,-1.629278717954517,-92.54760855727038,1.9978228,6.3414316,4.7057652,8.97908,-8.241211,-7.185661,2.9789746,-8.395751,-9.725278,8.565046,-12.007833,6.7539825,-2.2020226,-0.65682375,6.2044253,4.4119673,20.894775,-34.86072,55.68095,18.334597,-2.851947,-4.727692,0.77045846,-15.830386,27.445263,57.936913,-17.780432,-2.1909676,-6.803658
196,0.020779181271791458,2.2487239837646484,78.01318359375,0.9694565264500314,-1.6409991454313777,-92.53304727277194,2.0098963,6.3395596,4.6925073,8.976366,-8.2465105,-7.1854663,3.000084,-8.396337,-9.735692,8.560226,-12.007244,6.760197,-2.174255,-0.6543968,6.183847,4.457997,20.90057,-34.859978,55.667187,18.34231,-2.8542454,-4.726824,0.73328686,-15.845686,27.488436,57.720436,-17.802973,-2.1801293,-6.8201466
197,0.020909126847982407,2.2500393390655518,78.01254272460938,0.9737949622337022,-1.650681261682701,-92.51729021978464,2.015495,6.3308306,4.676387,8.977859,-8.24704,-7.1810265,3.0164294,-8.405039,-9.753442,8.559698,-12.011051,6.767345,-2.1379247,-0.665437,6.165795,4.4832973,20.903156,-34.86769,55.675,18.34851,-2.8596034,-4.7237787,0.7136049,-15.851779,27.523733,57.477642,-17.840015,-2.1646798,-6.8287034
198,0.025604169815778732,2.2490828037261963,78.0171127319336,0.9808623730716867,-1.6587729449389312,-92.50055488569892,2.0183613,6.3170753,4.658535,8.979649,-8.244488,-7.173557,3.0306618,-8.41882,-9.77578,8.559869,-12.01656,6.776026,-2.1071806,-0.6825861,6.1488113,4.518294,20.913464,-34.878838,55.671616,18.345337,-2.8645463,-4.716382,0.625564,-15.87572,27.664022,57.269775,-17.773594,-2.1408918,-6.841907
199,0.027077417820692062,2.2500128746032715,78.01882934570312,0.9896347613316757,-1.6664902577434233,-92.48187604753039,2.019532,6.3014364,4.6385865,8.982042,-8.240133,-7.1661854,3.0440707,-8.434873,-9.800436,8.561281,-12.023137,6.784752,-2.078714,-0.7014193,6.1347895,4.5508947,20.92284,-34.884327,55.67133,18.350868,-2.868815,-4.7124825,0.55495924,-15.896889,27.774464,57.038933,-17.74509,-2.1192968,-6.849707
200,0.027842391282320023,2.2483060359954834,78.0163803100586,0.9970625081680098,-1.6742085819793289,-92.46007171565438,2.0227094,6.2861743,4.6166644,8.978567,-8.2319765,-7.1618004,3.0583093,-8.450219,-9.825441,8.563784,-12.030437,6.791898,-2.0577235,-0.7145448,6.121347,4.5935073,20.934177,-34.881283,55.662647,18.370173,-2.8691027,-4.7144957,0.48890492,-15.921259,27.858578,56.80058,-17.748447,-2.1044433,-6.8527446
201,0.02518315240740776,2.247748851776123,78.01372528076172,1.003292039985574,-1.6817438050792333,-92.43377515408575,2.024078,6.272191,4.591027,8.9756975,-8.222321,-7.162988,3.0743897,-8.463841,-9.851245,8.565852,-12.037461,6.796707,-2.0426867,-0.72175765,6.101084,4.6265125,20.935812,-34.882717,55.675682,18.408646,-2.8626015,-4.725483,0.44821796,-15.924374,27.85922,56.56343,-17.832714,-2.1052907,-6.842893
202,0.023892903700470924,2.2485456466674805,78.01307678222656,1.0097686549985516,-1.6888325315397528,-92.40342552089011,2.0229342,6.257837,4.561823,8.974645,-8.211685,-7.1675215,3.091552,-8.47773,-9.878987,8.56782,-12.044824,6.8002157,-2.0194526,-0.7267256,6.088139,4.6556883,20.941406,-34.890026,55.682228,18.467245,-2.8489668,-4.741941,0.37847805,-15.932665,27.844006,56.3438,-17.907167,-2.1123116,-6.822245
203,0.02574339136481285,2.2485761642456055,78.01294708251953,1.0154739914412783,-1.6963142585859032,-92.37223309230181,2.0248275,6.243553,4.5324306,8.967094,-8.197844,-7.1714935,3.109623,-8.491169,-9.906968,8.568939,-12.051811,6.803179,-1.9866083,-0.72917396,6.0793343,4.6795354,20.953276,-34.909008,55.68656,18.514214,-2.8375876,-4.7592688,0.32987767,-15.946508,27.800863,56.09458,-18.02014,-2.1208851,-6.806552
204,0.028889596462249756,2.248976945877075,78.01610565185547,1.0201470177755312,-1.7048217048374819,-92.34320458395445,2.0253794,6.2308545,4.504816,8.965938,-8.190416,-7.171146,3.1267002,-8.503465,-9.933572,8.571862,-12.059562,6.8063226,-1.958149,-0.7365879,6.0659366,4.7012677,20.956636,-34.92247,55.70874,18.534704,-2.832383,-4.7652426,0.28726554,-15.950086,27.794184,55.825016,-18.16119,-2.1125636,-6.823974
205,0.030335944145917892,2.2523698806762695,78.01470184326172,1.0232599806441838,-1.7145441412456712,-92.31708747120123,2.0257678,6.2199965,4.4803276,8.970429,-8.190457,-7.162876,3.143729,-8.514348,-9.9581375,8.573894,-12.06664,6.809496,-1.8892716,-0.7472908,6.0647736,4.690019,20.974514,-34.99004,55.739613,18.488361,-2.8403893,-4.7553997,0.18931156,-15.972615,27.861115,55.568497,-18.235786,-2.084255,-6.871852
206,0.03164400905370712,2.2541158199310303,78.01506805419922,1.0272605480338568,-1.7251778104056583,-92.29243740220221,2.024708,6.21049,4.4574156,8.981308,-8.196829,-7.14954,3.160403,-8.524215,-9.981234,8.576573,-12.073897,6.8124113,-1.8404511,-0.7585394,6.0561194,4.699234,20.99075,-35.03727,55.768814,18.415148,-2.8576143,-4.7372894,0.13049664,-15.996253,27.951103,55.259987,-18.361778,-2.0401914,-6.9430833
207,0.03414206579327583,2.2531049251556396,78.01802062988281,1.0285098626480944,-1.7362806445609873,-92.26787609131036,2.0257792,6.201661,4.4341297,8.987931,-8.201526,-7.137015,3.177516,-8.533157,-10.005276,8.578345,-12.080427,6.8157578,-1.8006241,-0.76927,6.0455728,4.716073,21.005226,-35.069893,55.798286,18.340513,-2.873442,-4.718666,0.11093924,-16.01948,28.032654,54.90287,-18.5472,-1.9942424,-7.0345287
208,0.036054275929927826,2.2575509548187256,78.01519775390625,1.0293423054642814,-1.7470304098399962,-92.24158535582856,2.0269763,6.1928763,4.4078054,8.990573,-8.201984,-7.131166,3.1951044,-8.541639,-10.032589,8.578913,-12.085857,6.8202534,-1.7523956,-0.7802298,6.0440807,4.7291536,21.016787,-35.088737,55.822624,18.300728,-2.8757656,-4.7063055,0.059939835,-16.040518,28.111513,54.56015,-18.745312,-1.9595017,-7.1457767
209,0.03813054785132408,2.262556552886963,78.01130676269531,1.0284847830740986,-1.7582348492826971,-92.21425335526094,2.0310373,6.185962,4.37771,8.986799,-8.197913,-7.1366076,3.2170074,-8.547008,-10.064125,8.572475,-12.086867,6.827469,-1.7096949,-0.78652,6.0561895,4.7562585,21.032528,-35.073967,55.822975,18.309658,-2.8592572,-4.7053967,-0.028002344,-16.073553,28.19942,54.228878,-18.945217,-1.9402152,-7.269702
210,0.04259933903813362,2.2668514251708984,78.00956726074219,1.0256962613102418,-1.7700423905049085,-92.18664063004849,2.0387993,6.1802197,4.345616,8.974524,-8.188684,-7.149271,3.2406764,-8.55063,-10.097955,8.564353,-12.086826,6.8365808,-1.6437167,-0.79582757,6.06912,4.7587185,21.035387,-35.067795,55.850895,18.346529,-2.830358,-4.7077155,-0.10417272,-16.08069,28.227898,53.897896,-19.211727,-1.9327934,-7.4082565
211,0.04677990823984146,2.2696802616119385,78.00865936279297,1.0228990294161298,-1.7804623977381957,-92.15653123189523,2.0412068,6.1735787,4.3110743,8.967666,-8.180116,-7.16176,3.2630525,-8.555305,-10.134603,8.555889,-12.086232,6.844486,-1.6029961,-0.7993391,6.1103435,4.7880726,21.054106,-35.00933,55.823048,18.39902,-2.799242,-4.714797,-0.3513089,-16.133362,28.41874,53.649933,-19.338945,-1.9226779,-7.5796585
212,0.0482243187725544,2.2735350131988525,78.0086898803711,1.0233757592008954,-1.78728174078709,-92.1227971198138,2.0343535,6.162309,4.275247,8.967065,-8.1703615,-7.1666074,3.277534,-8.565877,-10.172768,8.554562,-12.0887375,6.8483624,-1.5572494,-0.80746645,6.126669,4.813718,21.065237,-34.96945,55.813267,18.430252,-2.77213,-4.718152,-0.4345971,-16.170395,28.50971,53.264343,-19.644545,-1.9103246,-7.787836
213,0.049626268446445465,2.279538869857788,78.01286315917969,1.0282870793994126,-1.7891625411065442,-92.0855608872832,2.0076258,6.1462936,4.239002,8.991702,-8.167545,-7.1601806,3.2821133,-8.583505,-10.212411,8.561349,-12.094883,6.843733,-1.5029087,-0.8227738,6.1237836,4.8257704,21.071007,-34.94999,55.82286,18.431473,-2.7507958,-4.7148123,-0.44902745,-16.19448,28.576925,52.81489,-20.020628,-1.8961415,-8.030571
214,0.05022316426038742,2.286181688308716,78.01509094238281,1.0372511003744642,-1.7875483139423771,-92.04526901657786,1.9762644,6.1250076,4.2027707,9.013783,-8.158489,-7.1467004,3.278728,-8.607621,-10.253633,8.57544,-12.104058,6.833773,-1.4174999,-0.84105086,6.1397433,4.8073115,21.079285,-34.95549,55.826965,18.420214,-2.7291164,-4.7046924,-0.6474386,-16.230225,28.756775,52.489788,-20.253712,-1.8805491,-8.307363
215,0.050507526844739914,2.2928948402404785,78.01332092285156,1.0470636040338281,-1.7840716758328652,-92.00102608839745,1.9400522,6.1027703,4.1624417,9.038172,-8.149423,-7.131709,3.2746353,-8.632195,-10.298055,8.588637,-12.112835,6.8252482,-1.373542,-0.8518537,6.148496,4.829273,21.09124,-34.91966,55.79961,18.40695,-2.7113245,-4.6988344,-0.76742476,-16.29197,28.945425,52.064564,-20.597895,-1.8552675,-8.631846
216,0.05564766377210617,2.2999134063720703,78.01643371582031,1.052852226288015,-1.7811325514643934,-91.95150224982264,1.9020206,6.0833797,4.1135473,9.0639715,-8.14329,-7.1206727,3.27985,-8.651877,-10.348206,8.586929,-12.114406,6.8252087,-1.3122579,-0.86208004,6.163182,4.825727,21.10134,-34.911263,55.78537,18.39202,-2.6949408,-4.694367,-0.8862349,-16.342402,29.102858,51.6321,-21.058775,-1.8172332,-9.022872
217,0.05849621817469597,2.308518886566162,78.01520538330078,1.0554851354703907,-1.7782505489603082,-91.89816130501389,1.8593209,6.068611,4.0555534,9.097129,-8.14496,-7.1159253,3.2914717,-8.664952,-10.401423,8.575322,-12.111326,6.838676,-1.2548499,-0.8663793,6.1849294,4.8193545,21.1114,-34.906155,55.763504,18.37812,-2.6775842,-4.694634,-1.0097252,-16.386549,29.243057,51.19946,-21.651232,-1.7722137,-9.50099
218,0.06175128370523453,2.3170313835144043,78.01420593261719,1.0542568036489584,-1.7750187659313557,-91.84114325179227,1.8149097,6.055939,3.9909263,9.130308,-8.148438,-7.1142607,3.3101382,-8.673741,-10.458185,8.551114,-12.102241,6.8608017,-1.1788523,-0.87332785,6.211381,4.7861843,21.116833,-34.92244,55.758175,18.365467,-2.6600773,-4.696582,-1.1376821,-16.405039,29.340971,50.77688,-22.364471,-1.7201118,-10.04991
219,0.06306007504463196,2.325885772705078,78.01705932617188,1.0530104748093774,-1.7715767868293841,-91.77670800390463,1.7663636,6.0431786,3.9184568,9.166559,-8.1532345,-7.112846,3.3309464,-8.682375,-10.522462,8.525051,-12.09232,6.88402,-1.1411018,-0.8753947,6.2353406,4.790456,21.132608,-34.91202,55.720142,18.34928,-2.6478436,-4.6986465,-1.2872988,-16.45096,29.52814,50.328083,-23.105118,-1.6291486,-10.64483
220,0.06363999843597412,2.3365213871002197,78.0142822265625,1.0512857052224078,-1.7695616449426865,-91.70148700806824,1.7147958,6.028645,3.8374152,9.204499,-8.15607,-7.1090665,3.3544645,-8.693209,-10.598581,8.502153,-12.085095,6.9003234,-1.0882177,-0.88760245,6.2627306,4.769727,21.151768,-34.917946,55.703785,18.341581,-2.6478424,-4.698392,-1.4504931,-16.49825,29.737925,49.849068,-23.88349,-1.4864949,-11.24333
221,0.06069926917552948,2.3433938026428223,78.01143646240234,1.0509207807342473,-1.7701277760981757,-91.61240389588288,1.6579531,6.012287,3.7456212,9.250903,-8.161281,-7.1014504,3.3794258,-8.707497,-10.689574,8.488423,-12.08345,6.9076123,-1.0423882,-0.9076439,6.290107,4.7469983,21.182066,-34.92811,55.693726,18.34574,-2.665929,-4.695749,-1.6351137,-16.566755,30.039116,49.32517,-24.681364,-1.2708104,-11.844704
222,0.053261902183294296,2.355494260787964,78.01200103759766,1.0486874000756479,-1.772518476646295,-91.51202493424135,1.5984055,5.9947295,3.6443663,9.300131,-8.166749,-7.0917253,3.4081805,-8.723038,-10.792752,8.477071,-12.084094,6.9100385,-0.9848795,-0.93738097,6.3141956,4.701329,21.212553,-34.962997,55.711082,18.35726,-2.696402,-4.688729,-1.8361784,-16.631968,30.3829,48.782024,-25.527561,-0.9971926,-12.463391
223,0.05547383800148964,2.36799955368042,78.01306915283203,1.0483389853226706,-1.7737739968670556,-91.40509091447218,1.5334092,5.9757776,3.5370977,9.352219,-8.17043,-7.0817623,3.4358819,-8.740467,-10.902781,8.467718,-12.085655,6.90941,-0.9484106,-0.96439064,6.3478084,4.6816216,21.258318,-34.96527,55.69027,18.367708,-2.7312949,-4.685203,-2.0445986,-16.72796,30.764072,48.186,-26.378061,-0.6913031,-13.089952
224,0.06001710519194603,2.3828136920928955,78.01539611816406,1.0492446868146255,-1.7713333297707314,-91.296302741269,1.4640645,5.9542713,3.427731,9.401269,-8.167762,-7.073364,3.4597552,-8.759873,-11.01449,8.458487,-12.087098,6.907412,-0.8978585,-0.9924131,6.386336,4.657449,21.3028,-34.96015,55.659912,18.365883,-2.7591,-4.681648,-2.2486823,-16.820047,31.085682,47.567593,-27.23504,-0.38410214,-13.719373
225,0.059219855815172195,2.3958775997161865,78.01924133300781,1.0509369852109307,-1.7668812485436056,-91.18607932534802,1.3923348,5.9309688,3.316156,9.445819,-8.156097,-7.067999,3.4795182,-8.7812195,-11.127349,8.453054,-12.090329,6.9013977,-0.835773,-1.0226145,6.428927,4.626108,21.336954,-34.93851,55.627914,18.346731,-2.7758207,-4.676986,-2.455119,-16.88981,31.336704,46.943676,-28.080482,-0.070770994,-14.354214
226,0.06411679089069366,2.4045956134796143,78.02184295654297,1.0525123364081794,-1.760879545294734,-91.07204372647251,1.3162196,5.9061427,3.200508,9.490589,-8.139174,-7.0643916,3.4972465,-8.8044,-11.244077,8.449181,-12.094227,6.891532,-0.7837878,-1.0520445,6.481388,4.613262,21.37754,-34.88043,55.56352,18.319344,-2.78822,-4.6750402,-2.6652946,-16.971077,31.572056,46.28326,-28.914886,0.2617644,-14.994645
227,0.06267694383859634,2.419607400894165,78.02021789550781,1.0557723855931191,-1.7496362382064128,-90.95529067883677,1.2354273,5.878151,3.0827525,9.529981,-8.117156,-7.060387,3.5096915,-8.830111,-11.363324,8.4448595,-12.097044,6.8835154,-0.71250093,-1.0866169,6.523644,4.5737348,21.404587,-34.845127,55.53247,18.283247,-2.7994108,-4.6678724,-2.8901613,-17.025347,31.76853,45.63926,-29.791586,0.5940988,-15.642674
228,0.05518592521548271,2.433213233947754,78.0222396850586,1.060765026930578,-1.7291403292919894,-90.83694191401199,1.1488067,5.8453116,2.9647799,9.559468,-8.090591,-7.053806,3.514463,-8.858976,-11.483723,8.435603,-12.095718,6.883039,-0.647337,-1.1212966,6.5549746,4.53565,21.43148,-34.814953,55.50831,18.24697,-2.815306,-4.6585817,-3.138739,-17.081259,31.974237,44.99899,-30.72859,0.91165495,-16.296581
229,0.04949687421321869,2.4512858390808105,78.0204086303711,1.0682685292521992,-1.6950357265451181,-90.71775829154521,1.0516622,5.8064847,2.8476617,9.579444,-8.060231,-7.043832,3.5092585,-8.891431,-11.6059065,8.414353,-12.085128,6.893509,-0.61234146,-1.156115,6.543323,4.5294023,21.455284,-34.776684,55.49667,18.201094,-2.8446372,-4.647461,-3.1749985,-17.136002,32.09832,44.18536,-31.945154,1.2190642,-16.96235
230,0.06252991408109665,2.463838815689087,78.02049255371094,1.0772022454277388,-1.6499487169146043,-90.5970347765577,0.94614655,5.7623982,2.7304902,9.590157,-8.024605,-7.031588,3.4933312,-8.92788,-11.729711,8.38988,-12.070648,6.911342,-0.5287582,-1.183543,6.5803456,4.474315,21.496927,-34.780434,55.461746,18.140812,-2.8816335,-4.629418,-3.67144,-17.240164,32.413425,43.690838,-32.889523,1.5251616,-17.642523
231,0.07617044448852539,2.4762609004974365,78.0234603881836,1.08641522860245,-1.6025807666895506,-90.47343833897844,0.83873874,5.7162094,2.6108353,9.598014,-7.987326,-7.0182347,3.4767585,-8.965348,-11.855104,8.363195,-12.055312,6.93158,-0.46933028,-1.2166822,6.5736203,4.4431233,21.523947,-34.772667,55.45418,18.09801,-2.9113357,-4.6149716,-3.854603,-17.316933,32.567554,42.945957,-34.087948,1.8147509,-18.310133
232,0.08025946468114853,2.488438367843628,78.03081512451172,1.0955926856801308,-1.5605480674838856,-90.34554922181076,0.73362064,5.671134,2.486304,9.610714,-7.952285,-7.0049753,3.467125,-9.000977,-11.98177,8.337427,-12.042859,6.949387,-0.397427,-1.2454387,6.596982,4.393251,21.56061,-34.773632,55.42661,18.08593,-2.9188519,-4.607826,-4.175819,-17.425327,32.759254,42.248394,-35.100994,2.0739808,-18.94941
233,0.07543820142745972,2.5045158863067627,78.03163146972656,1.1051977763786942,-1.5266564849184887,-90.21325193752452,0.63233405,5.627403,2.3563333,9.631843,-7.9221096,-6.9906344,3.4672277,-9.034565,-12.107945,8.313502,-12.034997,6.964924,-0.31832123,-1.2753516,6.632759,4.33401,21.597942,-34.776337,55.39072,18.136478,-2.8892438,-4.613725,-4.5097785,-17.537199,32.91462,41.514652,-36.015133,2.282589,-19.556452
234,0.07754392176866531,2.517328977584839,78.03500366210938,1.115091608868141,-1.49657682711549,-90.07724264051484,0.5323729,5.5836515,2.2222562,9.656925,-7.89408,-6.975112,3.472676,-9.06734,-12.234192,8.289307,-12.029155,6.9802876,-0.23445186,-1.3069247,6.674062,4.2640486,21.634455,-34.784603,55.35576,18.228199,-2.8342693,-4.6278734,-4.866256,-17.645569,33.045033,40.76552,-36.87194,2.4520583,-20.144514
235,0.08054055273532867,2.5306951999664307,78.03746795654297,1.1248457516629855,-1.467548309320186,-89.9372621416799,0.4330092,5.539721,2.0842388,9.680346,-7.864146,-6.961097,3.48011,-9.099766,-12.364247,8.266385,-12.024819,6.993549,-0.16491996,-1.3447899,6.69592,4.204601,21.66408,-34.784615,55.339146,18.324799,-2.7770703,-4.64097,-5.0922203,-17.733393,33.107826,39.901478,-37.806408,2.6108775,-20.717953
236,0.08102010190486908,2.5432522296905518,78.03887176513672,1.1331852549122259,-1.4363971815970413,-89.79326807822059,0.33458132,5.49533,1.9427445,9.694903,-7.8275485,-6.9510927,3.4856462,-9.132542,-12.501577,8.245611,-12.020986,7.0030704,-0.07498656,-1.3830092,6.7411623,4.12585,21.703287,-34.799397,55.319115,18.384085,-2.7410526,-4.6417522,-5.510782,-17.844234,33.2382,39.15434,-38.589813,2.7882657,-21.281466
237,0.0802852138876915,2.555696964263916,78.03914642333984,1.1404964550692358,-1.4017553955697408,-89.6415376806577,0.2353431,5.449986,1.7941856,9.6969385,-7.780057,-6.948155,3.4891636,-9.165885,-12.651279,8.225732,-12.016741,7.00728,-0.0007361699,-1.426388,6.7748756,4.069722,21.74869,-34.798138,55.299385,18.398378,-2.7365787,-4.6313396,-5.8174896,-17.968676,33.33149,38.28334,-39.427147,2.993364,-21.812595
238,0.08614003658294678,2.5734519958496094,78.04059600830078,1.147310635388643,-1.3652553601322166,-89.48337855063546,0.13653867,5.4038625,1.639621,9.690585,-7.7256618,-6.950069,3.4926267,-9.199464,-12.810044,8.207248,-12.013766,7.007497,0.08082747,-1.4751962,6.8137016,4.0002933,21.796726,-34.807346,55.29257,18.382305,-2.7493925,-4.610762,-6.2016554,-18.092274,33.440353,37.44813,-40.19367,3.2090456,-22.320118
239,0.0857405811548233,2.587791919708252,78.04316711425781,1.1521993716714183,-1.3294846902045652,-89.32602607199007,0.039052807,5.3584247,1.4860183,9.683264,-7.6709285,-6.951811,3.495827,-9.232749,-12.969067,8.189839,-12.010392,7.006097,0.16910107,-1.5252136,6.857731,3.932671,21.846334,-34.814075,55.284946,18.35985,-2.7674136,-4.583639,-6.651369,-18.21728,33.567066,36.652874,-40.91818,3.4244766,-22.842146
240,0.08445614576339722,2.5999937057495117,78.04637908935547,1.1581089018725552,-1.296947018043055,-89.17672759037364,-0.057927653,5.3148627,1.3401403,9.687401,-7.6256046,-6.9482975,3.4977489,-9.265103,-13.119111,8.176486,-12.007467,7.005455,0.26052925,-1.5720012,6.9033127,3.8683367,21.89533,-34.821556,55.279335,18.336422,-2.7789097,-4.552978,-7.1086087,-18.34573,33.698982,35.86616,-41.659058,3.6296105,-23.415836
