liuchenxu125/GMR/soma-retargeter/assets/motions/csv/body_stretch_1_004__A069.csv
Frame,root_translateX,root_translateY,root_translateZ,root_rotateX,root_rotateY,root_rotateZ,left_hip_pitch_joint_dof,left_hip_roll_joint_dof,left_hip_yaw_joint_dof,left_knee_joint_dof,left_ankle_pitch_joint_dof,left_ankle_roll_joint_dof,right_hip_pitch_joint_dof,right_hip_roll_joint_dof,right_hip_yaw_joint_dof,right_knee_joint_dof,right_ankle_pitch_joint_dof,right_ankle_roll_joint_dof,waist_yaw_joint_dof,waist_roll_joint_dof,waist_pitch_joint_dof,left_shoulder_pitch_joint_dof,left_shoulder_roll_joint_dof,left_shoulder_yaw_joint_dof,left_elbow_joint_dof,left_wrist_roll_joint_dof,left_wrist_pitch_joint_dof,left_wrist_yaw_joint_dof,right_shoulder_pitch_joint_dof,right_shoulder_roll_joint_dof,right_shoulder_yaw_joint_dof,right_elbow_joint_dof,right_wrist_roll_joint_dof,right_wrist_pitch_joint_dof,right_wrist_yaw_joint_dof
0,0.7106965184211731,2.54986834526062,77.65257263183594,0.774291789919919,-0.8299045644289702,-85.5625039304919,5.6916904,4.8601933,24.092901,7.4643383,-12.719764,-5.4937997,6.0648623,-10.479946,-26.773647,9.951249,-12.128685,9.607336,-1.1630163,-0.32001802,4.9107585,6.13931,15.778791,-17.78666,65.62142,-8.276289,1.6800618,-9.979626,-0.43060175,-14.90377,31.097368,63.804974,21.765524,11.591491,6.4049487
1,0.7268112897872925,2.553823471069336,77.65177917480469,0.7822902622818071,-0.8273264800760899,-85.5710644145001,5.692785,4.8369427,24.10638,7.452133,-12.717036,-5.4832754,6.0004163,-10.531377,-26.759436,10.080632,-12.169315,9.617004,-1.1459612,-0.34087357,4.8986287,6.096401,15.831984,-17.610594,65.73824,-8.171079,1.6267393,-10.046999,-0.4454582,-14.928564,31.080692,63.89358,21.775776,11.520208,6.454972
2,0.7396613955497742,2.5606091022491455,77.65130615234375,0.7903059869990278,-0.8243800221302775,-85.5796267670842,5.6955867,4.8125243,24.120377,7.434985,-12.711503,-5.4731965,5.9359226,-10.582807,-26.745415,10.209459,-12.209736,9.626244,-1.1370419,-0.37362415,4.894589,6.088543,15.918339,-17.423185,65.802086,-8.068461,1.5769672,-10.133056,-0.458742,-14.954269,31.079655,63.965996,21.790876,11.444581,6.5099573
3,0.7512047290802002,2.5644869804382324,77.65086364746094,0.7978930055207781,-0.821711811751913,-85.58827482373212,5.696394,4.789003,24.133574,7.4230237,-12.708791,-5.462348,5.870254,-10.634889,-26.730856,10.341251,-12.251854,9.636581,-1.1281044,-0.41296962,4.8930984,6.086041,16.022211,-17.229702,65.86363,-7.9689655,1.5295651,-10.206447,-0.4747851,-14.977704,31.065943,64.040665,21.80452,11.376417,6.5634565
4,0.7655856013298035,2.570403814315796,77.64915466308594,0.8045435878870358,-0.8201422297282475,-85.59715558823588,5.6911774,4.7684216,24.144588,7.427096,-12.715273,-5.449507,5.8022976,-10.6881275,-26.714935,10.478879,-12.296679,9.6495,-1.1227504,-0.45842376,4.8951488,6.0837355,16.146069,-17.016865,65.94031,-7.871481,1.4857948,-10.242749,-0.4988381,-15.001458,31.025276,64.12427,21.81527,11.327652,6.61225
5,0.7806059718132019,2.5804600715637207,77.64849090576172,0.8101553924414187,-0.8207691157438833,-85.60551190184479,5.6795444,4.752349,24.151731,7.450695,-12.733228,-5.434892,5.734403,-10.741204,-26.698803,10.619784,-12.344239,9.667446,-1.1238167,-0.51101834,4.903666,6.081623,16.292301,-16.783907,66.03683,-7.778768,1.4464148,-10.230222,-0.5329735,-15.026386,30.946611,64.217384,21.821394,11.311814,6.6576896
6,0.7950277328491211,2.5838260650634766,77.6464614868164,0.8139897936263332,-0.8227965673124722,-85.61348903503989,5.6617804,4.740321,24.155876,7.491823,-12.761451,-5.4190097,5.6659045,-10.794316,-26.682312,10.764335,-12.394527,9.688888,-1.1285216,-0.5700896,4.917726,6.0822964,16.459126,-16.537504,66.14281,-7.6909804,1.4108137,-10.1837,-0.5727112,-15.0524435,30.840588,64.314,21.824823,11.319566,6.700977
7,0.810876190662384,2.588547945022583,77.64273071289062,0.8199417621697422,-0.8244062852978967,-85.62276348987695,5.642033,4.727206,24.160795,7.5357037,-12.79082,-5.4008694,5.5915475,-10.850971,-26.662945,10.918634,-12.447919,9.7096,-1.1317883,-0.63488436,4.9323783,6.085793,16.645615,-16.274038,66.252174,-7.601289,1.3785065,-10.119967,-0.6129082,-15.08253,30.721367,64.41123,21.82726,11.327654,6.7389007
8,0.8310055136680603,2.601611614227295,77.64085388183594,0.8265989326174037,-0.8231964420194225,-85.63517948309764,5.6234274,4.708453,24.170036,7.569585,-12.813341,-5.379517,5.50491,-10.915005,-26.637915,11.091961,-12.507038,9.725314,-1.1291294,-0.70437545,4.9430413,6.092605,16.851307,-15.990438,66.35829,-7.5036907,1.3487943,-10.055842,-0.6484374,-15.122212,30.604744,64.505745,21.831793,11.31312,6.7680287
9,0.8502343893051147,2.6143674850463867,77.63973236083984,0.8401151134033468,-0.8198898830316387,-85.65199240447522,5.6108794,4.6791816,24.185642,7.5860944,-12.824959,-5.3528833,5.4039893,-10.991006,-26.60456,11.2897625,-12.574194,9.734141,-1.1186272,-0.77970093,4.9494357,6.1041884,17.074556,-15.686949,66.45995,-7.391239,1.3237063,-9.983773,-0.672905,-15.175103,30.498112,64.586464,21.846415,11.268849,6.7809176
10,0.8678888082504272,2.6194026470184326,77.63597106933594,0.857379821582816,-0.8150312069216543,-85.67200915995579,5.6009197,4.643104,24.205427,7.5933633,-12.8302765,-5.3220854,5.291343,-11.076028,-26.564844,11.508214,-12.648662,9.738597,-1.1032515,-0.85944647,4.954598,6.1187425,17.31431,-15.364595,66.56295,-7.268933,1.3011937,-9.899148,-0.6877886,-15.241828,30.393312,64.65271,21.869059,11.208017,6.781806
11,0.8865978717803955,2.627734422683716,77.63481140136719,0.8730409800552743,-0.8071528819163631,-85.69308310921879,5.5853777,4.6081104,24.22635,7.6036386,-12.837042,-5.29077,5.1699343,-11.161913,-26.522657,11.735001,-12.723628,9.74148,-1.085306,-0.9394944,4.9582715,6.136067,17.572191,-15.019811,66.66172,-7.146835,1.2800874,-9.82253,-0.6987275,-15.324265,30.279436,64.7167,21.883057,11.138456,6.785514
12,0.9102364778518677,2.6390819549560547,77.63475036621094,0.8826132814768922,-0.7945242712504785,-85.7131849449659,5.5536065,4.583415,24.245174,7.6346073,-12.855638,-5.262547,5.041705,-11.241207,-26.481764,11.961012,-12.794229,9.74546,-1.0667207,-1.0152919,4.9615436,6.1542554,17.850708,-14.649923,66.75463,-7.036438,1.2548503,-9.776405,-0.70841765,-15.422841,30.14623,64.78437,21.873325,11.068069,6.807356
13,0.934259295463562,2.6579396724700928,77.63335418701172,0.8845629839948554,-0.7779108235485759,-85.7330109828963,5.50607,4.5721965,24.262604,7.6871676,-12.888393,-5.2396064,4.9099493,-11.308543,-26.442503,12.177785,-12.856487,9.75252,-1.0444111,-1.0845479,4.965677,6.172822,18.151354,-14.254328,66.84022,-6.94587,1.2237793,-9.772859,-0.71508485,-15.537539,29.992449,64.855064,21.835377,10.994558,6.846564
14,0.9578042030334473,2.6742258071899414,77.6295166015625,0.8802567971992024,-0.7577472516985643,-85.75329744881125,5.446645,4.569517,24.279781,7.7546206,-12.93071,-5.2195864,4.7729673,-11.369422,-26.403252,12.39195,-12.913803,9.760864,-1.0180073,-1.1506922,4.970188,6.1933875,18.474104,-13.83546,66.91913,-6.8686633,1.1894163,-9.798568,-0.71657,-15.668458,29.82263,64.92378,21.777565,10.915399,6.896582
15,0.9772327542304993,2.687957763671875,77.62805938720703,0.8736558295046554,-0.732366287970713,-85.77161339945303,5.37261,4.571595,24.294312,7.837546,-12.979479,-5.1992764,4.623084,-11.431409,-26.364119,12.619614,-12.973168,9.76706,-0.99369484,-1.2176917,4.973432,6.218792,18.81924,-13.392277,66.9911,-6.7913985,1.1536999,-9.83744,-0.7170305,-15.816931,29.634636,64.99451,21.704088,10.837588,6.9643064
16,0.9987159371376038,2.704664945602417,77.6250228881836,0.8690376379729723,-0.7000355297670862,-85.78529573824585,5.280768,4.5744815,24.303879,7.937418,-13.032541,-5.1755614,4.451977,-11.502782,-26.32498,12.878533,-13.042554,9.767934,-0.9775739,-1.2897522,4.973896,6.2512903,19.187393,-12.925627,67.056175,-6.7028646,1.1186388,-9.873324,-0.72112805,-15.985377,29.426834,65.07306,21.619904,10.766688,7.057131
17,1.0227175951004028,2.724351644515991,77.62261962890625,0.8673479443442818,-0.6609511223175981,-85.79284290593327,5.170285,4.5764995,24.307203,8.05669,-13.090586,-5.146614,4.2582293,-11.586525,-26.286135,13.174818,-13.125762,9.761063,-0.97109395,-1.3688612,4.971276,6.2959676,19.576656,-12.426272,67.111046,-6.603057,1.0828924,-9.90353,-0.7244156,-16.17527,29.191555,65.14939,21.524508,10.711616,7.173825
18,1.0481985807418823,2.740441083908081,77.6189193725586,0.8659975724621294,-0.6157836685158058,-85.79596381593251,5.043378,4.579393,24.305859,8.193175,-13.154266,-5.114343,4.051841,-11.675019,-26.24853,13.484896,-13.213753,9.748796,-0.970933,-1.45173,4.966589,6.349732,19.986378,-11.897055,67.15736,-6.497415,1.0460624,-9.936194,-0.72438604,-16.386686,28.931355,65.22257,21.415865,10.666441,7.3121533
19,1.0714582204818726,2.765650749206543,77.6158447265625,0.8653521582271461,-0.5637613760979724,-85.79682444787517,4.9005866,4.58497,24.301468,8.342236,-13.220932,-5.081053,3.8230479,-11.770223,-26.209372,13.824714,-13.308248,9.734801,-0.9758049,-1.5365376,4.95929,6.404865,20.42034,-11.355545,67.2018,-6.380915,1.0113089,-9.971339,-0.7277196,-16.622234,28.661295,65.3049,21.29656,10.62021,7.47491
20,1.0964970588684082,2.7934410572052,77.61455535888672,0.861487871229153,-0.5038201915557731,-85.79791277209168,4.7422915,4.595521,24.295717,8.499739,-13.288078,-5.0491834,3.5711288,-11.868948,-26.16787,14.189126,-13.401815,9.722592,-0.9842317,-1.621879,4.9489913,6.455021,20.884851,-10.818969,67.24865,-6.2488494,0.982207,-10.009399,-0.7386276,-16.885862,28.394611,65.405304,21.168234,10.5624485,7.665055
21,1.1218522787094116,2.8210532665252686,77.6133804321289,0.8565347065692499,-0.43435154731525866,-85.79955857210774,4.565519,4.6107116,24.287672,8.667408,-13.355579,-5.019544,3.2930806,-11.972382,-26.127525,14.580657,-13.495906,9.712741,-0.99596375,-1.7096196,4.935891,6.4997406,21.383,-10.285469,67.29678,-6.099314,0.96,-10.053705,-0.7540753,-17.179394,28.124987,65.51774,21.052307,10.492464,7.8943653
22,1.1501847505569458,2.8499279022216797,77.60932922363281,0.8513477904554434,-0.3563222035206552,-85.80055576135712,4.371821,4.629322,24.276833,8.844353,-13.423461,-4.9908743,2.9908617,-12.080973,-26.087399,14.999175,-13.592706,9.703451,-1.0104834,-1.8005548,4.920723,6.5443034,21.91407,-9.747521,67.341484,-5.9349446,0.9431348,-10.104168,-0.7685928,-17.502733,27.847157,65.63414,20.94106,10.415531,8.15839
23,1.1728408336639404,2.887737512588501,77.60725402832031,0.8429073721212321,-0.2729062305728467,-85.8010334136704,4.1673265,4.6520777,24.265703,9.026935,-13.491942,-4.962474,2.6691654,-12.192149,-26.039883,15.440571,-13.687874,9.694871,-1.0265208,-1.8920447,4.905412,6.589904,22.479368,-9.217281,67.38231,-5.7612514,0.9304685,-10.156883,-0.7845626,-17.85793,27.576374,65.76223,20.79293,10.329775,8.435137
24,1.1947391033172607,2.9299395084381104,77.60604858398438,0.8310542559986355,-0.1874296329827592,-85.80093110510845,3.962171,4.6778593,24.25686,9.201815,-13.556012,-4.9334526,2.3331869,-12.3029,-25.977638,15.900259,-13.777241,9.687158,-1.0422163,-1.9815153,4.892031,6.6381693,23.080631,-8.706119,67.417755,-5.58289,0.92140216,-10.20788,-0.8040037,-18.248142,27.328995,65.90798,20.567818,10.233535,8.702881
25,1.213588833808899,2.9722323417663574,77.60618591308594,0.8155977389918623,-0.10055743685784455,-85.7997543642249,3.7549155,4.709553,24.251722,9.3741665,-13.619338,-4.902833,1.9835423,-12.4108,-25.899397,16.376421,-13.86024,9.6729555,-1.0579219,-2.0673168,4.8835125,6.690472,23.717552,-8.214611,67.4419,-5.3952813,0.9164155,-10.253148,-0.82101303,-18.672434,27.08581,66.06933,20.230156,10.1173315,8.943834
26,1.2352951765060425,3.0141372680664062,77.60474395751953,0.7976435870573819,-0.010583006331544766,-85.79764928699025,3.5435038,4.745705,24.248936,9.543836,-13.680436,-4.87129,1.6179383,-12.517607,-25.808714,16.871162,-13.938236,9.654855,-1.0731562,-2.151061,4.878076,6.745102,24.389774,-7.738018,67.45788,-5.197904,0.9157047,-10.295989,-0.83476156,-19.130304,26.845291,66.24231,19.810627,9.984575,9.17302
27,1.257541298866272,3.0563583374023438,77.60613250732422,0.777602517307447,0.08259041350000293,-85.79587858050463,3.3287518,4.7830997,24.24575,9.708679,-13.737653,-4.841128,1.2358974,-12.626709,-25.70577,17.387114,-14.012378,9.648286,-1.0871211,-2.2349446,4.8709836,6.799922,25.099566,-7.278805,67.47629,-5.001809,0.9178285,-10.344032,-0.8550384,-19.628145,26.64879,66.42937,19.364796,9.852437,9.4188175
28,1.2835584878921509,3.100661277770996,77.6089096069336,0.7584709312226497,0.17909919947918743,-85.7957083341685,3.1119654,4.818685,24.239532,9.866002,-13.788696,-4.814501,0.83360505,-12.742794,-25.589716,17.934313,-14.08554,9.668526,-1.0991341,-2.3197978,4.8590984,6.8554773,25.848679,-6.8356977,67.50396,-4.8162465,0.9212517,-10.405968,-0.8873399,-20.174147,26.537857,66.62442,18.94932,9.739101,9.710642
29,1.3068608045578003,3.1445953845977783,77.61113739013672,0.7373892267657551,0.2836399254497056,-85.79447618005408,2.884673,4.8554707,24.22392,10.019437,-13.83389,-4.793142,0.40563038,-12.865421,-25.474062,18.51748,-14.1588,9.712519,-1.113957,-2.4035313,4.83967,6.9117203,26.63983,-6.421392,67.54038,-4.6453557,0.92765063,-10.484976,-0.9381374,-20.775047,26.543303,66.82049,18.585915,9.655635,10.061576
30,1.3271621465682983,3.198187828063965,77.61335754394531,0.714346494266012,0.39448961191947524,-85.79247759828526,2.6494517,4.8939586,24.202156,10.168373,-13.87358,-4.775555,-0.044846065,-12.991967,-25.354519,19.131308,-14.231103,9.774695,-1.130954,-2.4851103,4.81695,6.9710913,27.471643,-6.028679,67.57869,-4.4827213,0.9371782,-10.577768,-0.9999331,-21.431105,26.637867,67.01336,18.243979,9.590928,10.456116
31,1.3464703559875488,3.2483761310577393,77.61187744140625,0.6938961682822956,0.5021539161888474,-85.79550992853035,2.4220617,4.9284153,24.18573,10.309873,-13.910035,-4.7589135,-0.5085392,-13.124269,-25.203583,19.770674,-14.301513,9.86643,-1.1422,-2.5673625,4.797214,7.0358696,28.339193,-5.6308894,67.61978,-4.324682,0.94588864,-10.681011,-1.0615567,-22.141354,26.776033,67.20744,17.898956,9.529364,10.879561
32,1.3668349981307983,3.2972195148468018,77.60932922363281,0.6809653648278732,0.597139435407464,-85.80942959927334,2.2178302,4.9530597,24.186275,10.443111,-13.946307,-4.740186,-0.9753027,-13.263412,-24.994324,20.42918,-14.368457,9.999025,-1.1399407,-2.6522274,4.7868876,7.108223,29.23595,-5.20083,67.665306,-4.1674685,0.94996345,-10.791211,-1.1110836,-22.903727,26.91371,67.40676,17.528202,9.455282,11.316961
33,1.3912087678909302,3.3570468425750732,77.60739135742188,0.6747738290943694,0.6794129228051675,-85.8398209131769,2.0392747,4.967898,24.20907,10.56575,-13.981311,-4.71852,-1.448623,-13.413497,-24.74201,21.115728,-14.432217,10.176234,-1.1184562,-2.7397459,4.7847657,7.186861,30.156967,-4.7297134,67.72787,-4.0104966,0.9394277,-10.898351,-1.1518545,-23.720524,27.066502,67.6179,17.10554,9.355618,11.7832
34,1.4131957292556763,3.401160717010498,77.60657501220703,0.6729431163449179,0.7531217375094537,-85.88209635599092,1.8781878,4.976145,24.247063,10.680313,-14.014566,-4.6955833,-1.9327499,-13.572028,-24.453293,21.832386,-14.49468,10.391422,-1.0843471,-2.826047,4.7886133,7.2714753,31.102177,-4.2317038,67.80487,-3.8558393,0.9190082,-11.0059805,-1.1894256,-24.592754,27.250952,67.836464,16.65111,9.240768,12.279634
35,1.436038851737976,3.4435958862304688,77.60502624511719,0.6783798566061385,0.8152118827200092,-85.92720313666814,1.7332163,4.977116,24.293642,10.794556,-14.050023,-4.671874,-2.4170818,-13.72826,-24.088305,22.557892,-14.554702,10.640562,-1.0467528,-2.910932,4.8008485,7.367414,32.0743,-3.7118812,67.87585,-3.6989293,0.906664,-11.130567,-1.2172158,-25.517862,27.42022,68.05885,16.208117,9.130046,12.770004
36,1.4584418535232544,3.484341859817505,77.59652709960938,0.6935020608356466,0.8626936614009993,-85.96611341010947,1.6099828,4.9671555,24.342901,10.899645,-14.088393,-4.6484594,-2.8925884,-13.870619,-23.607473,23.273926,-14.613534,10.920743,-1.012178,-2.9943786,4.824181,7.4767995,33.07834,-3.179331,67.92153,-3.536529,0.9203869,-11.289789,-1.2239358,-26.490868,27.52234,68.2786,15.817693,9.04405,13.218985
37,1.4775571823120117,3.5272579193115234,77.58621215820312,0.7189190448789434,0.8934285154045104,-86.00284160654047,1.5069027,4.948395,24.404375,11.005389,-14.134686,-4.623743,-3.3702035,-13.986849,-22.97549,23.988094,-14.673002,11.239885,-0.9764707,-3.0781364,4.862458,7.601223,34.119247,-2.6402605,67.93405,-3.3698819,0.97642446,-11.501225,-1.2108527,-27.510336,27.53366,68.4994,15.466662,8.9933405,13.62227
38,1.4908788204193115,3.5630006790161133,77.57360076904297,0.7528844314580456,0.9095203339329291,-86.04020321302626,1.4228156,4.921944,24.477692,11.110341,-14.1868515,-4.5981126,-3.850238,-14.082466,-22.222925,24.706808,-14.734012,11.598785,-0.9338164,-3.1630633,4.913591,7.7337775,35.19843,-2.0958474,67.92883,-3.2033658,1.0611738,-11.753002,-1.1744697,-28.576101,27.474876,68.718254,15.136627,8.966378,13.998205
39,1.5020925998687744,3.599012613296509,77.55693054199219,0.7963388315300167,0.9142979219632887,-86.06696921176258,1.356741,4.883381,24.541384,11.20581,-14.237064,-4.5742955,-4.303307,-14.172301,-21.409166,25.399475,-14.792415,11.984358,-0.88892066,-3.2520423,4.9687266,7.870096,36.315193,-1.540182,67.918076,-3.0330381,1.1480571,-12.01658,-1.1070513,-29.68768,27.373417,68.93282,14.8708,8.950561,14.343409
40,1.5110225677490234,3.6295082569122314,77.53919219970703,0.8504731865377999,0.9111142643484536,-86.072444350239,1.3072517,4.828636,24.573788,11.283998,-14.278152,-4.555504,-4.7057357,-14.275547,-20.591427,26.046705,-14.844685,12.382406,-0.8486769,-3.3465638,5.019322,8.005702,37.46818,-0.9691404,67.91469,-2.8589208,1.2105103,-12.262857,-0.99986225,-30.84281,27.251144,69.14119,14.705485,8.932541,14.655334
41,1.5159655809402466,3.6507434844970703,77.51837158203125,0.9238747237262807,0.8966695617443561,-86.05634709238683,1.2851747,4.744189,24.569475,11.329604,-14.303318,-4.5416694,-5.067503,-14.3557,-19.647522,26.632135,-14.866145,12.843337,-0.81505775,-3.455383,5.066827,8.1517515,38.659748,-0.3859858,67.915276,-2.687823,1.2396326,-12.488014,-0.85495317,-32.04058,27.12252,69.357956,14.703809,8.914639,14.925959
42,1.5150113105773926,3.6582894325256348,77.49916076660156,1.0130329905326871,0.8706208222317475,-86.02389582697661,1.2873626,4.6362815,24.53978,11.351224,-14.318225,-4.5313044,-5.395299,-14.414958,-18.593449,27.172583,-14.870366,13.358371,-0.7868998,-3.5749974,5.114221,8.309128,39.89048,0.20888124,67.916504,-2.521116,1.2503482,-12.705786,-0.67855513,-33.27989,26.974703,69.585106,14.829324,8.902377,15.159298
43,1.5149531364440918,3.664414882659912,77.47762298583984,1.1015715968667703,0.8405820534525263,-85.97136781490758,1.2933134,4.528784,24.489271,11.372047,-14.331046,-4.5256777,-5.6551185,-14.534717,-17.6933,27.679886,-14.900614,13.819908,-0.7634416,-3.6896613,5.1536884,8.461698,41.15332,0.8305773,67.92816,-2.3408344,1.2515928,-12.913578,-0.46053392,-34.557693,26.784552,69.79068,14.969649,8.8942585,15.367759
44,1.513889193534851,3.6753880977630615,77.45830535888672,1.1739708343238437,0.8141399131688946,-85.89520965340283,1.2830828,4.444515,24.422667,11.415173,-14.350881,-4.5256124,-5.818144,-14.803947,-17.208057,28.167202,-14.994846,14.116525,-0.74761057,-3.782063,5.177996,8.588289,42.439857,1.4860712,67.96602,-2.1367197,1.252117,-13.10604,-0.19653018,-35.871098,26.534668,69.9469,15.014398,8.887864,15.56277
45,1.5078387260437012,3.677164077758789,77.44007110595703,1.2266779744544976,0.7922414917223747,-85.79105381420383,1.2549522,4.3862305,24.34127,11.47944,-14.3753805,-4.532421,-5.868537,-15.266442,-17.240894,28.646185,-15.1629715,14.21295,-0.7417184,-3.847666,5.1825504,8.682229,43.744583,2.1945035,68.0459,-1.8860117,1.252026,-13.28242,0.12147018,-37.21975,26.208654,70.04701,14.915437,8.885254,15.737585
46,1.4988775253295898,3.6712725162506104,77.42462158203125,1.2688635700577036,0.7710679477689204,-85.66186025016198,1.219391,4.341202,24.24295,11.553453,-14.400939,-4.545117,-5.824218,-15.8775835,-17.639624,29.10659,-15.381411,14.166851,-0.7455459,-3.8937886,5.1721706,8.757212,45.068417,2.9461632,68.15727,-1.6008037,1.2471099,-13.44257,0.48994347,-38.604786,25.821102,70.109436,14.742066,8.886219,15.888715
47,1.4857735633850098,3.6612629890441895,77.41297149658203,1.303057841309151,0.7510658825836618,-85.51494367731821,1.1734546,4.309269,24.126661,11.644397,-14.43279,-4.5612016,-5.7051983,-16.592304,-18.282394,29.526848,-15.635937,14.006037,-0.7570034,-3.9224212,5.15009,8.826194,46.41332,3.7070458,68.27295,-1.3194612,1.2399828,-13.582969,0.9011316,-40.025112,25.389265,70.14489,14.5487175,8.884318,16.033072
48,1.4707988500595093,3.6483545303344727,77.40308380126953,1.3317318483710987,0.7327260180486511,-85.35713792564074,1.1201202,4.287947,23.991987,11.746021,-14.4689665,-4.5782676,-5.5356665,-17.363232,-19.047148,29.89184,-15.916014,13.759694,-0.77260417,-3.9355726,5.1189327,8.89877,47.78174,4.4416895,68.367455,-1.0797099,1.2333189,-13.700073,1.35108,-41.477425,24.92146,70.16222,14.382752,8.87281,16.187815
49,1.4534879922866821,3.6379997730255127,77.3924789428711,1.3554854816482411,0.7152147725374581,-85.18224116040993,1.0533117,4.2772646,23.829363,11.870152,-14.51526,-4.593809,-5.302469,-18.209162,-19.96629,30.212223,-16.266489,13.38425,-0.7981937,-3.9328275,5.0781455,8.968279,49.17888,5.130013,68.44576,-0.88978845,1.2276971,-13.78143,1.8448696,-42.959797,24.4224,70.16339,14.2539425,8.851842,16.345007
50,1.4340574741363525,3.61858868598938,77.38068389892578,1.3728328522307907,0.6984881169535203,-84.9890100686342,0.9761405,4.277377,23.642422,12.010712,-14.568096,-4.609884,-4.9900784,-19.141329,-21.088625,30.494583,-16.684141,12.885613,-0.82216245,-3.9151034,5.027332,9.017425,50.608124,5.7791476,68.522675,-0.730593,1.2218318,-13.832978,2.3649895,-44.47581,23.933954,70.169266,14.19105,8.822823,16.498234
51,1.4016022682189941,3.5888969898223877,77.37220001220703,1.383224223843059,0.6843063395090977,-84.79304174877413,0.8924505,4.291273,23.449049,12.163146,-14.626322,-4.630486,-4.6196427,-20.10072,-22.316626,30.710493,-17.076292,12.365454,-0.84941787,-3.882838,4.9595194,9.06691,52.05898,6.4208217,68.59435,-0.60294586,1.21621,-13.878886,2.9644256,-46.00927,23.31249,70.13405,14.066005,8.7862015,16.671774
52,1.3643609285354614,3.56021785736084,77.36297607421875,1.3859678957470671,0.674514081585396,-84.60964675653338,0.80454427,4.322833,23.266996,12.326062,-14.690164,-4.6596975,-4.217307,-21.029833,-23.552427,30.83055,-17.345837,11.92279,-0.8472832,-3.8393047,4.8847322,9.09457,53.52849,7.0509396,68.655846,-0.5060644,1.2110432,-13.939971,3.605039,-47.563328,22.626287,70.09336,13.96665,8.736592,16.881405
53,1.3291563987731934,3.527909994125366,77.35545349121094,1.37859581215032,0.6700703363459537,-84.43919258570689,0.71114886,4.375124,23.097036,12.50262,-14.762285,-4.6988893,-3.7692704,-21.931723,-24.829626,30.831123,-17.490137,11.577761,-0.8209993,-3.779498,4.796004,9.107014,55.013412,7.674973,68.700836,-0.43999293,1.2113242,-14.01403,4.2886744,-49.135967,21.862143,70.0642,13.871435,8.655016,17.143198
54,1.2889190912246704,3.4866344928741455,77.34683227539062,1.3617604681808915,0.6697469661000846,-84.27458244161966,0.61163306,4.4461484,22.930563,12.692835,-14.84214,-4.74589,-3.2671735,-22.826548,-26.18563,30.739176,-17.553625,11.279407,-0.7830184,-3.7020183,4.6918726,9.116596,56.513687,8.294502,68.72926,-0.4039718,1.2154353,-14.0904665,5.0348043,-50.72384,20.996836,70.031494,13.75974,8.5494995,17.443865
55,1.2356430292129517,3.4505624771118164,77.34154510498047,1.3390456538709519,0.6723551716556512,-84.12013508185242,0.5096672,4.5319915,22.771713,12.888872,-14.923688,-4.799216,-2.7519472,-23.688904,-27.524261,30.598457,-17.505152,11.016662,-0.72885764,-3.6146183,4.5826836,9.115027,58.02837,8.908751,68.756744,-0.39484304,1.2134484,-14.178119,5.829903,-52.324287,20.057627,69.98257,13.67188,8.457068,17.75928
56,1.1774423122406006,3.4175918102264404,77.33767700195312,1.3142334160568143,0.6764973269610843,-83.97995717059516,0.4109777,4.628203,22.62453,13.078502,-14.998555,-4.8576155,-2.268509,-24.494654,-28.745813,30.45046,-17.31318,10.776811,-0.66338015,-3.52462,4.472877,9.107227,59.554287,9.525432,68.79899,-0.4102755,1.1953354,-14.28596,6.66366,-53.92998,19.051186,69.90037,13.616035,8.414769,18.067184
57,1.1094120740890503,3.3803024291992188,77.33230590820312,1.2866165794021864,0.6814703095252655,-83.85493045832307,0.31575695,4.73669,22.49021,13.263723,-15.067258,-4.9201813,-1.8281199,-25.250355,-29.851645,30.312227,-16.935085,10.550258,-0.58710915,-3.4320643,4.362108,9.096479,61.092045,10.154179,68.85491,-0.45145893,1.1494541,-14.421272,7.531607,-55.5372,17.984959,69.778725,13.605385,8.45204,18.355349
58,1.0381779670715332,3.343768358230591,77.3321304321289,1.254586152148521,0.6879698925667114,-83.74278775056402,0.22136694,4.8587356,22.366213,13.449123,-15.133048,-4.9877276,-1.4137901,-25.968605,-30.881691,30.163773,-16.400114,10.342547,-0.5025168,-3.3349926,4.2460837,9.090291,62.64283,10.795386,68.91566,-0.51894414,1.0844377,-14.576603,8.432869,-57.144356,16.858616,69.63943,13.628284,8.542056,18.637337
59,0.9596890807151794,3.307288885116577,77.32861328125,1.2213733299631628,0.6969857603953664,-83.64307419933743,0.13074431,4.988763,22.251553,13.624508,-15.191544,-5.061252,-1.031268,-26.636951,-31.791565,29.990635,-15.783721,10.163811,-0.4132933,-3.2380922,4.1256943,9.090911,64.20383,11.4400015,68.98678,-0.6059208,1.020761,-14.737958,9.358258,-58.747444,15.6766405,69.511406,13.6664295,8.637972,18.9277
60,0.8720400929450989,3.265291929244995,77.32890319824219,1.1894999703144682,0.7096156189609385,-83.55563053169003,0.043873113,5.1226387,22.145142,13.785574,-15.241445,-5.14172,-0.6838177,-27.240286,-32.5369,29.769037,-15.161099,10.025937,-0.3234866,-3.145339,4.000644,9.099616,65.77094,12.076948,69.07432,-0.7058982,0.97873396,-14.889632,10.294926,-60.341965,14.446186,69.426094,13.701615,8.692377,19.240458
61,0.773065447807312,3.2265923023223877,77.3290786743164,1.1587819303053486,0.7284947065366147,-83.48256704771858,-0.043448713,5.261003,22.047182,13.9349375,-15.282927,-5.2293935,-0.3876722,-27.77345,-33.07564,29.494606,-14.518625,9.933223,-0.23316532,-3.056388,3.8675842,9.117692,67.344284,12.703557,69.16957,-0.8286869,0.9739131,-15.031111,11.227006,-61.927834,13.171219,69.401825,13.730866,8.696212,19.58346
62,0.6698518395423889,3.1896345615386963,77.33065795898438,1.1275045137189523,0.7524376631185876,-83.42356026503155,-0.12672119,5.4050283,21.958355,14.065968,-15.3153515,-5.323844,-0.14197451,-28.245602,-33.43527,29.178164,-13.827475,9.879812,-0.14127989,-2.969642,3.7253938,9.142448,68.926056,13.32207,69.27519,-0.9735036,0.9920865,-15.167693,12.15973,-63.506413,11.85367,69.42798,13.763408,8.672856,19.946913
63,0.5659245252609253,3.1533830165863037,77.32669067382812,1.0973808217147725,0.7768471722019256,-83.37445480197879,-0.20364635,5.554298,21.877897,14.185197,-15.339409,-5.4248695,0.07866754,-28.669865,-33.67606,28.82186,-13.135209,9.863374,-0.049316075,-2.887853,3.5782423,9.16636,70.51491,13.927492,69.41415,-1.117892,1.0090001,-15.293157,13.107922,-65.073616,10.501831,69.49372,13.8016,8.623791,20.318151
64,0.4553368389606476,3.1190264225006104,77.32490539550781,1.0698422563405596,0.7970456304728012,-83.3310816181312,-0.268004,5.7067475,21.805326,14.290743,-15.3546095,-5.5322266,0.29710642,-29.055868,-33.85888,28.430065,-12.490986,9.88081,0.04130231,-2.8140798,3.4298978,9.17906,72.1089,14.512811,69.60963,-1.2384562,1.0002791,-15.400052,14.081069,-66.62371,9.127503,69.59291,13.84764,8.549648,20.683123
65,0.3330959379673004,3.078908681869507,77.32637786865234,1.043028689770844,0.8115159041646485,-83.29341166177606,-0.31982967,5.8660746,21.741472,14.388706,-15.364021,-5.646042,0.51841706,-29.396887,-33.979313,27.989054,-11.915881,9.932514,0.12978007,-2.7473807,3.2790172,9.175405,73.71161,15.078528,69.86968,-1.3182756,0.960849,-15.493505,15.059449,-68.15691,7.7318215,69.7449,13.896434,8.4418745,21.062353
66,0.19696226716041565,3.0386691093444824,77.32636260986328,1.017023398985436,0.8228444467963689,-83.26337636774156,-0.36091122,6.031695,21.68647,14.4756975,-15.366002,-5.7662573,0.7286786,-29.69051,-34.00965,27.501087,-11.381551,10.019524,0.21712935,-2.6878939,3.1232693,9.154838,75.32545,15.6202545,70.182846,-1.3732753,0.90312964,-15.574761,16.037207,-69.674164,6.3181233,69.95244,13.949199,8.302441,21.453957
67,0.06097616255283356,2.997532367706299,77.32427215576172,0.9951604636123745,0.8324361507365374,-83.23925106615279,-0.39142975,6.197853,21.637718,14.544523,-15.356798,-5.893149,0.9261907,-29.95074,-33.979053,26.987543,-10.859041,10.139327,0.30449823,-2.6411064,2.9647393,9.111911,76.94586,16.121374,70.54298,-1.4294702,0.8289108,-15.629772,17.041084,-71.17207,4.9038935,70.187,14.015777,8.147325,21.808676
68,-0.09097842127084732,2.956299304962158,77.32300567626953,0.9815649675531402,0.8416536150261951,-83.21932458613736,-0.41002676,6.3575935,21.592804,14.58482,-15.330833,-6.0267897,1.1099601,-30.192276,-33.916424,26.46949,-10.319508,10.289651,0.3925255,-2.6111963,2.8053098,9.039227,78.56501,16.561987,70.94301,-1.5131221,0.73981017,-15.642597,18.093616,-72.64454,3.5105379,70.42266,14.106002,7.9916215,22.076714
69,-0.24840542674064636,2.918623924255371,77.32372283935547,0.9767910611399536,0.849775787592129,-83.2033131735382,-0.4131572,6.508853,21.551323,14.588916,-15.284305,-6.167091,1.2814,-30.415882,-33.8177,25.93999,-9.757936,10.474812,0.48216832,-2.597847,2.6485796,8.935425,80.18282,16.934525,71.37788,-1.6450624,0.64077693,-15.6065445,19.200356,-74.0949,2.1500604,70.6485,14.22421,7.840166,22.243284
70,-0.41530174016952515,2.8815460205078125,77.31790161132812,0.9788291440853325,0.8564299659523054,-83.1920504134856,-0.40228325,6.6553426,21.51447,14.563296,-15.220653,-6.3141303,1.4400319,-30.614323,-33.670082,25.391039,-9.188441,10.694537,0.5723401,-2.5974216,2.492111,8.7923155,81.7968,17.23733,71.84904,-1.805903,0.52918726,-15.526822,20.33991,-75.52913,0.81827307,70.886284,14.364301,7.683205,22.33341
71,-0.5910896062850952,2.839538812637329,77.31478881835938,0.9871133592161445,0.8636937703354144,-83.1856429422,-0.38519078,6.8002667,21.482136,14.522226,-15.146994,-6.467923,1.5824155,-30.787107,-33.490654,24.83763,-8.608306,10.939375,0.6601281,-2.6046095,2.3300288,8.592896,83.38463,17.46211,72.35439,-1.9583637,0.39546445,-15.4012375,21.489292,-76.93896,-0.4840848,71.15694,14.520012,7.5148325,22.357317
72,-0.7747480273246765,2.8048086166381836,77.31242370605469,1.0017053764842108,0.8736948155422699,-83.18393818973904,-0.3704725,6.9467,21.454306,14.481295,-15.071103,-6.628458,1.7042158,-30.940126,-33.295704,24.302654,-8.017852,11.201073,0.7448537,-2.6127782,2.1577218,8.326655,84.91293,17.608076,72.882866,-2.0624576,0.2305388,-15.219947,22.625666,-78.31567,-1.7593032,71.48388,14.683232,7.327004,22.320127
73,-0.9744289517402649,2.76667857170105,77.30693054199219,1.0203126848431914,0.8878981452145006,-83.18592278992246,-0.36092955,7.0982513,21.429028,14.443235,-14.994328,-6.796881,1.8128604,-31.066984,-33.08518,23.768032,-7.444011,11.476188,0.8276595,-2.6109264,1.975139,8.01555,86.35286,17.693632,73.41871,-2.0882857,0.015330692,-14.952456,23.775478,-79.66607,-3.015877,71.84711,14.873231,7.124145,22.18641
74,-1.1668593883514404,2.728494644165039,77.29756164550781,1.042996857709081,0.9051028797932332,-83.19197183122715,-0.35320687,7.2532215,21.406631,14.402568,-14.914009,-6.972822,1.9086629,-31.16806,-32.85194,23.22911,-6.877267,11.769681,0.910907,-2.58725,1.789703,7.687947,87.675545,17.748878,73.9368,-2.0543962,-0.23873612,-14.587045,24.95635,-81.00287,-4.271456,72.24198,15.085016,6.9046197,21.959229
75,-1.377073049545288,2.6904876232147217,77.28810119628906,1.0733459680742052,0.9232960331428286,-83.20437808608253,-0.3426426,7.4059052,21.391127,14.3542595,-14.827322,-7.1540575,1.9832164,-31.250425,-32.60434,22.712278,-6.2576528,12.085308,0.9965702,-2.532903,1.6090184,7.359537,88.84601,17.803984,74.40778,-1.9976283,-0.49488506,-14.142187,26.131872,-82.32465,-5.54341,72.71271,15.272186,6.6518545,21.701166
76,-1.5947054624557495,2.6556198596954346,77.27660369873047,1.1153872285037365,0.940773325767151,-83.22559563382592,-0.32617587,7.5500555,21.38641,14.295968,-14.732826,-7.338214,2.0209727,-31.325893,-32.3463,22.258364,-5.529272,12.427761,1.0886192,-2.447616,1.4406756,7.043819,89.84411,17.890099,74.80682,-1.9550263,-0.7169788,-13.643013,27.261562,-83.61948,-6.844692,73.30223,15.387858,6.3497105,21.471766
77,-1.8169548511505127,2.6239383220672607,77.26360321044922,1.1690928446126383,0.9584252072749905,-83.26061794000883,-0.30071998,7.6839404,21.39785,14.220814,-14.627059,-7.52486,1.9640163,-31.420063,-32.044975,21.952417,-4.6427855,12.685388,1.1966753,-2.3379605,1.2883916,6.740909,90.67989,18.03838,75.132,-1.9458094,-0.890298,-13.087259,28.324232,-84.87488,-8.190969,74.05415,15.388243,5.963469,21.277184
78,-2.053360939025879,2.590731620788574,77.24844360351562,1.2332375552562178,0.9772126221410204,-83.30705788124942,-0.26981834,7.810653,21.422228,14.133904,-14.512726,-7.715138,1.8379989,-31.521051,-31.707727,21.748684,-3.6388438,12.896821,1.324022,-2.21873,1.1524596,6.4784274,91.38371,18.269045,75.386505,-1.9489688,-1.0355401,-12.475807,29.363804,-86.073944,-9.590562,74.921455,15.307027,5.510086,21.078602
79,-2.2924585342407227,2.5538084506988525,77.22918701171875,1.3101077191094235,0.9951153096729238,-83.35600756642633,-0.23541214,7.9294453,21.451435,14.039904,-14.391114,-7.909141,1.753241,-31.578142,-31.394714,21.488613,-2.602771,13.290803,1.4661906,-2.111714,1.0362909,6.302069,91.98556,18.588516,75.56015,-1.9440739,-1.1697785,-11.846614,30.43785,-87.18921,-11.047151,75.80778,15.214421,5.0510626,20.864914
80,-2.529103994369507,2.5298445224761963,77.20359802246094,1.40229106822554,1.0096810962094753,-83.39857988418422,-0.20108446,8.039928,21.476686,13.947597,-14.265887,-8.106893,1.8238478,-31.542557,-31.163157,21.010614,-1.6204308,14.094139,1.6177709,-2.035494,0.94443196,6.253041,92.51007,18.998266,75.64475,-1.9103987,-1.3095654,-11.235439,31.608744,-88.19206,-12.569602,76.61591,15.181182,4.6464586,20.626635
81,-2.8053057193756104,2.500617027282715,77.18649291992188,1.4111768372735913,1.0788859617897766,-83.50501286863596,-0.31276286,8.322162,21.532358,14.071996,-14.236893,-8.338389,2.0637848,-31.164396,-31.078165,20.023375,-0.5186713,15.000033,1.8481972,-1.9109488,0.8241412,6.3361998,92.97395,19.500036,75.63953,-1.8416524,-1.4641726,-10.6523,32.913124,-89.06492,-14.181224,77.30959,15.238226,4.3121305,20.346228
82,-3.1120383739471436,2.4872665405273438,77.17359924316406,1.236772494585848,1.260319086331335,-83.74800846049042,-0.70479256,8.952735,21.651627,14.601921,-14.3877125,-8.634839,2.3425233,-30.278582,-31.196953,18.485567,0.789571,15.000033,2.2261815,-1.6521126,0.621234,6.526933,93.38656,20.096775,75.556984,-1.7509516,-1.6225232,-10.092589,34.35403,-89.80344,-15.91366,77.91967,15.345915,4.0155325,20.030384
83,-3.426191568374634,2.474727153778076,77.1569595336914,1.0835721006512657,1.4396213757809857,-83.98451909928285,-1.0843229,9.561751,21.764296,15.104414,-14.517988,-8.934438,2.681722,-29.370668,-31.383043,16.891766,1.9448308,15.000033,2.615532,-1.4394913,0.4455985,6.8237567,93.755936,20.792158,75.41083,-1.6455816,-1.7697946,-9.569353,35.95371,-90.41458,-17.79973,78.44984,15.470407,3.7468896,19.716293
84,-3.73917818069458,2.4668567180633545,77.1246337890625,1.0231107780132929,1.574820532247218,-84.16334992572737,-1.3471497,10.016893,21.849928,15.428135,-14.557601,-9.216084,2.984046,-28.680502,-31.551085,15.641284,2.6318219,15.000033,2.963168,-1.3301079,0.33936074,7.2305436,94.085144,21.59228,75.21444,-1.534641,-1.8919544,-9.093556,37.7261,-90.90978,-19.864775,78.906624,15.577075,3.497596,19.439388
85,-4.061105251312256,2.4498279094696045,77.07349395751953,1.0952321054896703,1.6541692328943818,-84.26758874604123,-1.469589,10.260882,21.908436,15.5414,-14.492028,-9.47383,3.1975522,-28.306747,-31.662693,14.926358,2.6305563,15.000033,3.2462192,-1.3550012,0.31886017,7.767556,94.377556,22.506832,74.971855,-1.4221736,-1.9837292,-8.681666,39.662132,-91.30234,-22.127098,79.29647,15.64596,3.2646685,19.219778
86,-4.383537769317627,2.4277169704437256,77.01971435546875,1.250661905950192,1.700233665454697,-84.32668340422939,-1.5118234,10.378284,21.951136,15.535503,-14.364753,-9.71979,3.3622878,-28.116219,-31.7548,14.551169,2.1318042,15.000033,3.4865522,-1.4645238,0.36049545,8.448015,94.63317,23.548542,74.68825,-1.3074222,-2.053932,-8.333528,41.77385,-91.60356,-24.589758,79.60332,15.699235,3.0580537,19.053988
87,-4.694483280181885,2.402139902114868,76.97689819335938,1.4192871055107028,1.7210648126588866,-84.35916019384558,-1.5012554,10.461981,21.974762,15.460815,-14.201929,-9.961591,3.5199604,-27.979717,-31.865389,14.330342,1.4349248,15.000033,3.6963146,-1.5847352,0.446767,9.272782,94.84837,24.729992,74.378845,-1.1954587,-2.1106741,-8.033748,44.092155,-91.82005,-27.238832,79.7919,15.765505,2.8978107,18.939148
88,-5.009250164031982,2.3656976222991943,76.95024108886719,1.5348266428768083,1.725698006575854,-84.38420059162561,-1.4642245,10.599923,21.976925,15.363753,-14.02784,-10.206367,3.7144287,-27.773394,-32.029404,14.07129,0.8426845,15.000033,3.8899798,-1.6477197,0.559012,10.23782,95.02,26.060797,74.05639,-1.0904989,-2.1616921,-7.7669063,46.633934,-91.95627,-30.04793,79.84029,15.872918,2.7954543,18.873259
89,-5.332443714141846,2.3307597637176514,76.93128967285156,1.580244219950039,1.7098944628353565,-84.39759150716174,-1.3966888,10.810921,21.947508,15.240584,-13.840659,-10.45727,3.9670794,-27.469473,-32.279346,13.738924,0.4050525,15.000033,4.059351,-1.6337326,0.6986976,11.345314,95.14727,27.546333,73.72631,-1.0025495,-2.208814,-7.5350423,49.37672,-92.01327,-32.97199,79.734566,16.042723,2.7747378,18.852804
90,-5.643352031707764,2.294717788696289,76.91608428955078,1.5902752778288136,1.670566945200265,-84.39240385641578,-1.2882587,11.049878,21.89088,15.07067,-13.628994,-10.710256,4.2534184,-27.128666,-32.592014,13.422963,-0.024305334,15.000033,4.1946,-1.5843376,0.8586533,12.491538,95.241035,29.060316,73.40612,-0.927015,-2.2492008,-7.338904,52.033855,-92.01168,-35.741074,79.548515,16.257921,2.8169713,18.875307
91,-5.949937343597412,2.2562670707702637,76.90752410888672,1.5768431918888128,1.619307011079751,-84.38363398753181,-1.1561538,11.308349,21.82702,14.875108,-13.405451,-10.961831,4.5468383,-26.764553,-32.91242,13.121867,-0.4411398,15.000033,4.3043303,-1.5125198,1.0234603,13.666777,95.3086,30.575836,73.10658,-0.8558583,-2.2843332,-7.1768637,54.5449,-91.97399,-38.32902,79.31293,16.480799,2.884028,18.962166
92,-6.257106304168701,2.2106056213378906,76.90229797363281,1.552925929597898,1.567953438465583,-84.38620842204614,-1.0236621,11.579436,21.774673,14.689122,-13.183403,-11.20799,4.83118,-26.383871,-33.190365,12.809106,-0.82746094,15.000033,4.398196,-1.4307032,1.1850554,14.93016,95.35129,32.144608,72.82465,-0.778985,-2.3149788,-7.0506454,56.968563,-91.90798,-40.83625,79.029724,16.671484,2.9406762,19.137463
93,-6.556657791137695,2.169039011001587,76.89899444580078,1.5195068604615645,1.5152528467099895,-84.40218648021332,-0.88434356,11.861755,21.737257,14.505231,-12.960989,-11.446648,5.1036534,-25.991669,-33.417023,12.497796,-1.19317,15.000033,4.4795895,-1.345174,1.3363847,16.178713,95.37186,33.65981,72.57513,-0.6935667,-2.334205,-6.945938,59.143047,-91.82515,-43.096027,78.73503,16.821053,2.9732645,19.420269
94,-6.853578090667725,2.128267765045166,76.8993911743164,1.4700549927346196,1.4563514918581608,-84.42430077125724,-0.7307444,12.159589,21.70516,14.31242,-12.732989,-11.680319,5.378054,-25.579473,-33.62049,12.183826,-1.537104,15.000033,4.543309,-1.2497871,1.4811059,17.375196,95.374596,35.08495,72.362305,-0.60623705,-2.344485,-6.8649817,61.06113,-91.7337,-45.082867,78.42508,16.949934,3.0019364,19.792284
95,-7.15333890914917,2.0831477642059326,76.90261840820312,1.4078172828649416,1.3978735433018812,-84.45372525618936,-0.57834953,12.471067,21.679441,14.127216,-12.506573,-11.912138,5.6467824,-25.152327,-33.795708,11.860941,-1.8499393,15.000033,4.590039,-1.1443609,1.6191202,18.594814,95.3627,36.489376,72.17507,-0.51607716,-2.360279,-6.823843,62.83786,-91.634895,-46.921703,78.078636,17.067118,3.036702,20.206343
96,-7.445137977600098,2.0411009788513184,76.9051284790039,1.3357960259387893,1.3463147016652828,-84.49178780470828,-0.44330776,12.794117,21.661205,13.967844,-12.290116,-12.145011,5.895879,-24.718742,-33.93454,11.534322,-2.1275527,15.000033,4.6261435,-1.0338466,1.7452806,19.836306,95.34159,37.86231,72.00802,-0.42015353,-2.395928,-6.8292665,64.4783,-91.5367,-48.61796,77.7151,17.18564,3.0739086,20.606144
97,-7.721613883972168,2.0003323554992676,76.9093246459961,1.2523970758527925,1.3016824246248178,-84.54361246938194,-0.32412654,13.131633,21.655354,13.836388,-12.082854,-12.38154,6.1269755,-24.274384,-34.02325,11.188838,-2.3533077,15.000033,4.653616,-0.9153957,1.8573985,21.099922,95.31148,39.18831,71.86636,-0.3159916,-2.4634314,-6.8982987,66.01047,-91.442184,-50.166832,77.29658,17.310396,3.1341746,21.003342
98,-7.9976983070373535,1.960662603378296,76.91217041015625,1.157323331647859,1.2610296722670957,-84.6068989088689,-0.21303701,13.482761,21.660065,13.72265,-11.881101,-12.619332,6.3426514,-23.818718,-34.068195,10.833188,-2.5372415,15.000033,4.6711946,-0.7897587,1.9581422,22.360615,95.272064,40.451214,71.75282,-0.20554493,-2.5528104,-7.019759,67.42071,-91.35239,-51.56448,76.833725,17.433376,3.2099435,21.416815
99,-8.262118339538574,1.9262946844100952,76.9159164428711,1.0555493038916182,1.226095521049235,-84.67168129344564,-0.11541946,13.839748,21.665764,13.625752,-11.687322,-12.85447,6.546656,-23.36299,-34.0981,10.480065,-2.6998916,15.000033,4.6768804,-0.66223276,2.0473955,23.58305,95.22775,41.64153,71.662735,-0.092874855,-2.6455922,-7.162084,68.65992,-91.27025,-52.82321,76.401306,17.550621,3.2662623,21.805174
100,-8.526610374450684,1.8958402872085571,76.91690063476562,0.9519278613523515,1.198732680674579,-84.72759517223712,-0.034665838,14.193834,21.663599,13.539767,-11.502008,-13.082951,6.7419558,-22.913109,-34.142204,10.135864,-2.857726,15.000033,4.660615,-0.5354293,2.1328216,24.855906,95.17611,42.878494,71.579445,0.014460184,-2.723084,-7.304462,69.78977,-91.18917,-54.07984,76.04101,17.654108,3.2746964,22.138762
101,-8.780144691467285,1.865643858909607,76.91687774658203,0.8410160706019103,1.179298235889579,-84.77154998263978,0.02105718,14.554287,21.647526,13.478666,-11.332452,-13.30578,6.927832,-22.466545,-34.206696,9.809985,-3.014984,15.000033,4.6265507,-0.40932912,2.2096052,26.062414,95.124596,44.03104,71.51086,0.12582673,-2.7798436,-7.4311395,70.659775,-91.12024,-55.21646,75.821785,17.730104,3.2042832,22.405573
102,-9.028916358947754,1.8317296504974365,76.91817474365234,0.7224921478404063,1.1668085710270324,-84.80883429241926,0.05756069,14.921205,21.623753,13.437527,-11.174724,-13.524502,7.104486,-22.01847,-34.277657,9.488934,-3.158364,15.000033,4.5681505,-0.27829346,2.2838864,27.329462,95.065414,45.22137,71.45147,0.23677234,-2.8264713,-7.570061,71.41721,-91.05595,-56.34987,75.665405,17.782896,3.0856948,22.638054
103,-9.265460014343262,1.800040364265442,76.91899871826172,0.608221258790394,1.1609462796171333,-84.84271196271372,0.08759572,15.275811,21.59968,13.392136,-11.017179,-13.73578,7.266302,-21.585205,-34.349503,9.182887,-3.300973,15.000033,4.496382,-0.15408246,2.3521256,28.62693,94.997765,46.45001,71.40197,0.33707076,-2.8667805,-7.7163486,72.11517,-90.99459,-57.462093,75.5304,17.848652,2.9518466,22.816187
104,-9.503786087036133,1.7650103569030762,76.91773986816406,0.5104025663160359,1.161281949880969,-84.87663339816893,0.1257874,15.598348,21.58375,13.313734,-10.84501,-13.936551,7.4122458,-21.180592,-34.418587,8.890979,-3.4492304,15.000033,4.4322557,-0.05145036,2.4032302,29.785303,94.932655,47.57387,71.378365,0.4202929,-2.904465,-7.8539863,72.71527,-90.94223,-58.430504,75.40502,17.966764,2.8288503,22.907566
105,-9.734076499938965,1.738345980644226,76.91558837890625,0.43346430059053975,1.170162487335232,-84.90947798275955,0.16661817,15.883961,21.57501,13.205448,-10.658174,-14.122761,7.540112,-20.811495,-34.48928,8.61869,-3.6135993,15.000033,4.364822,0.027884586,2.4403455,30.93024,94.86286,48.72838,71.373344,0.46863675,-2.944723,-8.001556,73.33725,-90.89089,-59.378185,75.24505,18.150785,2.71916,22.899372
106,-9.958650588989258,1.7098687887191772,76.91316986083984,0.3703684795344502,1.1869145932882796,-84.93998737625122,0.20650148,16.14309,21.57027,13.077185,-10.4622345,-14.297109,7.6538463,-20.468052,-34.563446,8.359228,-3.784518,15.000033,4.291075,0.090388514,2.4668443,32.066994,94.78734,49.905605,71.38339,0.49343932,-2.9838166,-8.158179,73.94528,-90.83897,-60.30336,75.0736,18.378996,2.6081674,22.807295
107,-10.170479774475098,1.6812398433685303,76.91039276123047,0.3143382626026717,1.2067073471613936,-84.97145347675601,0.2555685,16.382603,21.57227,12.924439,-10.258182,-14.466905,7.754438,-20.144117,-34.630936,8.11779,-3.954153,15.000033,4.2274356,0.14259765,2.4819891,33.04875,94.71773,50.950687,71.41629,0.5200049,-3.01286,-8.297479,74.44999,-90.793785,-61.09921,74.93027,18.630316,2.5090704,22.664959
108,-10.371578216552734,1.6503949165344238,76.9062271118164,0.25883811017915426,1.2248459110287047,-85.00708895554264,0.32254586,16.609816,21.582693,12.746105,-10.048778,-14.638751,7.8422794,-19.836456,-34.68109,7.902969,-4.1162953,15.000033,4.1661983,0.19778797,2.4997132,34.02061,94.64468,52.009235,71.45493,0.56511205,-3.0240545,-8.423124,74.9566,-90.74885,-61.88102,74.79078,18.87735,2.4523551,22.536283
109,-10.5675630569458,1.6268863677978516,76.90125274658203,0.20629518466965188,1.2412786178270359,-85.04600857511274,0.41309354,16.818436,21.602976,12.528807,-9.826966,-14.8155775,7.914709,-19.547348,-34.711323,7.717572,-4.2700725,15.000033,4.1229725,0.25056133,2.5139482,34.808502,94.579865,52.927258,71.51036,0.64536023,-3.0049083,-8.517694,75.37929,-90.710846,-62.543022,74.69131,19.129913,2.4446454,22.402729
110,-10.752241134643555,1.5999071598052979,76.89588928222656,0.1577013515632949,1.258079683154429,-85.086787690297,0.52295893,17.007532,21.632029,12.273167,-9.593317,-14.993714,7.9737654,-19.278477,-34.727947,7.5587845,-4.419989,15.000033,4.08191,0.30270347,2.5284593,35.56422,94.51269,53.852833,71.574356,0.74203867,-2.963782,-8.602424,75.81207,-90.67302,-63.19682,74.59396,19.393015,2.4800613,22.259876
111,-10.926926612854004,1.5719845294952393,76.894775390625,0.11948392729200528,1.2796505680213286,-85.1219891863234,0.63732105,17.149672,21.654264,11.977834,-9.343663,-15.000033,8.006374,-19.045513,-34.737114,7.451,-4.5756235,15.000033,4.044346,0.34681883,2.5310285,36.176155,94.455215,54.625263,71.66037,0.8469869,-2.9211068,-8.659903,76.157,-90.64206,-63.74018,74.52536,19.65026,2.5252945,22.111036
112,-11.100058555603027,1.541919469833374,76.89276123046875,0.07777914659799703,1.3015391286319358,-85.15893518662422,0.753394,17.289345,21.678972,11.68296,-9.101565,-15.000033,8.020835,-18.827042,-34.737534,7.3827,-4.7337,15.000033,3.9850228,0.40012765,2.5378222,36.985558,94.38336,55.54598,71.74339,0.9366688,-2.8986142,-8.7206745,76.58671,-90.604675,-64.385,74.41805,19.874054,2.5748384,22.007153
113,-11.261077880859375,1.5128464698791504,76.88814544677734,0.02229681660408745,1.3198009266662905,-85.20695375442241,0.8729162,17.444849,21.71414,11.405525,-8.878774,-15.000033,8.025483,-18.602882,-34.72287,7.3320274,-4.880785,15.000033,3.9377627,0.46878302,2.5368128,37.70288,94.32116,56.305687,71.86088,1.0267553,-2.9047189,-8.741857,76.915,-90.57353,-64.9176,74.328514,20.079218,2.6091192,21.909164
114,-11.406074523925781,1.4898759126663208,76.88602447509766,-0.043067102195776634,1.3353177652032133,-85.26344292227748,0.9979673,17.608839,21.758497,11.135938,-8.669218,-15.000033,8.020078,-18.380571,-34.693817,7.3028975,-5.019966,15.000033,3.8894331,0.55179715,2.5348544,38.459206,94.25684,57.062393,71.99668,1.115669,-2.9274936,-8.7440815,77.24228,-90.54302,-65.447296,74.22888,20.269083,2.6492496,21.827618
115,-11.559707641601562,1.461284875869751,76.88508605957031,-0.11307036598346423,1.347608341619981,-85.32343225212506,1.1220797,17.776506,21.804245,10.88282,-8.473186,-15.000033,8.010937,-18.161755,-34.65819,7.286354,-5.152882,15.000033,3.8393335,0.64118814,2.5347922,39.239853,94.18995,57.81605,72.12415,1.1902124,-2.9546578,-8.747013,77.56531,-90.512856,-65.97137,74.132034,20.420929,2.6889036,21.78324
116,-11.697845458984375,1.4352089166641235,76.88321685791016,-0.1830504257245409,1.3559885960736107,-85.38160634394615,1.2383639,17.94351,21.843103,10.656558,-8.292555,-15.000033,8.009555,-17.946728,-34.624836,7.263849,-5.2759914,15.000033,3.8000848,0.7284021,2.5319943,39.879986,94.13481,58.41314,72.23098,1.2420697,-2.973307,-8.753583,77.79901,-90.48956,-66.391045,74.08024,20.515673,2.7133532,21.782381
117,-11.828431129455566,1.4081395864486694,76.8802261352539,-0.25428392869356353,1.3603702112086182,-85.43781933866491,1.3436383,18.112673,21.870682,10.464294,-8.131238,-15.000033,8.013629,-17.735714,-34.5929,7.242097,-5.393124,15.000033,3.7555614,0.81750095,2.533524,40.54472,94.07794,59.005463,72.29718,1.256049,-2.9816315,-8.780846,78.02217,-90.46756,-66.81355,74.04842,20.526604,2.73145,21.86644
118,-11.95999813079834,1.383535623550415,76.87875366210938,-0.32856460610496113,1.3609163238421826,-85.494380634215,1.4433686,18.284628,21.8923,10.295976,-7.98561,-15.000033,8.023667,-17.525938,-34.55999,7.2162857,-5.498637,15.000033,3.7235448,0.9091055,2.5317702,41.07953,94.034,59.439724,72.3432,1.2505589,-2.979979,-8.803461,78.1535,-90.45219,-67.13623,74.06216,20.476732,2.7354107,22.001709
119,-12.080111503601074,1.3591104745864868,76.87629699707031,-0.4015059545790533,1.357992750820825,-85.54973410204153,1.5367168,18.454172,21.913134,10.151006,-7.8529463,-15.000033,8.033713,-17.326378,-34.526627,7.201491,-5.6026587,15.000033,3.6731834,1.0017232,2.5387354,41.769707,93.97345,60.024193,72.36296,1.215309,-2.9813874,-8.859347,78.39174,-90.43341,-67.56399,74.04553,20.391829,2.7479644,22.176725
120,-12.194072723388672,1.330552101135254,76.87342071533203,-0.46847046420387284,1.3516668059365922,-85.60231145703634,1.6269615,18.614805,21.939386,10.019704,-7.7256403,-15.000033,8.041887,-17.140995,-34.49457,7.2009025,-5.708874,15.000033,3.6397324,1.0870378,2.543906,42.268925,93.92681,60.45804,72.392365,1.1857276,-2.9889805,-8.92334,78.582726,-90.41993,-67.881935,74.05754,20.324196,2.7449825,22.318064
121,-12.301606178283691,1.307097315788269,76.87285614013672,-0.5275150488093593,1.340705846353165,-85.6516560034693,1.7139478,18.764133,21.974024,9.9050865,-7.603318,-15.000033,8.049522,-16.973032,-34.4641,7.214119,-5.8155146,15.000033,3.6048102,1.1642165,2.5528061,42.73644,93.87938,60.893284,72.42652,1.1346258,-3.0166843,-9.024466,78.8399,-90.407455,-68.19673,74.055885,20.268806,2.7430532,22.442694
122,-12.40965747833252,1.2868679761886597,76.86870574951172,-0.5816105543378264,1.3255307934751797,-85.69862980624401,1.7962613,18.906076,22.013283,9.810008,-7.489189,-15.000033,8.055198,-16.820387,-34.433956,7.2438326,-5.9236035,15.000033,3.5694816,1.2371718,2.5661292,43.178524,93.83114,61.327015,72.45635,1.065668,-3.0565553,-9.15653,79.14504,-90.39536,-68.509,74.050415,20.209808,2.7387753,22.570343
123,-12.514416694641113,1.2631758451461792,76.86469268798828,-0.6328213293846697,1.3086158771819836,-85.74322596573137,1.873923,19.043179,22.052614,9.72887,-7.383455,-15.000033,8.060591,-16.67743,-34.405483,7.2812176,-6.031518,15.000033,3.5346336,1.3075418,2.5804436,43.597523,93.7825,61.75835,72.47658,1.0022312,-3.0883274,-9.292135,79.466675,-90.38336,-68.82289,74.04052,20.154839,2.7324705,22.677923
124,-12.610382080078125,1.2443948984146118,76.8622055053711,-0.6833691422507628,1.292515114989702,-85.78579723947635,1.947079,19.178398,22.087482,9.655118,-7.285665,-15.000033,8.065996,-16.538265,-34.37978,7.319799,-6.1391,15.000033,3.5008206,1.3770765,2.5926008,43.995136,93.73418,62.187775,72.482605,0.9701549,-3.0917118,-9.404137,79.774,-90.37139,-69.14346,74.024734,20.112019,2.7252085,22.74319
125,-12.705362319946289,1.2182008028030396,76.85997772216797,-0.7340745666128154,1.2768702391599132,-85.82632254609105,2.0134604,19.313158,22.116436,9.595206,-7.200764,-15.000033,8.07088,-16.405397,-34.35731,7.3639307,-6.248087,15.000033,3.4545357,1.4505584,2.608355,44.500294,93.670456,62.7599,72.45695,0.97969455,-3.050135,-9.512265,80.155914,-90.35438,-69.577675,73.97014,20.08333,2.7310154,22.765003
126,-12.798273086547852,1.1911662817001343,76.85398864746094,-0.7833911995388609,1.260610959528965,-85.86466761682088,2.076006,19.444462,22.142641,9.54529,-7.124913,-15.000033,8.076916,-16.279406,-34.33772,7.4108486,-6.3559017,15.000033,3.4244425,1.519749,2.6179786,44.831345,93.623566,63.18665,72.42945,1.0248506,-2.9781508,-9.591035,80.43351,-90.34097,-69.90368,73.93801,20.068521,2.7262757,22.722055
127,-12.88869571685791,1.171929121017456,76.84941101074219,-0.831419846290882,1.245362020514265,-85.90085945273873,2.13462,19.573065,22.165998,9.500742,-7.05412,-15.000033,8.080467,-16.158733,-34.319313,7.4633346,-6.4654536,15.000033,3.3798482,1.5893366,2.633352,45.29368,93.56235,63.749794,72.38386,1.0742702,-2.90285,-9.666922,80.79743,-90.32197,-70.34344,73.8742,20.05286,2.7278798,22.68472
128,-12.9688081741333,1.155404806137085,76.84396362304688,-0.8781428699845103,1.232756118599634,-85.93473271894287,2.1920333,19.697725,22.187368,9.45015,-6.980475,-15.000033,8.08385,-16.039364,-34.302,7.5110483,-6.572657,15.000033,3.333341,1.6531414,2.6499546,45.77152,93.50213,64.30255,72.34262,1.1076798,-2.8527968,-9.708006,81.13611,-90.30119,-70.78178,73.81545,20.026466,2.7174635,22.663948
129,-13.052169799804688,1.1299020051956177,76.83832550048828,-0.9237741647842701,1.2241137692004498,-85.96495074493282,2.2474139,19.818165,22.204771,9.390972,-6.901762,-15.000033,8.08299,-15.922164,-34.28593,7.5615587,-6.6821675,15.000033,3.2832892,1.7108698,2.6666574,46.2738,93.44311,64.84583,72.31071,1.1183751,-2.838667,-9.696757,81.438484,-90.27918,-71.22132,73.76912,19.973225,2.6886585,22.672419
130,-13.134020805358887,1.109499454498291,76.83183288574219,-0.967946719144938,1.218273580846538,-85.99183339352953,2.2999418,19.935093,22.218637,9.329503,-6.8225036,-15.000033,8.079866,-15.809054,-34.271473,7.6139865,-6.792334,15.000033,3.2306995,1.7636311,2.68321,46.788948,93.38533,65.38284,72.282455,1.118998,-2.8443916,-9.6447115,81.71259,-90.25639,-71.66212,73.72973,19.903595,2.6464863,22.692507
131,-13.218731880187988,1.0883235931396484,76.82413482666016,-1.0107612931348373,1.213285284445199,-86.01848210393916,2.3531265,20.048317,22.233257,9.265604,-6.7443585,-15.000033,8.076247,-15.699049,-34.256214,7.665487,-6.901554,15.000033,3.1642811,1.8140074,2.707177,47.4442,93.313736,66.04808,72.23972,1.109059,-2.8576682,-9.602362,82.07098,-90.226326,-72.20284,73.6549,19.844353,2.6137235,22.728497
132,-13.29824447631836,1.0660840272903442,76.81722259521484,-1.0518448672616658,1.2070142712208214,-86.04776518652695,2.4126055,20.156496,22.25416,9.195092,-6.6667495,-15.000033,8.075424,-15.590608,-34.23839,7.708986,-7.0057497,15.000033,3.1143823,1.8590858,2.726018,47.96984,93.257164,66.57132,72.194305,1.1026481,-2.8634336,-9.564759,82.356064,-90.201096,-72.62622,73.588135,19.834612,2.5827205,22.731733
133,-13.371953010559082,1.0463628768920898,76.80976867675781,-1.090112868530141,1.1981081940261393,-86.08220980554648,2.4818497,20.258488,22.285038,9.116424,-6.5903125,-15.000033,8.078656,-15.484585,-34.215355,7.7418885,-7.1034665,15.000033,3.0676336,1.9004574,2.746625,48.511868,93.20167,67.09121,72.13228,1.0879428,-2.8593447,-9.558671,82.68001,-90.175385,-73.046074,73.4922,19.8935,2.5643916,22.713041
134,-13.443366050720215,1.0286625623703003,76.80359649658203,-1.1263292241355147,1.1879103977889922,-86.11947639020674,2.556324,20.355692,22.322151,9.034074,-6.5161133,-15.000033,8.082023,-15.382871,-34.18836,7.7744565,-7.2007933,15.000033,3.0090275,1.9406272,2.7751412,49.198154,93.13241,67.738365,72.0495,1.058957,-2.8534615,-9.5865135,83.11126,-90.14145,-73.56278,73.34699,19.99652,2.5633473,22.699148
135,-13.517327308654785,1.006239891052246,76.7975082397461,-1.1621736799965947,1.178629822560333,-86.15597747830364,2.6316338,20.44983,22.35952,8.946248,-6.4405055,-15.000033,8.08771,-15.281791,-34.162556,7.7992125,-7.2925515,15.000033,2.9648535,1.9750583,2.7977624,49.748585,93.077446,68.249214,71.96939,1.0421789,-2.8457747,-9.604335,83.45436,-90.11306,-73.96984,73.22171,20.112988,2.5618756,22.663784
136,-13.592550277709961,0.9825788736343384,76.79090881347656,-1.1996133503343434,1.1726555783859482,-86.18757739487799,2.6998982,20.544403,22.390316,8.859324,-6.36401,-15.000033,8.092761,-15.1781225,-34.142635,7.821058,-7.3808036,15.000033,2.9047883,2.008098,2.8238435,50.406536,93.00877,68.88789,71.881676,1.040448,-2.8404052,-9.6471405,83.87346,-90.076035,-74.47442,73.06679,20.201006,2.5854971,22.656012
137,-13.667132377624512,0.9626145362854004,76.78532409667969,-1.2389903524977144,1.1710586051218772,-86.21472869783301,2.7643523,20.637724,22.415972,8.76405,-6.2813087,-15.000033,8.101952,-15.068785,-34.13047,7.825968,-7.458159,15.000033,2.857656,2.036276,2.8402996,50.90228,92.954285,69.39259,71.80558,1.0798506,-2.8343534,-9.677455,84.18337,-90.04552,-74.87294,72.93833,20.257349,2.6237388,22.638533
138,-13.7359619140625,0.9466173052787781,76.77944946289062,-1.279015307690468,1.1725033686339361,-86.23886352554707,2.82509,20.729572,22.438166,8.665448,-6.196537,-15.000033,8.10975,-14.958332,-34.12215,7.8277884,-7.532431,15.000033,2.809721,2.0608275,2.8534746,51.379887,92.90081,69.89518,71.7295,1.1424935,-2.8280811,-9.716587,84.48889,-90.01468,-75.27259,72.8029,20.298622,2.682182,22.625086
139,-13.804388046264648,0.9270235896110535,76.77313995361328,-1.3202157204071918,1.1753808358282742,-86.25823709575144,2.8796306,20.822086,22.454105,8.570298,-6.113032,-15.000033,8.117792,-14.847789,-34.118156,7.830059,-7.6049175,15.000033,2.7458334,2.0848024,2.8736281,51.96947,92.83404,70.51568,71.643036,1.1991901,-2.8255448,-9.777488,84.874115,-89.97475,-75.763306,72.64285,20.325825,2.7508214,22.63796
140,-13.871542930603027,0.9052619338035583,76.76741790771484,-1.3627182888154978,1.1780523801208096,-86.2712480742631,2.9300966,20.915462,22.463202,8.475134,-6.028612,-15.000033,8.126222,-14.737282,-34.11831,7.835353,-7.6760592,15.000033,2.702748,2.1041596,2.8852444,52.320827,92.7947,70.879425,71.567276,1.237699,-2.827588,-9.795056,85.098595,-89.95042,-76.05352,72.55319,20.352612,2.7777553,22.62724
141,-13.93698787689209,0.885739803314209,76.7609634399414,-1.4065900874724329,1.1799492573262673,-86.27560470932764,2.972561,21.010756,22.461542,8.387383,-5.9475775,-15.000033,8.1324835,-14.629052,-34.121483,7.8544927,-7.7517433,15.000033,2.6387012,2.1241448,2.9057403,52.813946,92.743034,71.363396,71.474815,1.2273958,-2.8394372,-9.828685,85.433,-89.917465,-76.44085,72.45052,20.377872,2.7864504,22.65233
142,-14.002253532409668,0.8724513649940491,76.75568389892578,-1.4518837057743155,1.1820323101280343,-86.27300476083481,3.0097713,21.106995,22.451866,8.300896,-5.8664527,-15.000033,8.137832,-14.522404,-34.12786,7.880575,-7.8281116,15.000033,2.569937,2.1426516,2.9296317,53.309437,92.691376,71.84093,71.37465,1.1929705,-2.8579445,-9.860196,85.77524,-89.88341,-76.82062,72.36108,20.399187,2.776382,22.690126
143,-14.073742866516113,0.8586325645446777,76.75091552734375,-1.4984622374265006,1.1849340627768683,-86.26662544519043,3.0393424,21.205635,22.436552,8.222316,-5.7882757,-15.000033,8.141812,-14.415696,-34.139336,7.909919,-7.904405,15.000033,2.4978216,2.1580098,2.9557197,53.801525,92.639626,72.31195,71.275734,1.1513516,-2.8781428,-9.889038,86.10648,-89.84832,-77.19372,72.27779,20.4049,2.760836,22.7342
144,-14.146190643310547,0.8425025343894958,76.74454498291016,-1.546175797215924,1.1892282513217092,-86.25962983942517,3.05836,21.30849,22.418098,8.159677,-5.7169714,-15.000033,8.142584,-14.308397,-34.157185,7.942965,-7.982417,15.000033,2.4243987,2.1683283,2.9834952,54.27989,92.58775,72.776505,71.18657,1.1229137,-2.8948562,-9.914107,86.40762,-89.81248,-77.561386,72.195496,20.383347,2.7523623,22.77734
145,-14.213935852050781,0.8256014585494995,76.73815155029297,-1.5957567575738028,1.19429836113673,-86.25323173056151,3.0669127,21.417221,22.397432,8.11575,-5.6536117,-15.000033,8.140211,-14.199776,-34.18337,7.979549,-8.062115,15.000033,2.362707,2.1724558,3.0076187,54.62839,92.549355,73.12004,71.11673,1.1199012,-2.9048119,-9.912205,86.59001,-89.78558,-77.83866,72.14108,20.319513,2.744072,22.79594
146,-14.27595329284668,0.816413402557373,76.73222351074219,-1.646966388367863,1.2000884786679515,-86.24553402279615,3.0635314,21.531288,22.3722,8.091661,-5.599152,-15.000033,8.133546,-14.091848,-34.216164,8.024569,-8.145532,15.000033,2.2851684,2.1739357,3.0390577,55.085182,92.49822,73.576935,71.049835,1.118885,-2.9133308,-9.924336,86.822174,-89.74985,-78.20706,72.059494,20.217566,2.751255,22.831503
147,-14.349799156188965,0.8056602478027344,76.726806640625,-1.6985176890396316,1.2079606686105064,-86.23536154446265,3.05387,21.64618,22.343384,8.071169,-5.5455146,-15.000033,8.124086,-13.983754,-34.252186,8.070295,-8.228079,15.000033,2.2320147,2.1693418,3.0600567,55.30878,92.47318,73.80024,70.99836,1.1325366,-2.9197893,-9.900974,86.90298,-89.73211,-78.39286,72.03949,20.12422,2.7369807,22.84003
148,-14.419063568115234,0.8001390099525452,76.72085571289062,-1.7498123959520233,1.21962099834857,-86.22061370030612,3.0343802,21.76067,22.307756,8.053922,-5.4917655,-15.000033,8.110894,-13.876683,-34.288258,8.116674,-8.309712,15.000033,2.1470783,2.159537,3.092929,55.762947,92.42296,74.25034,70.940575,1.1260622,-2.932153,-9.92415,87.14857,-89.69678,-78.75811,71.96272,20.040611,2.7450383,22.902138
149,-14.484257698059082,0.7994771003723145,76.71479797363281,-1.8005408836498245,1.2359813159904975,-86.20064445456832,3.0055487,21.873772,22.264769,8.035578,-5.435982,-15.000033,8.092579,-13.7709,-34.322937,8.163826,-8.389973,15.000033,2.0745976,2.1449785,3.1202502,56.09455,92.385025,74.57822,70.887375,1.1240873,-2.9511282,-9.943234,87.34105,-89.66971,-79.02102,71.924324,20.00733,2.733992,22.974197
150,-14.553796768188477,0.7937608361244202,76.70889282226562,-1.8511371450684873,1.2558414815745174,-86.17663895641044,2.9694083,21.98587,22.216093,8.015859,-5.377662,-15.000033,8.072665,-13.664507,-34.358864,8.205868,-8.465833,15.000033,2.0113444,2.1258326,3.142424,56.316113,92.36014,74.79239,70.84362,1.1249119,-2.9744785,-9.953912,87.473526,-89.65148,-79.194565,71.91694,19.999552,2.7105353,23.049416
151,-14.622053146362305,0.7863354086875916,76.70291900634766,-1.90175338819397,1.2782165270222017,-86.14946663240117,2.9244037,22.098679,22.162725,8.003161,-5.3218207,-15.000033,8.047429,-13.56059,-34.395554,8.255763,-8.545292,15.000033,1.931965,2.0997396,3.16816,56.650974,92.323,75.11307,70.79594,1.1121974,-2.995214,-9.984228,87.69634,-89.62384,-79.45493,71.88123,19.995956,2.7008035,23.144928
152,-14.692127227783203,0.7774807810783386,76.69703674316406,-1.9514106852273858,1.2997586758348738,-86.12185798966831,2.8820477,22.208775,22.111082,7.985716,-5.263348,-15.000033,8.021729,-13.459277,-34.432903,8.308602,-8.626506,15.000033,1.8633941,2.0659215,3.19412,56.870445,92.29837,75.32124,70.75561,1.102597,-3.0026164,-9.990765,87.84427,-89.605125,-79.62619,71.87268,19.978376,2.689393,23.20575
153,-14.761404991149902,0.7735398411750793,76.6895980834961,-2.0001294098432205,1.321016977803184,-86.091756884281,2.8354368,22.31768,22.057726,7.974511,-5.2075486,-15.000033,7.9922523,-13.364015,-34.472332,8.374235,-8.715464,15.000033,1.7777665,2.0230463,3.2252452,57.202137,92.26133,75.63034,70.70796,1.073382,-2.9899292,-10.003133,88.080734,-89.57674,-79.88334,71.82863,19.943085,2.7045572,23.259863
154,-14.826910018920898,0.7731330394744873,76.68270111083984,-2.046133486877296,1.3386363859278247,-86.06277281196834,2.800199,22.419922,22.009941,7.94874,-5.144654,-15.000033,7.9639072,-13.274345,-34.509552,8.44525,-8.807638,15.000033,1.7156076,1.9593203,3.264646,57.310974,92.24897,75.72949,70.67222,1.0574131,-2.9634664,-9.966371,88.163155,-89.566986,-79.96723,71.83783,19.90309,2.7127237,23.27483
155,-14.891998291015625,0.76725834608078,76.67631530761719,-2.0956406619964105,1.3637295744831641,-86.02784500662347,2.7419174,22.530083,21.951143,7.9452033,-5.0908012,-15.000033,7.9306645,-13.179748,-34.55353,8.512728,-8.89701,15.000033,1.634845,1.9136702,3.2839887,57.545025,92.22473,75.92696,70.63515,1.0194315,-2.9338083,-9.964299,88.34677,-89.54782,-80.14049,71.81932,19.849714,2.7260642,23.285353
156,-14.959033966064453,0.7627356052398682,76.66920471191406,-2.146788194244524,1.3890906905801537,-85.9985628401382,2.6914706,22.642162,21.898706,7.929983,-5.0313826,-15.000033,7.897182,-13.079411,-34.59244,8.572838,-8.98005,15.000033,1.5585088,1.8499144,3.3108242,57.7631,92.2002,76.12146,70.60566,0.9874306,-2.919716,-9.963474,88.52161,-89.52844,-80.315414,71.808975,19.79472,2.7310355,23.311165
157,-15.027417182922363,0.7610083818435669,76.66411590576172,-2.1997597668608146,1.4133962735674412,-85.97657793671915,2.643417,22.759542,21.850273,7.919503,-4.976244,-15.000033,7.8583603,-12.976855,-34.623238,8.639588,-9.063342,15.000033,1.4991294,1.7634134,3.3406312,57.86378,92.18787,76.21635,70.58622,0.970899,-2.9250298,-9.944703,88.60724,-89.518654,-80.402916,71.83545,19.73328,2.7164204,23.340813
158,-15.10183048248291,0.758415937423706,76.65837860107422,-2.2587444166610804,1.4459605039767296,-85.95218058525462,2.5864396,22.884869,21.799402,7.9042583,-4.914776,-15.000033,7.828743,-12.8537655,-34.66154,8.662422,-9.120684,15.000033,1.4283847,1.7054378,3.3526711,58.068558,92.16264,76.40423,70.57549,0.9388228,-2.951704,-9.975178,88.78258,-89.49908,-80.58375,71.85417,19.646908,2.6859605,23.372
159,-15.171276092529297,0.7507041096687317,76.65308380126953,-2.315589288455633,1.4751107563884203,-85.93325130399539,2.5423827,23.005892,21.755648,7.8749037,-4.8476777,-15.000033,7.7938056,-12.736561,-34.69246,8.70012,-9.184617,15.000033,1.3693416,1.6034375,3.3794594,58.162956,92.14977,76.49473,70.56656,0.9229519,-2.9680865,-9.966592,88.868355,-89.48918,-80.673164,71.887085,19.578945,2.6615722,23.407492
160,-15.238988876342773,0.7502569556236267,76.64912414550781,-2.3746440091883203,1.5114343979049383,-85.91033065613577,2.4840748,23.129826,21.70558,7.8494034,-4.7792087,-15.000033,7.7542615,-12.615278,-34.72833,8.731262,-9.244417,15.000033,1.3058454,1.5093864,3.398504,58.267773,92.13656,76.58103,70.56683,0.9025451,-2.9738033,-9.974434,88.96091,-89.47924,-80.763565,71.913605,19.522736,2.6364377,23.427822
161,-15.310632705688477,0.7506226897239685,76.64363098144531,-2.434010365421852,1.5544076626161536,-85.88449754859924,2.417028,23.252573,21.652077,7.8190517,-4.7055793,-15.000033,7.7087827,-12.492533,-34.767338,8.758936,-9.301818,15.000033,1.2348205,1.4049225,3.4161592,58.38377,92.12295,76.66214,70.56912,0.88112,-2.9524593,-9.9816475,89.06048,-89.46926,-80.85406,71.919304,19.497908,2.621671,23.43952
162,-15.38874340057373,0.7470775842666626,76.63854217529297,-2.4940260553344897,1.60267217399014,-85.85698533753019,2.343994,23.375212,21.59629,7.7830324,-4.626954,-15.000033,7.6588717,-12.367484,-34.80863,8.782656,-9.356248,15.000033,1.1577055,1.291783,3.4308286,58.508293,92.10885,76.73772,70.57378,0.8580967,-2.9119277,-9.989548,89.16708,-89.45922,-80.94409,71.90935,19.496773,2.6138399,23.444235
163,-15.459561347961426,0.751209557056427,76.6341552734375,-2.55486422109088,1.6541814646189057,-85.82887743361354,2.2668815,23.498533,21.539394,7.744648,-4.545159,-15.000033,7.605966,-12.240981,-34.85139,8.80415,-9.408729,15.000033,1.0778648,1.1685575,3.442609,58.638187,92.09405,76.80742,70.58592,0.8277806,-2.8714862,-10.003631,89.277435,-89.449,-81.03361,71.894104,19.501549,2.610799,23.449091
164,-15.529630661010742,0.7509409189224243,76.62975311279297,-2.6161245289425032,1.7070744985800657,-85.80132174853712,2.1857433,23.623575,21.482143,7.711525,-4.464788,-15.000033,7.55173,-12.113551,-34.894848,8.8244705,-9.460193,15.000033,0.9981455,1.0334159,3.4519837,58.76954,92.078545,76.87087,70.61231,0.7843663,-2.8520353,-10.029957,89.38718,-89.4387,-81.12265,71.88395,19.493137,2.6103783,23.461338
165,-15.602086067199707,0.7498831748962402,76.62602233886719,-2.6773265453855735,1.759913814948658,-85.77296106132844,2.1029992,23.749895,21.423933,7.6809044,-4.383793,-15.000033,7.497042,-11.986511,-34.94053,8.847107,-9.512488,15.000033,0.9198103,0.8861914,3.46098,58.904533,92.062164,76.92704,70.655846,0.7245557,-2.8715086,-10.072094,89.492676,-89.42821,-81.2114,71.88418,19.467396,2.614865,23.48443
166,-15.680520057678223,0.7477948069572449,76.62171936035156,-2.738851433433575,1.8137573254893635,-85.74367120870275,2.017459,23.877226,21.364515,7.6517982,-4.301626,-15.000033,7.4414034,-11.859023,-34.988297,8.869279,-9.563964,15.000033,0.8407752,0.72805995,3.4701407,59.04268,92.044876,76.97525,70.71599,0.6506381,-2.9190745,-10.126522,89.59354,-89.41759,-81.29945,71.888664,19.431013,2.624237,23.515255
167,-15.755727767944336,0.7513351440429688,76.61761474609375,-2.8009949204198126,1.870524127251432,-85.71693728790716,1.9282385,24.005827,21.306509,7.624415,-4.2198305,-15.000033,7.3807106,-11.731022,-35.034077,8.891733,-9.614657,15.000033,0.7606271,0.5585632,3.4775715,59.17542,92.02661,77.016,70.79108,0.5659742,-2.9694471,-10.1880045,89.69159,-89.40688,-81.3864,71.89353,19.382463,2.631412,23.54811
168,-15.82460880279541,0.7561064958572388,76.61283111572266,-2.8644083343659634,1.9324475295794288,-85.6962286184788,1.8341913,24.136393,21.253004,7.599193,-4.139823,-15.000033,7.311047,-11.602107,-35.073757,8.914385,-9.664428,15.000033,0.6803954,0.3774256,3.4817142,59.2909,92.00735,77.05021,70.87709,0.47641677,-2.9950597,-10.251294,89.78938,-89.396164,-81.471924,71.89669,19.320406,2.6288915,23.577375
169,-15.894116401672363,0.7606790661811829,76.6066665649414,-2.928823165918277,2.001827039574943,-85.68511939598726,1.7354778,24.268106,21.207659,7.5739613,-4.0617023,-15.000033,7.229625,-11.472226,-35.10431,8.934507,-9.711837,15.000033,0.60381216,0.18530662,3.4790123,59.37843,91.9871,77.078415,70.969,0.38275596,-2.9768674,-10.318238,89.88334,-89.38549,-81.55659,71.90572,19.233097,2.6049235,23.60488
170,-15.968201637268066,0.7650209069252014,76.6015625,-3.000857454779018,2.083371938759244,-85.69062788000032,1.6228788,24.413347,21.173746,7.5621715,-3.9904673,-15.000033,7.1342616,-11.3271885,-35.11987,8.934255,-9.7462,15.000033,0.54031974,-0.011280084,3.4660926,59.43887,91.965836,77.09959,71.06549,0.28751978,-2.9275875,-10.390945,89.97109,-89.3749,-81.64042,71.92264,19.123453,2.565045,23.633495
171,-16.040109634399414,0.7701953649520874,76.59695434570312,-3.0745656439815274,2.167007258081176,-85.69761093149037,1.5036868,24.562372,21.13875,7.5573134,-3.9214935,-15.000033,7.0333924,-11.173853,-35.12979,8.930278,-9.777753,14.948052,0.47671697,-0.22008444,3.457019,59.482544,91.9435,77.11164,71.16898,0.1971056,-2.8708,-10.465146,90.061935,-89.36435,-81.721924,71.936134,19.015348,2.5287018,23.657314
172,-16.113872528076172,0.7762748599052429,76.59161376953125,-3.1513555276815617,2.248771605088824,-85.70044951470656,1.3779335,24.716639,21.096395,7.561801,-3.854107,-15.000033,6.934247,-11.013495,-35.140614,8.924302,-9.806575,14.869664,0.40698412,-0.44155604,3.457404,59.52363,91.92009,77.11226,71.28528,0.11591716,-2.8320448,-10.535722,90.16818,-89.35384,-81.79898,71.93011,18.936972,2.5174239,23.66994
173,-16.18966293334961,0.779451310634613,76.5869140625,-3.2304203145264485,2.325352162355727,-85.69558677300182,1.2434082,24.876562,21.042019,7.583621,-3.791852,-15.000033,6.839382,-10.850822,-35.15518,8.924465,-9.836984,14.789633,0.32613903,-0.6746906,3.471078,59.57188,91.89549,77.09985,71.41998,0.0404011,-2.8233354,-10.596393,90.30484,-89.343315,-81.86913,71.88441,18.911436,2.5512862,23.659548
174,-16.267162322998047,0.787732720375061,76.58195495605469,-3.3117859748609644,2.3993133967199967,-85.686212371404,1.0994775,25.041542,20.978672,7.621896,-3.7354643,-15.000033,6.7460785,-10.686142,-35.171726,8.929131,-9.8685465,14.708076,0.236028,-0.9194066,3.4897475,59.62587,91.86963,77.07418,71.572655,-0.0344672,-2.8341575,-10.650236,90.47026,-89.33267,-81.932274,71.805435,18.92736,2.6188877,23.630156
175,-16.347204208374023,0.8000999689102173,76.57771301269531,-3.395860652737956,2.475764124013623,-85.67644192746211,0.952344,25.209791,20.913515,7.6580915,-3.676294,-15.000033,6.653489,-10.5154,-35.190186,8.924686,-9.893732,14.625275,0.14209495,-1.1773273,3.502845,59.67872,91.84249,77.035515,71.737915,-0.1051085,-2.854155,-10.7071905,90.64815,-89.32185,-81.99047,71.72225,18.95721,2.6903636,23.600386
176,-16.419050216674805,0.8146799802780151,76.57379150390625,-3.482655133546792,2.559727985160104,-85.67034190786119,0.79938346,25.381927,20.85033,7.692389,-3.6157799,-15.000033,6.5567927,-10.337582,-35.20983,8.907727,-9.910465,14.541555,0.050298642,-1.4492247,3.5024095,59.721027,91.814125,76.98425,71.91087,-0.16714652,-2.8726406,-10.778178,90.81641,-89.31082,-82.04664,71.66735,18.968666,2.7329698,23.591198
177,-16.49393653869629,0.8218313455581665,76.56974029541016,-3.5735136162551515,2.6526100088311693,-85.6694438383433,0.64254475,25.558786,20.78906,7.7192097,-3.5513542,-15.000033,6.4567223,-10.150058,-35.2315,8.873104,-9.91539,14.4562435,-0.03725759,-1.733415,3.4882221,59.743717,91.78438,76.92059,72.09348,-0.21361917,-2.8881783,-10.867722,90.96207,-89.29957,-82.10213,71.65372,18.9462,2.729611,23.615715
178,-16.572816848754883,0.8236019611358643,76.56663513183594,-3.6678005449755107,2.7517193290628312,-85.67170696782321,0.48228583,25.7398,20.728254,7.740122,-3.4827275,-15.000033,6.3565845,-9.952602,-35.255127,8.818797,-9.907562,14.369397,-0.122255914,-2.030124,3.46871,59.74542,91.75351,76.8441,72.28619,-0.24499543,-2.9044428,-10.970168,91.088394,-89.28831,-82.156265,71.67003,18.90007,2.6943257,23.663454
179,-16.65422821044922,0.8317919373512268,76.56234741210938,-3.763435775419959,2.8559867472812264,-85.6764371136073,0.31632486,25.923054,20.670681,7.762187,-3.4141994,-15.000033,6.25207,-9.75183,-35.278282,8.758966,-9.89615,14.2823,-0.20588657,-2.3416662,3.4468954,59.729904,91.72126,76.753654,72.483536,-0.2686072,-2.9185464,-11.082293,91.200356,-89.27697,-82.20852,71.70769,18.838127,2.6453354,23.720642
180,-16.72782325744629,0.8426735997200012,76.55829620361328,-3.858189568715005,2.9651078266626585,-85.68275926554813,0.14759871,26.104021,20.621809,7.7787585,-3.3418815,-15.000033,6.1431623,-9.550879,-35.299324,8.693644,-9.882587,14.196063,-0.28898907,-2.6712694,3.4244876,59.702644,91.687874,76.64833,72.67834,-0.29325467,-2.9266236,-11.20072,91.30375,-89.2657,-82.25858,71.75754,18.768063,2.6014943,23.772675
181,-16.802326202392578,0.8525994420051575,76.55587005615234,-3.9502205187426744,3.0801207403013815,-85.69089747251691,-0.028502144,26.28231,20.585348,7.7970753,-3.2687123,-15.000033,6.0229945,-9.355307,-35.317074,8.637175,-9.873927,14.111042,-0.37136933,-3.0201943,3.3981183,59.665325,91.65302,76.52737,72.86641,-0.3297638,-2.9200947,-11.326973,91.39692,-89.25445,-82.30708,71.81687,18.68714,2.5651464,23.81947
182,-16.879724502563477,0.8614258170127869,76.55094909667969,-4.040224275193395,3.2015415863678154,-85.70119376966093,-0.21017806,26.457802,20.559189,7.813332,-3.1931162,-15.000033,5.8974633,-9.160089,-35.33312,8.572767,-9.863339,14.02687,-0.45292482,-3.3880966,3.3662443,59.616905,91.616806,76.39051,73.05095,-0.3731861,-2.9019847,-11.461502,91.47952,-89.24325,-82.35432,71.88816,18.593102,2.52974,23.86601
183,-16.959577560424805,0.8700911998748779,76.5447998046875,-4.131564641495163,3.3261029322282263,-85.71338408219002,-0.3928155,26.633865,20.53419,7.8240485,-3.1150086,-15.000033,5.769575,-8.962215,-35.347424,8.502446,-9.8487835,13.943127,-0.534946,-3.7709358,3.3342965,59.560566,91.57938,76.23737,73.238,-0.40868583,-2.8875117,-11.600109,91.56115,-89.232185,-82.39943,71.970505,18.496075,2.5005107,23.90593
184,-17.037086486816406,0.877130389213562,76.54000854492188,-4.23549487543553,3.4695238916349282,-85.72329600859378,-0.61989343,26.828148,20.484007,7.8707204,-3.0546985,-15.000033,5.643823,-8.735672,-35.368156,8.374416,-9.800164,13.858337,-0.5156017,-3.7277133,3.261678,56.790356,91.1014,73.17995,73.18657,-0.45924637,-2.9058292,-11.368642,93.08143,-88.97229,-83.83293,71.95449,18.424566,2.4686608,23.909933
185,-17.110797882080078,0.8854142427444458,76.53495025634766,-4.338625096845638,3.593532949204347,-85.73842326872771,-0.80416393,27.015846,20.434612,7.8802943,-2.9810092,-15.000033,5.5310063,-8.514961,-35.378975,8.265904,-9.761896,13.776184,-0.47252554,-3.8429058,3.2022777,54.68044,91.0162,70.85373,73.46394,-0.42791584,-2.9531379,-11.273751,94.561584,-88.68983,-85.19264,71.91022,18.374773,2.5171363,24.024782
186,-17.186059951782227,0.8934928774833679,76.52745819091797,-4.444911361908213,3.7178631902308283,-85.75497072578295,-0.9842891,27.205399,20.379131,7.878674,-2.9033566,-15.000033,5.419082,-8.289493,-35.387203,8.153404,-9.72046,13.6947775,-0.42165926,-4.020663,3.1371822,52.79206,91.05202,68.75149,73.85076,-0.36732084,-3.0258527,-11.237236,95.87118,-88.400856,-86.3433,71.87387,18.34253,2.5866287,24.131247
187,-17.266841888427734,0.8996825814247131,76.5203857421875,-4.553247495143001,3.841856339002233,-85.7726224719402,-1.1617465,27.395645,20.32204,7.8700337,-2.8226676,-15.000033,5.307772,-8.06112,-35.394737,8.037811,-9.675627,13.612652,-0.36893827,-4.2388587,3.0712469,50.98846,91.12351,66.723724,74.27447,-0.3097643,-3.1069262,-11.220707,97.02669,-88.11716,-87.31421,71.85819,18.313034,2.6451747,24.202585
188,-17.337785720825195,0.9133589267730713,76.51436614990234,-4.663505368287495,3.9647963077570636,-85.79066462431753,-1.3377426,27.58632,20.267487,7.859433,-2.7410357,-15.000033,5.197495,-7.8307962,-35.40388,7.917723,-9.624867,13.528521,-0.31883302,-4.4866643,3.0062845,49.22688,91.201256,64.72247,74.709526,-0.28574553,-3.1807725,-11.212757,98.05682,-87.84293,-88.14834,71.86551,18.266832,2.6672108,24.22397
189,-17.411659240722656,0.9257006645202637,76.50886535644531,-4.77520677724865,4.08423344309163,-85.80934361117176,-1.5100199,27.777233,20.217314,7.848347,-2.6590858,-15.000033,5.0893044,-7.599361,-35.415604,7.796856,-9.572034,13.440909,-0.27355948,-4.7592382,2.9448779,47.501167,91.274445,62.73032,75.151054,-0.31454286,-3.245257,-11.21488,98.99287,-87.57832,-88.87937,71.89321,18.188929,2.640685,24.185892
190,-17.47591781616211,0.9416106939315796,76.50389099121094,-4.888703592708018,4.2013810405910235,-85.82891986890365,-1.6801909,27.968807,20.168514,7.83545,-2.5764475,-15.000033,4.9540644,-7.386693,-35.424496,7.7476616,-9.55492,13.351352,-0.23269539,-5.0531993,2.8862493,45.80194,91.3389,60.741333,75.59795,-0.37647566,-3.307486,-11.225371,99.86117,-87.322014,-89.53148,71.938484,18.091677,2.582752,24.102455
191,-17.547183990478516,0.95379239320755,76.49866485595703,-5.004820757222388,4.320757003546537,-85.8488826844138,-1.8508193,28.16064,20.120264,7.8160686,-2.4905589,-15.000033,4.8002543,-7.183464,-35.431236,7.736764,-9.552822,13.261961,-0.19473797,-5.3659186,2.8265955,44.106705,91.39312,58.752808,76.044525,-0.44286257,-3.3667705,-11.234122,100.67512,-87.072105,-90.12053,72.00079,17.998846,2.5122085,23.994005
192,-17.620447158813477,0.9699018597602844,76.49337768554688,-5.124136780737989,4.446802382609867,-85.86885980111495,-2.0288484,28.35341,20.070024,7.792083,-2.4019506,-15.000033,4.6383953,-6.97948,-35.43608,7.7258782,-9.543069,13.174412,-0.15825178,-5.6944346,2.7619832,42.393276,91.43631,56.760605,76.48631,-0.4866705,-3.4224696,-11.231181,101.435715,-86.827385,-90.650795,72.07945,17.933668,2.447912,23.881216
193,-17.687368392944336,0.9822300672531128,76.48814392089844,-5.244797794133122,4.580741447727852,-85.88937877800562,-2.2136655,28.545189,20.019703,7.762736,-2.310199,-15.000033,4.468165,-6.7756715,-35.438488,7.712411,-9.525173,13.09006,-0.12127494,-6.0401764,2.6907754,40.648533,91.46832,54.762,76.92599,-0.49277812,-3.4791434,-11.207034,102.15616,-86.58645,-91.12071,72.1744,17.917187,2.3898838,23.760002
194,-17.7552547454834,0.998532235622406,76.48556518554688,-5.368278798104284,4.720153048187521,-85.91034890910103,-2.4024081,28.737183,19.96956,7.7270036,-2.2150145,-15.000033,4.291997,-6.5703015,-35.439583,7.6969995,-9.49792,13.00717,-0.084208,-6.4023056,2.615445,38.883846,91.48956,52.756493,77.36538,-0.4785212,-3.5355573,-11.168239,102.84286,-86.34807,-91.54,72.28427,17.932112,2.3299224,23.622826
195,-17.80973243713379,1.0150068998336792,76.4831314086914,-5.495710882537823,4.864040501486858,-85.930780710032,-2.596504,28.931004,19.915749,7.686479,-2.117724,-15.000033,4.110139,-6.3631606,-35.44054,7.6814413,-9.463771,12.924792,-0.049350858,-6.7773137,2.5380304,37.110313,91.499214,50.741703,77.79932,-0.46358728,-3.582592,-11.130115,103.474945,-86.11264,-91.918045,72.40611,17.943956,2.2747316,23.4867
196,-17.870019912719727,1.0344690084457397,76.48014068603516,-5.628917785367681,5.011573352687833,-85.94943654057036,-2.793852,29.127562,19.856335,7.636091,-2.0162401,-15.000033,3.9245756,-6.151325,-35.442524,7.663751,-9.422156,12.841252,-0.018892108,-7.162406,2.4604867,35.34204,91.49676,48.71776,78.22157,-0.46817508,-3.6109762,-11.107754,104.040115,-85.88111,-92.27141,72.53883,17.919304,2.230461,23.367277
197,-17.928152084350586,1.0536258220672607,76.47833251953125,-5.772628185425925,5.163842890580779,-85.96498050966728,-2.9957945,29.3316,19.785248,7.5726824,-1.9102403,-15.000033,3.7336216,-5.9302864,-35.44684,7.6454077,-9.371897,12.754291,0.005544241,-7.552588,2.3816721,33.579037,91.48179,46.688183,78.62512,-0.5007061,-3.6023786,-11.107055,104.5286,-85.65434,-92.615425,72.68421,17.831247,2.2030146,23.274715
198,-17.97922706604004,1.072125792503357,76.47805786132812,-5.924186182185328,5.320795929207715,-85.97855030177011,-3.2034602,29.541212,19.705067,7.5007825,-1.8012446,-15.000033,3.5372708,-5.7027745,-35.4526,7.6261353,-9.313218,12.665499,0.02513957,-7.9504433,2.30094,31.819815,91.45341,44.656784,79.014336,-0.5491287,-3.5668316,-11.11958,104.96111,-85.43208,-92.94972,72.842224,17.704062,2.1880574,23.199682
199,-18.02768325805664,1.0954095125198364,76.47544860839844,-6.075420438311214,5.480105222446606,-85.99230005709559,-3.4110026,29.746527,19.627989,7.421367,-1.6881796,-15.000033,3.338106,-5.478348,-35.45782,7.605868,-9.250047,12.579008,0.041837588,-8.362391,2.2212093,30.076303,91.40938,42.623848,79.39971,-0.6032454,-3.5377312,-11.138227,105.35845,-85.21428,-93.25703,73.008385,17.57877,2.176993,23.128525
200,-18.07786750793457,1.1160427331924438,76.47412109375,-6.217082541649679,5.639300155484824,-86.00855277033197,-3.6164296,29.938179,19.564388,7.3431745,-1.5740007,-15.000033,3.1384132,-5.267119,-35.460155,7.583673,-9.185213,12.499503,0.058094446,-8.796113,2.145401,28.361658,91.34768,40.591694,79.79117,-0.6518528,-3.5483215,-11.155204,105.738914,-85.00118,-93.516205,73.17901,17.497313,2.1605873,23.046673
201,-18.127422332763672,1.1364846229553223,76.47413635253906,-6.3457227417220095,5.798585416920489,-86.03133029341238,-3.8141103,30.111895,19.526396,7.2635064,-1.4562861,-15.000033,2.9375837,-5.073135,-35.455307,7.559022,-9.119771,12.430612,0.07801007,-9.256624,2.072449,26.695555,91.26641,38.56514,80.18683,-0.68954754,-3.6162243,-11.16141,106.102806,-84.793495,-93.71896,73.35538,17.480963,2.1395364,22.947939
202,-18.172056198120117,1.1610050201416016,76.47395324707031,-6.466371429653448,5.958959229977059,-86.05825662672277,-4.0089173,30.273834,19.50443,7.183062,-1.336245,-15.000033,2.7345426,-4.8911967,-35.445515,7.5328555,-9.051887,12.369306,0.09938805,-9.739403,2.001741,25.079672,91.16547,36.555477,80.57963,-0.7230168,-3.7205148,-11.162353,106.43614,-84.59217,-93.87215,73.53968,17.503706,2.1169724,22.839537
203,-18.21015739440918,1.1862565279006958,76.47637939453125,-6.58237749685044,6.1177772166692215,-86.08227537750732,-4.201603,30.427292,19.482784,7.0979953,-1.2136981,-15.000033,2.5334828,-4.71624,-35.438156,7.5065284,-8.982095,12.308849,-0.03719672,-10.358623,1.9794613,25.173376,91.13985,36.343052,80.80052,-0.7235079,-3.8265197,-11.369301,106.48606,-84.57525,-93.85461,73.74333,17.50485,2.102638,22.74704
204,-18.243772506713867,1.20796537399292,76.47871398925781,-6.700517275643197,6.2769069755352875,-86.09526808159461,-4.4010334,30.578192,19.44269,7.005276,-1.0876584,-15.000033,2.3326504,-4.542313,-35.44249,7.483118,-8.909817,12.243461,-0.1825509,-10.983061,1.9530929,25.243565,91.08989,36.09281,81.011345,-0.75406176,-3.9239235,-11.581663,106.5366,-84.55952,-93.8052,73.94777,17.498106,2.0757246,22.652626
205,-18.274555206298828,1.2348436117172241,76.47962951660156,-6.820320086709244,6.434076362290945,-86.09287493957194,-4.6092753,30.725641,19.375154,6.907537,-0.9598649,-15.000033,2.136512,-4.369119,-35.461567,7.461441,-8.835882,12.169003,-0.34036654,-11.607272,1.9335316,25.268917,91.0179,35.80967,81.22242,-0.8112618,-4.000309,-11.815232,106.58413,-84.544846,-93.72662,74.159546,17.47483,2.0266228,22.559196
206,-18.31008529663086,1.2638170719146729,76.48194885253906,-6.941251522835887,6.592459620854032,-86.07960621692264,-4.8285236,30.868174,19.28901,6.8102837,-0.8336253,-15.000033,1.9421331,-4.1979103,-35.491528,7.438166,-8.758028,12.090702,-0.26040137,-12.019258,1.8871835,22.880703,90.470215,32.970554,81.479546,-0.9132916,-4.073106,-11.558578,106.70885,-84.3688,-93.47238,74.51086,17.544304,1.8685734,22.292938
207,-18.346006393432617,1.2977240085601807,76.48428344726562,-7.063178343893412,6.748062451889923,-86.06293639880184,-5.0771217,31.017567,19.182356,6.7660704,-0.73571324,-15.000033,1.7492607,-4.0283012,-35.5258,7.4176507,-8.676408,12.013174,-0.25479722,-12.488506,1.8391863,20.88967,90.22143,30.608555,81.928894,-0.9902051,-4.154874,-11.575034,107.10531,-84.17516,-93.5794,74.74477,17.539465,1.7872823,22.18232
208,-18.371522903442383,1.3326395750045776,76.48407745361328,-7.1876531250893505,6.904664788914793,-86.04970452845117,-5.35269,31.174965,19.066765,6.770815,-0.6646211,-15.000033,1.5529636,-3.8590071,-35.55994,7.3951335,-8.58443,11.943389,-0.25748193,-12.988268,1.7997744,19.064102,90.01883,28.45857,82.38546,-1.0200068,-4.2485814,-11.640288,107.44436,-83.97931,-93.648224,74.94533,17.52027,1.7324631,22.082003
209,-18.394018173217773,1.3706915378570557,76.48675537109375,-7.316453282709364,7.060860045003611,-86.04178766724188,-5.6213446,31.333826,18.9631,6.7636824,-0.587973,-15.000033,1.3489892,-3.6917048,-35.592888,7.3818803,-8.48588,11.885992,-0.2584991,-13.502818,1.772395,17.347225,89.808495,26.468323,82.82359,-0.9776534,-4.366046,-11.718049,107.71592,-83.78886,-93.65123,75.13317,17.496094,1.7040684,21.971048
210,-18.414541244506836,1.410614013671875,76.48799133300781,-7.4485171524177165,7.216524006815768,-86.03553076454627,-5.896395,31.494823,18.858482,6.765655,-0.5175491,-15.000033,1.1434842,-3.5239046,-35.627754,7.366453,-8.37721,11.836624,-0.26282108,-14.0276,1.7562118,15.738585,89.57656,24.624556,83.24096,-0.88555396,-4.4992404,-11.803163,107.93845,-83.60715,-93.604485,75.31583,17.467066,1.6909446,21.85091
211,-18.432422637939453,1.4464812278747559,76.49076843261719,-7.580964515695951,7.3755424670696,-86.02934552476503,-6.1800365,31.654308,18.750572,6.773137,-0.4497445,-15.000033,0.9342966,-3.357992,-35.662407,7.348579,-8.260864,11.787339,-0.27551478,-14.561474,1.7459992,14.251703,89.32073,22.923187,83.63002,-0.777496,-4.626242,-11.878909,108.117256,-83.43537,-93.53691,75.49299,17.429642,1.6797929,21.726858
212,-18.449981689453125,1.4939117431640625,76.49508666992188,-7.710812443461999,7.541323788726803,-86.02214562804868,-6.4664507,31.806164,18.641222,6.768527,-0.37441155,-15.000033,0.7142676,-3.200545,-35.69431,7.34094,-8.146234,11.730278,-0.3015199,-15.104438,1.736511,12.901368,89.04157,21.36051,83.983955,-0.6886557,-4.7248907,-11.930476,108.25485,-83.27355,-93.47634,75.662895,17.378412,1.657801,21.604229
213,-18.468868255615234,1.5339727401733398,76.5003662109375,-7.837482345128459,7.717551598746036,-86.01517220243227,-6.767282,31.9522,18.52604,6.7660074,-0.297881,-15.000033,0.48250622,-3.0494204,-35.720543,7.3346424,-8.028628,11.659023,-0.4287574,-15.732684,1.7328737,12.463106,88.875854,20.752037,84.20293,-0.6115588,-4.7759867,-12.076924,108.21763,-83.218346,-93.384796,75.824486,17.287111,1.6348401,21.5041
214,-18.483274459838867,1.5736113786697388,76.50611877441406,-7.963543393730039,7.901612317769337,-86.00849224002963,-7.0787144,32.0939,18.406942,6.7644863,-0.22106941,-15.000033,0.24060768,-2.9039357,-35.743034,7.3307467,-7.906285,11.580212,-0.4525053,-16.256702,1.7203444,11.156427,88.44198,19.241644,84.47502,-0.5415416,-4.800136,-11.980474,108.24722,-83.07719,-93.32264,76.0255,17.216988,1.5728894,21.348288
215,-18.495759963989258,1.6126779317855835,76.51204681396484,-8.088387732449164,8.087166318816761,-85.9992630251136,-7.3929477,32.231495,18.283716,6.761049,-0.14291614,-15.000033,-0.0013839009,-2.7615294,-35.767494,7.3258896,-7.7807174,11.502333,-0.50993836,-16.795353,1.705376,10.056791,88.059074,17.93733,84.743805,-0.48997474,-4.8203707,-11.934457,108.354576,-82.93532,-93.367905,76.18203,17.124783,1.5261254,21.236004
216,-18.49662208557129,1.6547600030899048,76.51834869384766,-8.21233349102223,8.268143780189204,-85.98471691251046,-7.7059216,32.36598,18.154322,6.7597427,-0.066881515,-15.000033,-0.23347211,-2.6194685,-35.799706,7.314524,-7.65065,11.434625,-0.5952481,-17.356548,1.7014184,9.23955,87.69673,16.898127,84.96227,-0.4627789,-4.858195,-11.91692,108.44756,-82.81391,-93.36291,76.32011,17.039202,1.4794053,21.128944
217,-18.5019588470459,1.6920245885849,76.52726745605469,-8.331982163231833,8.442932597853163,-85.9624416991762,-8.009162,32.490753,18.0221,6.749344,0.012226055,-15.000033,-0.4554958,-2.4838023,-35.841114,7.3045325,-7.5238695,11.380665,-0.6789427,-17.901602,1.7065376,8.448925,87.26662,15.832108,85.15543,-0.4752275,-4.922601,-11.857908,108.60789,-82.67707,-93.34985,76.44219,16.964441,1.4252393,21.02106
218,-18.51000213623047,1.7285386323928833,76.53389739990234,-8.448229400611678,8.614743164345443,-85.93444772905328,-8.314115,32.609516,17.882915,6.743356,0.08839275,-15.000033,-0.66777426,-2.3504565,-35.888744,7.2855525,-7.3929844,11.334916,-0.77812177,-18.452312,1.7191619,7.8116817,86.822495,14.8894005,85.31165,-0.5176153,-4.9999633,-11.793564,108.78537,-82.54155,-93.32169,76.54365,16.890257,1.3680172,20.919153
219,-18.516191482543945,1.7666802406311035,76.54154968261719,-8.567817796781034,8.78517935073163,-85.90423645189914,-8.620953,32.72986,17.738745,6.739056,0.16341019,-15.000033,-0.8758184,-2.213638,-35.941685,7.261836,-7.2537417,11.293834,-0.8860473,-18.999113,1.7372496,7.2814593,86.358826,14.0572605,85.434395,-0.5647334,-5.0812926,-11.72622,108.97687,-82.406815,-93.28868,76.634056,16.829536,1.3098935,20.817047
220,-18.521711349487305,1.8070502281188965,76.55087280273438,-8.697534280881012,8.955736631064465,-85.87540918282149,-8.930978,32.86041,17.590883,6.7348995,0.23876408,-15.000033,-1.084163,-2.0670767,-35.998833,7.2355266,-7.1005383,11.253895,-0.9984624,-19.532867,1.7584,6.818615,85.87735,13.329467,85.53042,-0.5931366,-5.1578307,-11.665333,109.18481,-82.27104,-93.26776,76.71791,16.794825,1.2553526,20.713408
221,-18.52345085144043,1.8490419387817383,76.56047058105469,-8.839895655856191,9.127739324394373,-85.84691183454335,-9.245994,33.003616,17.438446,6.7277617,0.31822905,-15.000033,-1.295889,-1.9085654,-36.064747,7.211649,-6.9328823,11.214147,-1.1166614,-20.05023,1.782365,6.405474,85.378395,12.696193,85.60026,-0.5928677,-5.230396,-11.621924,109.41942,-82.1323,-93.24907,76.78662,16.813765,1.205915,20.611517
222,-18.520679473876953,1.890616536140442,76.56944274902344,-8.991157105350398,9.299962738309356,-85.81759937220161,-9.564148,33.154655,17.281502,6.717729,0.4004501,-15.000033,-1.5104728,-1.7438118,-36.138496,7.1940594,-6.756748,11.1765375,-1.2413107,-20.55572,1.8100176,6.0450964,84.86237,12.14309,85.64408,-0.5776059,-5.3027577,-11.587621,109.680016,-81.989265,-93.23066,76.83964,16.872639,1.1591656,20.511423
223,-18.52474021911621,1.9291446208953857,76.57994842529297,-9.147855312093832,9.47071969308644,-85.79065492798121,-9.883296,33.31073,17.121462,6.7119646,0.47874868,-15.000033,-1.720356,-1.5724372,-36.21065,7.1670513,-6.5687985,11.141591,-1.3678137,-21.052258,1.8407139,5.7314563,84.33249,11.658741,85.66913,-0.5608118,-5.3706822,-11.544859,109.94989,-81.84094,-93.2439,76.892296,16.917118,1.1141007,20.408508
224,-18.52322769165039,1.964828372001648,76.59046936035156,-9.3065360326442,9.63836630495292,-85.76920236795759,-10.196977,33.467827,16.962774,6.708375,0.5517846,-15.000033,-1.9284844,-1.4026662,-36.27141,7.1394825,-6.377854,11.110404,-1.4923422,-21.54195,1.873225,5.460464,83.79159,11.232344,85.6829,-0.557043,-5.4299507,-11.47669,110.21968,-81.68618,-93.32627,76.95958,16.893417,1.0704261,20.299646
225,-18.515111923217773,2.005866050720215,76.6010513305664,-9.469196869560587,9.805147656460186,-85.75469944273185,-10.505822,33.628395,16.804537,6.7052526,0.61826915,-15.000033,-2.1393638,-1.2338109,-36.31994,7.1169105,-6.1881585,11.082563,-1.6147059,-22.02348,1.9029056,5.2233176,83.24164,10.854667,85.68708,-0.5679625,-5.475586,-11.379012,110.47777,-81.52394,-93.503975,77.043396,16.766651,1.0328822,20.188591
226,-18.507272720336914,2.0414743423461914,76.60997772216797,-9.636596579518441,9.971200117675437,-85.74517952284977,-10.81318,33.79357,16.644566,6.7042284,0.67982507,-15.000033,-2.349129,-1.061828,-36.360806,7.0898337,-5.992229,11.057836,-1.7368044,-22.49525,1.9308487,5.009628,82.68203,10.517544,85.68219,-0.5873963,-5.511227,-11.262287,110.74171,-81.352776,-93.76174,77.13476,16.571077,1.0014162,20.078089
227,-18.49742317199707,2.0784757137298584,76.62057495117188,-9.803930325639971,10.131017655606014,-85.73904313991991,-11.112266,33.957012,16.488417,6.705338,0.7384551,-15.000033,-2.5549798,-0.8943145,-36.392483,7.065671,-5.793923,11.0376005,-1.8571646,-22.958645,1.9650459,4.8110027,82.11182,10.213657,85.67498,-0.6149346,-5.546244,-11.13088,111.041016,-81.1708,-94.069626,77.23224,16.357595,0.96850413,19.96205
228,-18.48415184020996,2.1164958477020264,76.62948608398438,-9.964888518781647,10.279170836714663,-85.73448289864847,-11.396789,34.11168,16.341463,6.7080383,0.79758906,-15.000033,-2.7507877,-0.73653525,-36.4132,7.0422955,-5.5921383,11.0230465,-1.9737303,-23.4168,2.0138247,4.6195736,81.53085,9.936523,85.67165,-0.6498592,-5.58996,-10.988923,111.40428,-80.97579,-94.39702,77.33511,16.176676,0.9259849,19.83337
229,-18.467132568359375,2.163006067276001,76.64163208007812,-10.116811022037567,10.411920818416066,-85.73359192891212,-11.660052,34.253998,16.211046,6.713529,0.85662585,-15.000033,-2.9337678,-0.59216064,-36.414574,7.0204554,-5.3871984,11.018058,-2.0812335,-23.873672,2.0823402,4.4208508,80.939384,9.6827755,85.6783,-0.69960976,-5.645495,-10.832803,111.84074,-80.7661,-94.72216,77.44493,16.039145,0.86851555,19.68513
230,-18.446712493896484,2.208653688430786,76.65643310546875,-10.263186826422938,10.53294529353419,-85.73639052966438,-11.906659,34.38853,16.092838,6.7199955,0.9155762,-15.000033,-3.1075156,-0.45713553,-36.39986,7.0001698,-5.1788974,11.020739,-2.1800604,-24.328688,2.1663182,4.215131,80.340515,9.447374,85.69148,-0.763804,-5.7079487,-10.662452,112.324295,-80.54098,-95.05457,77.56087,15.91922,0.8009716,19.521152
231,-18.425556182861328,2.248289108276367,76.6690444946289,-10.408200917452342,10.648159473928903,-85.7379419808606,-12.149119,34.519432,15.973653,6.729552,0.9728667,-15.000033,-3.2754068,-0.32567033,-36.385086,6.9812326,-4.9679117,11.02371,-2.2771118,-24.777199,2.2590704,4.0106883,79.73903,9.22197,85.70666,-0.82338905,-5.7745075,-10.488407,112.83014,-80.300224,-95.40938,77.678055,15.812884,0.7309915,19.35091
232,-18.40726089477539,2.289705991744995,76.68162536621094,-10.555915973043458,10.763359806645107,-85.73343763540983,-12.399252,34.651535,15.840575,6.7423573,1.0288152,-15.000033,-3.4409118,-0.19189095,-36.386192,6.962421,-4.7528734,11.019691,-2.3796043,-25.214443,2.3535273,3.8163557,79.140366,8.995752,85.719406,-0.8621096,-5.842384,-10.321509,113.33602,-80.04398,-95.80389,77.791954,15.71685,0.6663794,19.184505
233,-18.38683319091797,2.33524751663208,76.69615936279297,-10.707410148840465,10.881672793736534,-85.72016450931511,-12.663006,34.78571,15.68725,6.7592225,1.0838671,-15.000033,-3.6068344,-0.05429209,-36.409496,6.9452276,-4.5335927,11.0032015,-2.4908743,-25.640238,2.4472766,3.6303596,78.548584,8.757995,85.732666,-0.8699576,-5.915486,-10.166456,113.83209,-79.7727,-96.23646,77.9093,15.637359,0.6084684,19.023937
234,-18.363121032714844,2.378817558288574,76.7102279663086,-10.860882774502405,10.999632655958155,-85.70115247091161,-12.933817,34.919834,15.521162,6.7794733,1.1382565,-15.000033,-3.7703326,0.0846541,-36.445877,6.928952,-4.310486,10.9791765,-2.6054807,-26.058207,2.543432,3.4365642,77.96489,8.5045,85.75337,-0.85763365,-5.993913,-10.019019,114.33018,-79.48675,-96.696175,78.0314,15.574564,0.55329496,18.86405
235,-18.334375381469727,2.4243438243865967,76.72384643554688,-11.014838220627588,11.113006514857505,-85.68004200953185,-13.205323,35.053955,15.349152,6.8078356,1.1866038,-15.000033,-3.9236853,0.22628431,-36.48812,6.901669,-4.0792303,10.955737,-2.7185764,-26.469543,2.6433337,3.2258942,77.387985,8.235369,85.78136,-0.8423943,-6.0687394,-9.875416,114.83198,-79.18684,-97.18395,78.14427,15.511401,0.5012548,18.705175
236,-18.30998992919922,2.4661026000976562,76.73668670654297,-11.167962246256163,11.217669992036386,-85.6604702157591,-13.460162,35.185314,15.185458,6.8287745,1.2349341,-15.000033,-4.076366,0.35797113,-36.528416,6.8967967,-3.8601012,10.941582,-2.8255234,-26.87484,2.7484367,2.9920187,76.815216,7.9562955,85.81517,-0.8381854,-6.1307755,-9.732072,115.34774,-78.873146,-97.70714,78.235176,15.43246,0.45218477,18.547892
237,-18.282079696655273,2.5082201957702637,76.75039672851562,-11.32339003136844,11.312952763872598,-85.6430826401849,-13.705836,35.31942,15.025085,6.8577347,1.2729471,-15.000033,-4.2162986,0.4913586,-36.567947,6.8842115,-3.633463,10.939447,-2.9270978,-27.271881,2.8588393,2.73799,76.24422,7.67145,85.854836,-0.84835875,-6.1731944,-9.585922,115.87014,-78.54584,-98.279884,78.300316,15.336951,0.4111545,18.40208
238,-18.250205993652344,2.5494236946105957,76.76240539550781,-11.480577894423662,11.400986094089099,-85.62601999584734,-13.940842,35.45427,14.867783,6.885017,1.3075182,-15.000033,-4.350151,0.6232451,-36.609505,6.877877,-3.4076211,10.944461,-3.026406,-27.659695,2.9737682,2.4719644,75.67443,7.3825974,85.89914,-0.8658396,-6.2023425,-9.43865,116.39941,-78.20469,-98.89852,78.347,15.231155,0.3767324,18.264671
239,-18.21536636352539,2.5993223190307617,76.77468872070312,-11.63353036470711,11.481619679128181,-85.60900468153815,-14.167761,35.58438,14.7127495,6.9163256,1.3381827,-15.000033,-4.4748764,0.7502879,-36.648502,6.8683796,-3.1838062,10.953281,-3.1216643,-28.041437,3.0945969,2.1968603,75.10603,7.0941935,85.94322,-0.8889921,-6.228687,-9.293494,116.949486,-77.84914,-99.53515,78.37847,15.11181,0.33879194,18.116707
240,-18.18072509765625,2.645817279815674,76.78605651855469,-11.776719733414412,11.554426234719989,-85.59197171039779,-14.384215,35.703506,14.562394,6.9499946,1.3676329,-15.000033,-4.5912766,0.8667263,-36.68041,6.857117,-2.9700193,10.962454,-3.210783,-28.42084,3.2232614,1.9179186,74.54009,6.8100576,85.98063,-0.9192428,-6.262741,-9.154197,117.52855,-77.478745,-100.15719,78.39746,14.974504,0.28721774,17.937635
241,-18.14820098876953,2.6926496028900146,76.7980728149414,-11.904924207476725,11.616999122339381,-85.57337745030793,-14.584234,35.805515,14.418697,6.982494,1.3983388,-15.000033,-4.6971765,0.9663435,-36.702595,6.845575,-2.7709954,10.972276,-3.293024,-28.803131,3.3634567,1.631171,73.97713,6.533572,86.01154,-0.95585674,-6.3062787,-9.02179,118.13963,-77.0932,-100.745,78.40017,14.806797,0.2172322,17.712778
242,-18.115306854248047,2.739927291870117,76.80804443359375,-12.022716495067264,11.670255693551196,-85.55375641068765,-14.932633,35.926617,14.184588,7.3055134,1.2733343,-15.000033,-4.7930474,1.054231,-36.71779,6.833032,-2.5822506,10.984069,-3.3686368,-29.187227,3.5149155,1.3383722,73.41907,6.2646875,86.03629,-0.9992597,-6.35376,-8.894886,118.76795,-76.69236,-101.30866,78.3872,14.61567,0.13417351,17.453743
