liuchenxu125/GMR/soma-retargeter/assets/motions/csv/dance_hiphop_shuffle_square_R_fast_002__A318.csv
Frame,root_translateX,root_translateY,root_translateZ,root_rotateX,root_rotateY,root_rotateZ,left_hip_pitch_joint_dof,left_hip_roll_joint_dof,left_hip_yaw_joint_dof,left_knee_joint_dof,left_ankle_pitch_joint_dof,left_ankle_roll_joint_dof,right_hip_pitch_joint_dof,right_hip_roll_joint_dof,right_hip_yaw_joint_dof,right_knee_joint_dof,right_ankle_pitch_joint_dof,right_ankle_roll_joint_dof,waist_yaw_joint_dof,waist_roll_joint_dof,waist_pitch_joint_dof,left_shoulder_pitch_joint_dof,left_shoulder_roll_joint_dof,left_shoulder_yaw_joint_dof,left_elbow_joint_dof,left_wrist_roll_joint_dof,left_wrist_pitch_joint_dof,left_wrist_yaw_joint_dof,right_shoulder_pitch_joint_dof,right_shoulder_roll_joint_dof,right_shoulder_yaw_joint_dof,right_elbow_joint_dof,right_wrist_roll_joint_dof,right_wrist_pitch_joint_dof,right_wrist_yaw_joint_dof
0,1.1932660341262817,0.9767612218856812,78.44195556640625,0.7023609039680923,-0.16952381475982922,-88.53570998230701,5.163302,4.6235895,8.238802,7.037252,-11.500818,-5.9018273,5.020788,-7.5929255,-9.635717,7.6866193,-11.675156,8.609382,-2.5013647,-1.6599493,4.036065,-6.0356135,14.16418,-52.469658,62.317257,7.2074866,5.1007247,4.865408,-0.23798293,-10.092136,29.081507,59.811684,-18.263908,-0.3963128,0.8780983
1,1.2306240797042847,1.0116119384765625,78.44308471679688,0.7103835156055216,-0.1186752024371989,-88.51227523374111,5.053994,4.5768213,8.213317,7.060758,-11.480825,-5.840739,4.9131374,-7.642031,-9.642191,7.728481,-11.658095,8.65326,-2.532639,-1.6828804,4.0933957,-6.077518,14.209571,-52.66825,62.323524,7.197565,5.1568832,4.842319,-0.2051351,-10.108347,28.746874,59.40541,-18.16162,-0.50828743,0.9598089
2,1.265882134437561,1.0519566535949707,78.44522094726562,0.7179343402405162,-0.07076159309711698,-88.49045946656825,4.9101095,4.536565,8.185891,7.16769,-11.506282,-5.7791653,4.8098307,-7.689989,-9.646645,7.767632,-11.640246,8.697647,-2.530416,-1.7068902,4.156668,-6.1321225,14.262456,-52.894672,62.32679,7.1655493,5.217923,4.8218193,-0.14919725,-10.13371,28.382627,58.98049,-18.086163,-0.6199491,1.0621563
3,1.302148699760437,1.0927695035934448,78.44595336914062,0.7265665772059778,-0.017020900307422395,-88.46539783150476,4.711253,4.501144,8.152186,7.3743167,-11.582419,-5.717988,4.6978173,-7.740431,-9.654845,7.8117537,-11.623685,8.741077,-2.5250783,-1.7311692,4.2219334,-6.1861362,14.327649,-53.154522,62.309093,7.15041,5.272435,4.795529,-0.0792884,-10.167182,27.98804,58.525238,-17.97823,-0.7359698,1.1357005
4,1.3380159139633179,1.137485384941101,78.44676971435547,0.735290755101117,0.051329954103744996,-88.43235563987015,4.4936113,4.4603477,8.112551,7.5741186,-11.648337,-5.6579394,4.5601172,-7.798209,-9.6719055,7.874478,-11.610951,8.78243,-2.537174,-1.7569424,4.2834673,-6.2368383,14.401262,-53.46884,62.268364,7.185473,5.308153,4.7559414,-0.0023125226,-10.196977,27.549534,58.032528,-17.783148,-0.8619852,1.1305318
5,1.379415512084961,1.1801456212997437,78.44725036621094,0.7465811984738349,0.13341183286639074,-88.38952519952025,4.2499237,4.4151225,8.065976,7.7848887,-11.711924,-5.600264,4.40808,-7.8623166,-9.703059,7.936233,-11.598769,8.817653,-2.5603378,-1.7860756,4.341512,-6.2888474,14.486892,-53.87006,62.2116,7.27845,5.3087783,4.707442,0.08877297,-10.217239,27.037695,57.495342,-17.46991,-0.9996473,1.0174148
6,1.426091194152832,1.2248866558074951,78.44689178466797,0.7569957875794949,0.22560102921176234,-88.33968048723625,3.9947622,4.3655605,8.0150175,7.9870877,-11.767762,-5.544362,4.2442946,-7.931246,-9.7440605,7.999932,-11.587102,8.848571,-2.5895302,-1.8195775,4.39691,-6.3415604,14.585312,-54.33762,62.140087,7.4107747,5.2849493,4.6520014,0.18784808,-10.226447,26.469782,56.930145,-17.074524,-1.1471977,0.82724303
7,1.472565770149231,1.2806570529937744,78.44860076904297,0.7699563214255337,0.33197054285725947,-88.28465687170423,3.7274458,4.3097124,7.959816,8.171656,-11.809417,-5.4879413,4.053933,-8.006815,-9.7876835,8.08209,-11.576412,8.883061,-2.624236,-1.8596755,4.4489145,-6.3883824,14.69664,-54.836395,62.031605,7.5746803,5.266842,4.5778017,0.2840957,-10.225065,25.873775,56.348057,-16.649721,-1.3056979,0.60352015
8,1.519281268119812,1.3357645273208618,78.45030212402344,0.785534627645987,0.456569649365636,-88.2260555139159,3.450359,4.245571,7.9006324,8.322605,-11.828393,-5.4287314,3.825694,-8.090238,-9.827132,8.192283,-11.563907,8.929059,-2.6646328,-1.9084984,4.4969254,-6.42273,14.821117,-55.33,61.865288,7.763144,5.284629,4.473007,0.366457,-10.216006,25.277845,55.760406,-16.248606,-1.4754792,0.3893847
9,1.5735989809036255,1.3882564306259155,78.4542236328125,0.8027107802716362,0.5985340659790603,-88.16116540913639,3.159203,4.1741,7.833947,8.449614,-11.828279,-5.3647013,3.5656264,-8.179833,-9.864277,8.322613,-11.547408,8.990567,-2.7151344,-1.9647986,4.5398,-6.4490438,14.9604,-55.84518,61.640038,8.035583,5.340105,4.3221903,0.43740293,-10.200858,24.681683,55.15749,-15.870142,-1.6587231,0.19434743
10,1.6295197010040283,1.4570552110671997,78.4587631225586,0.8217883565800282,0.7561392406667117,-88.0901410980327,2.855806,4.095662,7.7609873,8.554219,-11.810461,-5.297574,3.2781968,-8.275476,-9.901576,8.469124,-11.5276985,9.062814,-2.7750561,-2.027882,4.5783887,-6.467096,15.115544,-56.38712,61.363087,8.376875,5.41866,4.135218,0.50142777,-10.18011,24.074236,54.536507,-15.490472,-1.8546624,-0.0036416524
11,1.685963749885559,1.5241470336914062,78.46536254882812,0.8435686593595036,0.9322802931490415,-88.01886869337353,2.5462162,4.008844,7.6887026,8.618781,-11.768585,-5.2310567,2.9449968,-8.380195,-9.932659,8.657104,-11.512327,9.140198,-2.8388088,-2.098588,4.6161823,-6.4648333,15.285568,-56.888493,61.025734,8.664511,5.5259933,3.9383845,0.55185133,-10.155179,23.469395,53.91563,-15.128416,-2.0580397,-0.20880063
12,1.7409433126449585,1.589737057685852,78.47217559814453,0.8696190113927003,1.1297388861740973,-87.9531790912825,2.2392662,3.9117746,7.624228,8.620643,-11.693517,-5.168706,2.5504122,-8.497017,-9.951359,8.906601,-11.506083,9.217057,-2.9040325,-2.1777813,4.65568,-6.4290614,15.468814,-57.27685,60.61946,8.778094,5.6688685,3.7581253,0.5793468,-10.1285515,22.885359,53.31551,-14.801504,-2.2632875,-0.4260539
13,1.8010987043380737,1.6659969091415405,78.4786148071289,0.9001362257762205,1.3524803861245949,-87.89423050671502,1.9383532,3.8026338,7.569415,8.54708,-11.580401,-5.1130342,2.090888,-8.626805,-9.959175,9.217031,-11.510976,9.293225,-2.9740922,-2.26386,4.688949,-6.352583,15.663293,-57.545856,60.144196,8.727087,5.8863416,3.6077526,0.5841789,-10.102379,22.326462,52.73898,-14.513137,-2.4721632,-0.6594952
14,1.8665835857391357,1.7549242973327637,78.48616027832031,0.9337879037517812,1.5976314416495192,-87.83899252353596,1.6419307,3.6834154,7.520531,8.405708,-11.431166,-5.061748,1.578651,-8.76661,-9.958725,9.572164,-11.520224,9.371468,-3.0513208,-2.355153,4.7172937,-6.243456,15.868987,-57.72607,59.60477,8.563019,6.163178,3.4717999,0.5696942,-10.077705,21.786133,52.17552,-14.253446,-2.686235,-0.905806
15,1.931723713874817,1.8338779211044312,78.49130249023438,0.9696270585830289,1.858020102226151,-87.78690100679037,1.3395466,3.5586653,7.475781,8.229274,-11.2611885,-5.0113883,1.0079628,-8.914918,-9.94344,9.995595,-11.540425,9.450302,-3.1314905,-2.4521027,4.758594,-6.1105103,16.088074,-57.799736,58.997246,8.22919,6.425955,3.3348007,0.53186506,-10.054304,21.266682,51.624447,-14.019453,-2.899611,-1.1590718
16,2.0004754066467285,1.9169204235076904,78.49933624267578,1.0066658004028262,2.126388274941039,-87.73793659330612,1.0228677,3.4328494,7.433512,8.0455885,-11.082941,-4.958467,0.3719834,-9.070983,-9.906356,10.513572,-11.5796175,9.527893,-3.2126417,-2.5558834,4.830042,-5.9610868,16.325212,-57.746952,58.31551,7.668143,6.601804,3.180491,0.463321,-10.031702,20.773592,51.088055,-13.807217,-3.106125,-1.413921
17,2.064518451690674,2.02168607711792,78.50721740722656,1.0474220235871035,2.419917514985203,-87.6906412980042,0.67778015,3.3017366,7.3946533,7.8435683,-10.890108,-4.9046884,-0.3297556,-9.2353325,-9.849036,11.086446,-11.6359,9.608205,-3.3021846,-2.6686685,4.9133143,-5.8006682,16.584936,-57.596375,57.56673,6.7766514,6.711476,2.9616997,0.35826355,-10.009217,20.312704,50.569695,-13.62013,-3.3063765,-1.6674713
18,2.133613348007202,2.1345746517181396,78.51228332519531,1.090787162742021,2.735660790714503,-87.64552803764397,0.31409654,3.165693,7.3595805,7.6129737,-10.678729,-4.8512564,-1.0944093,-9.4068,-9.7736,11.717648,-11.707605,9.689803,-3.3988857,-2.7891884,5.0077353,-5.6217422,16.869274,-57.344826,56.744213,5.614531,6.784946,2.7007391,0.21995924,-9.987414,19.879807,50.068584,-13.4593115,-3.5025792,-1.9236448
19,2.2023308277130127,2.255732297897339,78.52085876464844,1.1307980561955857,3.0369586709864014,-87.60531631156304,-0.042476457,3.034867,7.325975,7.3838987,-10.46462,-4.7936287,-1.9241495,-9.580993,-9.673958,12.493342,-11.799454,9.761957,-3.489345,-2.9128728,5.156058,-5.410971,17.17987,-56.92317,55.819477,4.3681946,6.759601,2.4819496,0.05532777,-9.967016,19.467337,49.58008,-13.316041,-3.6913145,-2.1868844
20,2.262040376663208,2.3997936248779297,78.52754211425781,1.1626018234142939,3.287838720696859,-87.57284148704017,-0.36932018,2.9176164,7.291767,7.1929555,-10.267667,-4.726839,-2.8211427,-9.755222,-9.543562,13.498183,-11.914333,9.813073,-3.5620759,-3.0366368,5.400441,-5.1514993,17.518768,-56.258354,54.76199,3.2259696,6.568069,2.3864884,-0.13078612,-9.948907,19.07115,49.100864,-13.180184,-3.8690796,-2.4618146
21,2.3252031803131104,2.55920672416687,78.53842163085938,1.174477778366126,3.4868567330512508,-87.55715322358665,-0.6952259,2.8316383,7.257924,7.1106744,-10.130392,-4.649045,-3.7822952,-9.908371,-9.33511,14.718265,-12.070469,9.813755,-3.6145978,-3.1466873,5.741743,-4.8463774,17.89148,-55.34864,53.58973,2.4445145,6.1760755,2.4049525,-0.34756655,-9.931296,18.688505,48.637825,-13.051239,-4.0300965,-2.7540333
22,2.389524459838867,2.7262461185455322,78.55166625976562,1.174378765102949,3.651438657809737,-87.55420485624722,-1.0205238,2.7639601,7.2258906,7.0951715,-10.02871,-4.5625196,-4.80986,-10.050291,-9.065691,16.121819,-12.259602,9.7757635,-3.655642,-3.2522728,6.160215,-4.4940147,18.301506,-54.221462,52.30067,1.8569785,5.6222005,2.499181,-0.5982561,-9.914361,18.325577,48.19313,-12.933476,-4.1775384,-3.0602481
23,2.4444386959075928,2.8988564014434814,78.56046295166016,1.188320418890044,3.7737198395182783,-87.54784662643513,-1.3122723,2.679051,7.1931024,7.0839157,-9.919756,-4.4679112,-5.907341,-10.228135,-8.824549,17.752502,-12.444775,9.74644,-3.6902182,-3.384533,6.6676774,-4.0724626,18.745522,-52.84765,50.83355,1.0142994,4.943504,2.701281,-0.8641862,-9.901317,17.992039,47.74964,-12.823191,-4.3215733,-3.3707032
24,2.4971539974212646,3.0782268047332764,78.56304931640625,1.2422640949864587,3.845827738022323,-87.52170305485808,-1.5680989,2.545649,7.155332,7.080707,-9.796125,-4.3656044,-7.07995,-10.494839,-8.698076,19.658642,-12.590901,9.768767,-3.7238219,-3.5742183,7.275367,-3.5599406,19.215414,-51.19417,49.1302,-0.5325522,4.1714983,3.0340898,-1.1282674,-9.89907,17.699135,47.291164,-12.716813,-4.4720373,-3.6759155
25,2.551624298095703,3.3000640869140625,78.55525970458984,1.3445879626961759,3.8663053783725974,-87.48344944855955,-1.7884291,2.3567832,7.121499,7.084806,-9.651413,-4.249034,-8.338282,-10.884273,-8.713364,21.808437,-12.671643,9.863998,-3.7563941,-3.8315938,8.003634,-2.9231484,19.707243,-49.14977,47.164898,-3.0669246,3.2192333,3.5427294,-1.4016203,-9.908398,17.440031,46.77701,-12.689505,-4.589647,-3.9600859
26,2.5885231494903564,3.535600423812866,78.53948211669922,1.482942474765031,3.8392904747539367,-87.43775271539548,-1.9731094,2.1268146,7.090299,7.094368,-9.491569,-4.118649,-9.680929,-11.380168,-8.8122835,24.19876,-12.715111,9.984405,-3.788085,-4.141085,8.841701,-2.169005,20.219433,-46.75251,44.96232,-6.288647,2.0767126,4.1615534,-1.6893336,-9.927189,17.219707,46.225834,-12.714434,-4.6820545,-4.232511
27,2.632819414138794,3.776278018951416,78.5125503540039,1.653551373193584,3.7651915940107474,-87.36361334159754,-2.1830378,1.8648714,7.039236,7.246444,-9.396914,-3.9850729,-11.0844345,-11.963352,-8.953622,26.905333,-12.760887,10.07278,-3.8162727,-4.497075,9.755247,-1.3412483,20.741001,-44.200233,42.546577,-9.778862,0.89738977,4.75969,-1.9591607,-9.961291,17.058477,45.70513,-12.637319,-4.8309617,-4.519533
28,2.6769614219665527,3.9976139068603516,78.4729995727539,1.8548092688341526,3.6439828108993084,-87.23975786971066,-2.4954638,1.5797651,6.946227,7.7138367,-9.466815,-3.8586366,-12.520075,-12.611862,-9.0990305,29.999928,-12.842774,10.08458,-3.8301373,-4.89255,10.711127,-0.49988124,21.252289,-41.703255,39.95828,-13.133102,-0.14756303,5.241658,-2.1673825,-10.019452,16.968018,45.272003,-12.304464,-5.1200027,-4.8451076
29,2.705357551574707,4.235403060913086,78.4269790649414,2.098031167563214,3.447113613471034,-87.06648317221952,-2.812797,1.2505095,6.812631,8.348583,-9.627056,-3.7360873,-13.977769,-13.373175,-9.290166,33.528595,-12.917925,10.042611,-3.8272579,-5.3420343,11.747325,0.3728758,21.73676,-39.27151,37.190395,-16.610252,-1.0511544,5.575313,-2.3105884,-10.107431,16.918104,44.92169,-11.673954,-5.617899,-5.19544
30,2.737119436264038,4.473239898681641,78.3556900024414,2.384213103298268,3.1828847775519558,-86.85264147894635,-3.1352227,0.8769109,6.6475077,9.13013,-9.862027,-3.6121702,-15.451695,-14.251044,-9.526005,37.412895,-12.971624,9.960982,-3.7968626,-5.8439193,12.867905,1.2751933,22.182764,-36.822823,34.252663,-20.321676,-1.8864305,5.825547,-2.3930469,-10.224015,16.90231,44.617397,-10.828367,-6.26845,-5.55627
31,2.7596378326416016,4.708646774291992,78.26062774658203,2.6930902873571894,2.906071002528702,-86.5902258245774,-3.543909,0.48166823,6.4460235,10.11479,-10.194557,-3.494917,-16.919897,-15.145689,-9.711418,41.542618,-13.084816,9.796236,-3.7153068,-6.3647847,13.984462,2.108867,22.57655,-34.43728,31.231476,-23.638823,-2.5949862,6.085358,-2.3826947,-10.369857,16.963644,44.37552,-9.803613,-6.970358,-5.9512944
32,2.7760331630706787,4.926046371459961,78.14095306396484,3.0044940307944743,2.671925689135073,-86.27080671785899,-4.1234417,0.08791534,6.2050595,11.365263,-10.649077,-3.3924463,-18.367844,-15.950736,-9.754647,45.82345,-13.3439045,9.50797,-3.5550966,-6.865527,15.006194,2.771078,22.901737,-32.207607,28.228853,-25.922945,-3.1249282,6.4631295,-2.2396433,-10.546947,17.136606,44.20923,-8.635694,-7.62375,-6.4067416
33,2.7834627628326416,5.125478267669678,77.99458312988281,3.3258602793460508,2.510312717327274,-85.87929786881668,-4.923612,-0.3143495,5.916895,12.913114,-11.248852,-3.312434,-19.860546,-16.649652,-9.586817,50.350044,-13.830304,9.062867,-3.312907,-7.3385367,15.883816,3.2283936,23.153265,-30.18036,25.260653,-26.794395,-3.4016638,7.041809,-1.9337679,-10.760808,17.396086,44.129974,-7.194055,-8.2651825,-6.99161
34,2.7748520374298096,5.3024749755859375,77.82127380371094,3.6648304928713644,2.3864444535435623,-85.42410787974939,-5.904736,-0.73256123,5.589637,14.749311,-11.987356,-3.2481897,-21.385086,-17.278965,-9.272051,55.1447,-14.484221,8.504441,-2.9950838,-7.792781,16.667667,3.52522,23.3311,-28.315365,22.309555,-26.658775,-3.467414,7.7732024,-1.4800823,-11.016522,17.721363,44.12805,-5.5098104,-8.938209,-7.6654534
35,2.7498040199279785,5.464977264404297,77.61576843261719,3.994018900452685,2.259397170709091,-84.93178407322885,-6.9934654,-1.1362749,5.2419844,16.822594,-12.829434,-3.188255,-22.806438,-17.80838,-8.929948,60.008686,-15.184184,7.903605,-2.5945954,-8.2054,17.413954,3.6699283,23.426096,-26.574675,19.439072,-26.053896,-3.4487119,8.565794,-0.91375256,-11.317274,18.158201,44.191395,-3.857513,-9.544232,-8.301848
36,2.718797206878662,5.614344596862793,77.38651275634766,4.283468155094526,2.0887584881008316,-84.42908426240702,-8.113882,-1.4950254,4.890464,19.076681,-13.734065,-3.1239302,-23.992386,-18.22039,-8.683142,64.76415,-15.812355,7.32286,-2.1065657,-8.552914,18.177036,3.6592066,23.42131,-24.917301,16.726517,-25.5132,-3.4847648,9.327002,-0.27691117,-11.666908,18.755325,44.315357,-2.510203,-9.972347,-8.785095
37,2.6875972747802734,5.750350475311279,77.12791442871094,4.495203897393034,1.877838487538536,-83.90679809916168,-9.314985,-1.7799871,4.5187025,21.597933,-14.722407,-3.0452516,-24.928513,-18.502,-8.583043,69.43614,-16.354794,6.7431073,-1.5349438,-8.783049,18.948078,3.432081,23.311935,-23.360071,14.233866,-25.050282,-3.612221,10.055549,0.41865173,-12.079248,19.524582,44.54157,-1.5344526,-10.167534,-9.166081
38,2.6495492458343506,5.875295639038086,76.83548736572266,4.644491648309529,1.6447842696769266,-83.35588191362625,-10.604162,-2.0132208,4.1231103,24.359558,-15.794286,-2.9662886,-25.667988,-18.66562,-8.570338,74.11567,-16.880514,6.1371336,-0.88818246,-8.901139,19.699236,3.0005097,23.10384,-21.904497,11.921136,-24.412722,-3.752665,10.791938,1.1925733,-12.564328,20.438007,44.8629,-0.783452,-10.189235,-9.491249
39,2.6039681434631348,5.9841132164001465,76.50676727294922,4.78514885730774,1.370566704026608,-82.80400189650453,-11.850206,-2.24135,3.74015,27.153204,-16.880598,-2.9156218,-26.179354,-18.733295,-8.602244,78.72434,-17.395117,5.562574,-0.1678608,-8.974776,20.459547,2.4602737,22.791985,-20.485638,9.718166,-23.736553,-3.8873837,11.507625,2.0485709,-13.11137,21.488466,45.19881,-0.20854592,-10.089274,-9.641811
40,2.5471878051757812,6.061859607696533,76.1525650024414,4.975412474228664,1.035020125653705,-82.27978223054009,-12.923562,-2.5116801,3.408918,29.776228,-17.919287,-2.9202425,-26.434927,-18.716589,-8.638842,83.179985,-17.899149,5.0875936,0.6231184,-9.082588,21.257483,1.9012859,22.363928,-19.03776,7.5655527,-23.1583,-4.0018315,12.173469,2.9763403,-13.698485,22.67666,45.4873,0.2336459,-9.918688,-9.499803
41,2.470808267593384,6.135717868804932,75.76338958740234,5.23006577037126,0.6004494812514669,-81.80582284903323,-13.771108,-2.8330958,3.1564088,32.21624,-18.905918,-2.9911096,-26.395184,-18.598402,-8.680808,87.5135,-18.400404,4.6991334,1.5238332,-9.244282,22.134851,1.3183663,21.801104,-17.519836,5.4398484,-22.722898,-4.093483,12.7623,3.9662843,-14.320453,24.043343,45.75672,0.49022943,-9.646028,-8.997471
42,2.4014089107513428,6.183987617492676,75.35401916503906,5.517683347602426,0.08754946969591616,-81.36383737519763,-14.46882,-3.1854372,2.9605153,34.57069,-19.872162,-3.1174965,-26.077425,-18.35309,-8.759103,91.75819,-18.899376,4.389586,2.5154357,-9.411878,23.059755,0.65776944,21.104555,-15.958518,3.3915963,-22.34589,-4.172271,13.293014,4.9996314,-14.982502,25.582148,46.056396,0.5513222,-9.257608,-8.215587
43,2.316389322280884,6.211210250854492,74.92277526855469,5.828940037934617,-0.4366943107376398,-80.92267269231925,-15.0874195,-3.5679486,2.7869177,36.81413,-20.815546,-3.2901912,-25.5468,-17.96713,-8.885588,95.83296,-19.381405,4.2478933,3.5128503,-9.574117,23.955812,-0.06497157,20.298033,-14.399257,1.4664755,-21.979221,-4.2438006,13.805695,6.0606503,-15.668697,27.222763,46.34457,0.52364904,-8.83138,-7.2566104
44,2.2192254066467285,6.216413497924805,74.46394348144531,6.1551509014389465,-0.9054400799872395,-80.45017621831944,-15.700275,-3.9762197,2.59962,38.925957,-21.73634,-3.497321,-24.87536,-17.423527,-9.073312,99.655365,-19.831299,4.3678637,4.433792,-9.736202,24.748209,-0.8177975,19.419151,-12.891055,-0.3083016,-21.579832,-4.3114424,14.34275,7.130199,-16.349321,28.894117,46.58286,0.5129931,-8.443508,-6.223214
45,2.1083598136901855,6.204992294311523,73.99215698242188,6.523441175661272,-1.3214881714986,-79.93239413085696,-16.308958,-4.435948,2.3961756,40.914253,-22.654934,-3.745906,-24.055445,-16.650362,-9.305503,103.23669,-20.254728,4.852523,5.2918572,-9.950794,25.443825,-1.58819,18.475988,-11.42784,-2.0106182,-21.172235,-4.349963,14.889263,8.208164,-17.00071,30.635305,46.77194,0.50582695,-8.14198,-5.056735
46,1.9778695106506348,6.177179336547852,73.5072021484375,6.925654604929865,-1.7150398819705832,-79.39009736882615,-16.885447,-4.9325175,2.1927192,42.79747,-23.571695,-4.0380116,-23.062567,-15.630908,-9.629101,106.61432,-20.67447,5.6325965,6.120753,-10.215087,26.073687,-2.3874536,17.470137,-9.98401,-3.64126,-20.775553,-4.3653874,15.433268,9.271097,-17.616505,32.47419,46.961334,0.45308864,-7.87982,-3.7320323
47,1.833825707435608,6.15274715423584,73.02223205566406,7.303066721123725,-2.05993163144199,-78.84100933080362,-17.458307,-5.4024124,1.9788933,44.5724,-24.456455,-4.352517,-21.963346,-14.454121,-10.07506,109.74115,-21.084167,6.5925426,6.869499,-10.464032,26.603458,-3.2012541,16.440779,-8.586473,-5.081065,-20.34382,-4.4053726,16.023798,10.2808695,-18.189802,34.318672,47.1658,0.40982965,-7.586116,-2.4006853
48,1.6900066137313843,6.109987258911133,72.55280303955078,7.602118470975012,-2.3291911935119844,-78.30090691958925,-18.051605,-5.787405,1.7440081,46.226536,-25.274364,-4.668288,-20.829777,-13.234811,-10.651238,112.57041,-21.46299,7.604542,7.493992,-10.64204,27.003963,-4.0066566,15.448447,-7.2748895,-6.2291183,-19.841694,-4.516539,16.71458,11.2172985,-18.71133,36.066486,47.38204,0.42859265,-7.1879754,-1.2130432
49,1.5353952646255493,6.05648946762085,72.11607360839844,7.813156432380293,-2.4941055276724007,-77.74539411479564,-18.709684,-6.084758,1.468599,47.780777,-26.033987,-4.9841137,-19.671722,-11.9345875,-11.401568,115.08521,-21.772505,8.700356,7.984031,-10.771596,27.265505,-4.8039546,14.517522,-6.061027,-7.1342225,-19.267296,-4.7520394,17.523808,12.08734,-19.155695,37.729504,47.613068,0.59490114,-6.6514935,-0.19567308
50,1.378773808479309,5.9902024269104,71.72506713867188,7.968766321521014,-2.576244464672742,-77.17365828664143,-19.402979,-6.324038,1.1612555,49.229965,-26.746405,-5.3089814,-18.485275,-10.521471,-12.293151,117.315445,-22.028366,9.914742,8.367113,-10.897907,27.40585,-5.594519,13.646758,-4.932469,-7.840359,-18.651484,-5.070695,18.432493,12.8906355,-19.508238,39.356674,47.86884,0.8520675,-6.017946,0.7267195
51,1.2227329015731812,5.903672695159912,71.38130187988281,8.075518344537072,-2.6220672126573517,-76.6352281184918,-20.043215,-6.4994164,0.85207635,50.517887,-27.376263,-5.635698,-17.301838,-9.151307,-13.201292,119.28942,-22.278788,11.115016,8.658328,-10.999193,27.442806,-6.351066,12.8649435,-3.9034479,-8.253133,-18.014725,-5.3777237,19.43943,13.616332,-19.785536,40.893192,48.133984,1.0428338,-5.3295627,1.5599674
52,1.0646698474884033,5.812849044799805,71.09044647216797,8.140995245044925,-2.6781362826179387,-76.17984707314669,-20.540953,-6.6047735,0.5705604,51.584415,-27.891096,-5.9562554,-16.133835,-7.995149,-13.9997,121.031425,-22.56306,12.165676,8.878741,-11.051826,27.40357,-7.0440245,12.215213,-2.998983,-8.2906685,-17.390636,-5.5807915,20.545162,14.280409,-20.024544,42.273373,48.354942,1.0147079,-4.632223,2.3178437
53,0.908141016960144,5.716475009918213,70.85635375976562,8.161948262314517,-2.757228289105894,-75.79837969492226,-20.888132,-6.640004,0.3024454,52.44329,-28.290115,-6.2670984,-14.916154,-7.1050105,-14.716499,122.55281,-22.848166,13.066654,9.023296,-11.052444,27.302742,-7.69524,11.719249,-2.2457693,-7.894141,-16.870827,-5.7249746,21.8681,14.933463,-20.24451,43.49013,48.463005,0.6923139,-3.8572094,2.9822977
54,0.7637130618095398,5.6086297035217285,70.68799591064453,8.139775231419394,-2.8339253877442334,-75.47020608195011,-21.124294,-6.6104608,0.036562152,53.11245,-28.586329,-6.56998,-13.659569,-6.4158177,-15.377576,123.84575,-23.103903,13.871503,9.0888405,-11.022894,27.132193,-8.314536,11.372875,-1.641353,-7.1222887,-16.426615,-5.838465,23.37763,15.585762,-20.448517,44.571182,48.454323,0.17440988,-3.0109003,3.5657215
55,0.6292978525161743,5.49672794342041,70.59542846679688,8.090843653487775,-2.897984669314709,-75.22790138600516,-21.233189,-6.517111,-0.19291781,53.538174,-28.761332,-6.862461,-12.474469,-5.942101,-15.857702,124.90947,-23.37072,14.522373,9.097861,-10.974101,26.889154,-8.849465,11.1786785,-1.1663558,-6.07895,-15.920343,-5.802418,24.848164,16.200478,-20.656097,45.50179,48.356995,-0.4242554,-2.251765,4.1274815
56,0.5077592134475708,5.382291793823242,70.57185363769531,8.022377352852258,-2.9349836178999245,-75.10969514815636,-21.20788,-6.3461933,-0.3533022,53.67898,-28.803251,-7.143861,-11.476348,-5.7075634,-16.043976,125.74016,-23.686121,14.946633,9.077343,-10.907851,26.569391,-9.24308,11.141172,-0.79928255,-4.8746934,-15.222423,-5.495136,26.051533,16.744621,-20.89854,46.265774,48.182587,-0.9865271,-1.7356538,4.722598
57,0.38835573196411133,5.2657246589660645,70.62987518310547,7.924742779885182,-2.9376593257851455,-75.13963644027581,-21.049309,-6.068936,-0.43413106,53.53423,-28.719543,-7.417438,-10.685106,-5.75762,-15.901682,126.36957,-24.068836,15.000033,9.039294,-10.812364,26.154814,-9.483525,11.262226,-0.49140647,-3.5251725,-14.375484,-4.7876124,26.922443,17.23349,-21.206154,46.880043,47.87217,-1.5878794,-1.5049984,5.3882565
58,0.2701858878135681,5.154637336730957,70.76005554199219,7.8512480247902925,-2.93336553369511,-75.26686023904628,-20.728962,-5.771672,-0.44396245,53.07792,-28.483768,-7.6618376,-10.045877,-6.038743,-15.382669,126.79994,-24.50531,15.000033,8.939462,-10.737953,25.681265,-9.598235,11.537209,-0.26294893,-1.980644,-13.435651,-3.777961,27.57401,17.69715,-21.592337,47.348564,47.38898,-2.2458575,-1.4750197,6.0873375
59,0.14812800288200378,5.048202037811279,70.95855712890625,7.798351000401944,-2.918159852397631,-75.47078229116934,-20.262264,-5.46752,-0.39619246,52.318203,-28.085934,-7.874366,-9.566818,-6.572706,-14.586705,126.96962,-24.933046,15.000033,8.771596,-10.687501,25.178782,-9.598235,11.961716,-0.19743879,-0.24383943,-12.291215,-2.6824765,28.044123,18.123503,-22.059433,47.631912,46.783024,-2.7559316,-1.6061832,6.759347
60,0.03268837183713913,4.940302848815918,71.2332763671875,7.704978577864777,-2.8675557322689267,-75.76173944892555,-19.704979,-5.081225,-0.31736118,51.32096,-27.550327,-8.075179,-9.259857,-7.479515,-13.774201,126.81099,-25.26397,14.662096,8.559494,-10.607074,24.649826,-9.495993,12.530832,-0.38342285,1.6843132,-10.824282,-1.7154248,28.37469,18.502,-22.599648,47.686615,46.111782,-2.9162278,-1.8542247,7.345968
61,-0.07852405309677124,4.8367133140563965,71.56938934326172,7.5709875057332665,-2.7831031415975414,-76.15109554598652,-19.042902,-4.6156936,-0.20074007,50.065296,-26.881683,-8.264513,-9.158758,-8.811914,-12.878133,126.3343,-25.519323,13.9896345,8.315353,-10.486856,24.090721,-9.283946,13.260444,-0.815203,3.8305295,-8.8503275,-0.9105595,28.565393,18.831186,-23.216167,47.52715,45.413322,-2.5841408,-2.267114,7.829142
62,-0.19820038974285126,4.727335453033447,71.97317504882812,7.4164588817651405,-2.672499463700174,-76.63702098568419,-18.261766,-4.0911183,-0.034826666,48.537106,-26.073568,-8.437865,-9.280241,-10.499667,-11.832289,125.56004,-25.736366,13.074424,8.034002,-10.348127,23.495123,-8.967259,14.15547,-1.4544395,6.1922693,-6.480176,-0.16711578,28.592371,19.130798,-23.91042,47.165268,44.638947,-1.8936067,-2.840583,8.2491455
63,-0.33168259263038635,4.6298136711120605,72.43063354492188,7.233380061589249,-2.533365165398951,-77.18847096817505,-17.394402,-3.5115898,0.16517831,46.784973,-25.111034,-8.59555,-9.5996685,-12.395075,-10.806404,124.44003,-25.884756,11.97157,7.6989737,-10.20841,22.875748,-8.577387,15.184698,-2.3453963,8.727242,-4.032022,0.5018631,28.468817,19.414803,-24.66234,46.547337,43.74304,-1.062236,-3.4531338,8.631616
64,-0.4823679029941559,4.520708084106445,72.93917846679688,7.011149848644198,-2.364221917473596,-77.7739019801129,-16.472816,-2.8783445,0.3818317,44.853756,-23.982494,-8.739165,-10.062758,-14.350742,-9.980295,122.92836,-25.940866,10.735009,7.2984886,-10.071157,22.2444,-8.144996,16.296629,-3.5412178,11.394675,-1.811022,1.0832722,28.211899,19.693611,-25.435148,45.60867,42.703407,-0.3129731,-3.9869883,8.992158
65,-0.6405632495880127,4.411215305328369,73.4890365600586,6.741460080283196,-2.166416864174359,-78.39615477487105,-15.47442,-2.1865613,0.62051654,42.694397,-22.679527,-8.873228,-10.630179,-16.504765,-9.458465,121.018,-25.97906,9.209842,6.8302183,-9.915835,21.593418,-7.653587,17.485529,-5.0479913,14.2409,0.20923321,1.5280509,27.885408,19.957691,-26.204725,44.3193,41.58089,0.23984051,-4.4006977,9.368717
66,-0.8038398027420044,4.317436218261719,74.07810974121094,6.41760902692295,-1.9430765439773474,-79.06975454012178,-14.397063,-1.4270453,0.8859545,40.31509,-21.21792,-9.002268,-11.298905,-18.818401,-9.182796,118.72685,-26.048811,7.446597,6.30924,-9.721035,20.913284,-7.099506,18.759567,-6.8432727,17.270111,2.1702762,1.8494651,27.470045,20.208433,-26.958652,42.70829,40.41183,0.72952294,-4.76367,9.73587
67,-0.9961225986480713,4.203217029571533,74.70140075683594,6.031789264510709,-1.6945750196915599,-79.77949755211212,-13.305064,-0.59830284,1.1608919,37.847855,-19.621162,-9.12585,-12.034091,-20.904741,-9.074224,116.047325,-26.064774,5.796223,5.742502,-9.483523,20.217648,-6.5093703,20.073532,-8.932715,20.35871,3.9522376,2.1250572,26.851408,20.45839,-27.668491,40.79902,39.16021,1.30488,-5.12684,10.006372
68,-1.2070908546447754,4.101741313934326,75.3400650024414,5.586520946869768,-1.4212754912418653,-80.50911125068724,-12.262882,0.29312924,1.430833,35.420483,-17.910019,-9.2399845,-12.801168,-22.423716,-9.013052,112.9668,-25.90008,4.586378,5.1344132,-9.194835,19.521683,-5.897757,21.354551,-11.322557,23.380165,5.4574733,2.4266539,25.90755,20.709597,-28.292725,38.608566,37.81296,2.1119013,-5.541701,10.091824
69,-1.4251201152801514,3.9974753856658936,75.99249267578125,5.063471638917821,-1.1289959982045443,-81.25834982498255,-11.254126,1.2536039,1.6550354,32.991688,-16.028757,-9.331762,-13.58209,-23.29648,-8.947921,109.431946,-25.492952,3.8551626,4.480642,-8.817848,18.82383,-5.25796,22.575857,-14.034574,26.4005,6.710768,2.825079,24.56637,20.945692,-28.79764,36.0721,36.465168,3.1265693,-6.045864,9.9634495
70,-1.6475862264633179,3.8930470943450928,76.64071655273438,4.4752241284623775,-0.8186347817589857,-82.0342916775738,-10.266614,2.2710834,1.861747,30.531187,-13.99363,-9.40572,-14.341484,-23.733553,-8.918453,105.46766,-24.925886,3.4343665,3.786603,-8.354978,18.109783,-4.5863533,23.746033,-17.065302,29.476212,7.7828884,3.2526598,22.909801,21.140402,-29.161867,33.20647,35.177753,4.2860694,-6.6120477,9.666771
71,-1.8847124576568604,3.798017740249634,77.27739715576172,3.8769570776186226,-0.48180736355459114,-82.83024112538881,-9.363806,3.302676,2.1375868,28.172308,-11.925293,-9.481039,-15.037146,-23.864594,-8.909416,101.162384,-24.259949,3.3168175,3.0609117,-7.861892,17.376616,-3.878025,24.84595,-20.378109,32.45121,8.651195,3.5781639,21.043394,21.251596,-29.361698,30.158651,33.907623,5.6777773,-7.1983333,9.223608
72,-2.134171485900879,3.7043941020965576,77.89603424072266,3.318124523587132,-0.10832903855563959,-83.63912138446845,-8.601044,4.305991,2.5640924,26.038301,-9.937864,-9.576619,-15.648798,-23.817516,-8.887463,96.5945,-23.541834,3.5136166,2.308622,-7.389812,16.616686,-3.1220582,25.847506,-23.93586,35.173958,9.29872,3.6756282,19.075293,21.220383,-29.378817,27.077312,32.6254,7.3880453,-7.7660766,8.651771
73,-2.3866734504699707,3.6142866611480713,78.48653411865234,2.7872495079496376,0.32384459279168143,-84.45373748456123,-7.9891243,5.3268633,3.202725,24.05813,-7.8911543,-9.675128,-16.21106,-23.509958,-8.779147,91.69875,-22.76926,4.106684,1.5093014,-6.9257483,15.795585,-2.3314342,26.745546,-27.860043,37.705242,9.547118,3.5274396,16.942348,21.006132,-29.205084,23.914522,31.386658,9.539513,-8.333803,7.951267
74,-2.635582685470581,3.5275659561157227,79.03890991210938,2.271458704139134,0.8021605719725501,-85.27824226736463,-7.496997,6.34894,3.9950526,22.20048,-5.7811522,-9.768787,-16.712214,-22.972157,-8.579739,86.447266,-21.930618,5.0214577,0.680882,-6.4560657,14.909969,-1.5250721,27.551683,-32.161983,40.15388,9.456777,3.2216632,14.627001,20.598137,-28.843603,20.62361,30.255821,12.035186,-8.936502,7.114345
75,-2.8785946369171143,3.4397430419921875,79.53751373291016,1.8178485415224075,1.2868666404166524,-86.1232993637605,-7.1062016,7.258817,4.8327475,20.630535,-3.9094796,-9.893536,-17.082829,-22.473536,-8.423335,80.96182,-21.044632,6.0164013,-0.12458566,-6.028493,14.000345,-0.6876248,28.267023,-36.626003,42.424984,9.36663,2.7766037,12.302935,19.988222,-28.31349,17.352417,29.1895,14.632109,-9.5613785,6.1414294
76,-3.1194303035736084,3.3523011207580566,79.970947265625,1.4636261872813368,1.74045749662315,-86.99978219986373,-6.791842,7.967894,5.6005497,19.497526,-2.5713418,-10.091611,-17.274357,-22.238405,-8.475166,75.36293,-20.115585,6.875961,-0.8772774,-5.6850805,13.111365,0.21601245,28.891193,-41.00764,44.399616,9.622835,2.1814265,10.144089,19.18142,-27.651308,14.259665,28.110384,17.096666,-10.190682,5.0254865
77,-3.358504295349121,3.2583932876586914,80.3421401977539,1.205691609600318,2.1750751098872443,-87.90999660326348,-6.5400977,8.50935,6.4009213,18.844175,-1.893122,-10.421695,-17.272669,-22.308706,-8.817139,69.5626,-19.10966,7.5488815,-1.6145527,-5.4241815,12.234127,1.2245108,29.42315,-45.406902,45.982986,10.440959,1.2876244,8.158288,18.188427,-26.902008,11.35403,26.921091,19.504253,-10.841214,3.6470842
78,-3.596233606338501,3.16510009765625,80.65440368652344,1.0182330930656804,2.608003391014843,-88.8486943160197,-6.340329,8.934646,7.2491508,18.535755,-1.6721841,-10.84798,-17.121181,-22.541805,-9.365897,63.517723,-18.019106,8.162058,-2.3484607,-5.2166777,11.35462,2.3264225,29.867504,-49.89792,47.266743,11.581054,0.12042084,6.280274,17.062216,-26.099188,8.533242,25.604885,21.933067,-11.540524,2.049306
79,-3.8383848667144775,3.071568489074707,80.88983917236328,0.8940009726468308,3.010478955307789,-89.81904443827933,-6.164098,9.197865,7.900641,18.435865,-1.7072867,-11.271182,-16.860994,-22.8558,-10.055015,57.38962,-16.859196,8.790302,-3.0226314,-5.058069,10.51997,3.5004637,30.233997,-54.16859,48.37253,12.722432,-1.0706381,4.566375,15.872151,-25.262339,5.797773,24.181074,24.169216,-12.256793,0.46312144
80,-4.078596591949463,2.992767572402954,81.05025482177734,0.8299560489935667,3.3528829186996743,-90.82354000034259,-5.9831524,9.248244,8.10866,18.404325,-1.7997298,-11.591215,-16.533897,-23.184856,-10.809372,51.328136,-15.644126,9.498184,-3.6028116,-4.9541044,9.778269,4.7567296,30.540157,-57.861507,49.38298,13.568454,-2.0135667,3.050743,14.638449,-24.404182,3.184247,22.700485,26.009418,-12.931052,-0.8881726
81,-4.330098628997803,2.9151692390441895,81.13358306884766,0.8673639702065737,3.6200953021529854,-91.8478698654567,-5.847574,8.947899,7.588519,18.560608,-1.9876695,-11.793548,-16.073233,-23.60339,-11.738485,45.17148,-14.259711,10.376181,-4.1382527,-4.952417,9.158191,6.135109,30.788849,-60.91448,50.205925,14.0730915,-2.639878,1.7040886,13.3196335,-23.525965,0.703093,21.073582,27.461311,-13.48664,-1.9884908
82,-4.587966442108154,2.829172372817993,81.14543914794922,0.9978081215556328,3.834682444599223,-92.89455294217773,-5.7485647,8.356788,6.5491505,18.920784,-2.3502882,-11.927912,-15.484432,-24.110586,-12.837887,38.857563,-12.714718,11.368289,-4.644834,-5.040078,8.629503,7.6477966,30.980192,-63.490593,50.798252,14.405575,-3.075035,0.5082884,11.912417,-22.636295,-1.6676657,19.291052,28.631197,-13.947566,-2.9533992
83,-4.855597019195557,2.746428966522217,81.08322143554688,1.1456535639183925,4.019204451909875,-93.99096317674592,-5.582081,7.7295165,5.475237,19.214552,-2.7526028,-11.984531,-14.919166,-24.54728,-13.856943,32.687656,-11.197233,12.302491,-5.0444546,-5.1366644,8.161655,9.261518,31.132786,-65.55524,51.290817,14.595369,-3.3265128,-0.4975926,10.476113,-21.758673,-3.9252725,17.520847,29.471466,-14.381367,-3.7595034
84,-5.138341903686523,2.6642906665802,80.9616470336914,1.2370966374736436,4.191645516631017,-95.16331711726727,-5.2417693,7.336479,4.8428035,19.153418,-3.0525424,-11.94867,-14.525641,-24.777187,-14.549271,26.967377,-9.892691,12.9983835,-5.27692,-5.1643763,7.731628,10.955731,31.281147,-67.04339,51.78383,14.6693945,-3.4032857,-1.2741898,9.04658,-20.922022,-6.037848,15.942147,29.939177,-14.855388,-4.3818994
85,-5.425879001617432,2.5815987586975098,80.77100372314453,1.2709717562582987,4.374737950944196,-96.41955090343944,-4.7238817,7.220662,4.7410073,18.582672,-3.0807133,-11.709905,-14.327535,-24.782381,-14.980516,21.608685,-8.885904,13.269559,-5.3539104,-5.1011553,7.305155,12.770601,31.43857,-67.91662,52.20863,14.555665,-3.1604586,-1.8217897,7.5719805,-20.10905,-8.01044,14.540601,30.029291,-15.353621,-4.7048326
86,-5.7266669273376465,2.502821683883667,80.52304077148438,1.3034869236920543,4.541294063311269,-97.73803653263347,-4.0649014,7.215035,4.9287105,17.66878,-2.95559,-11.318623,-14.2156515,-24.682653,-15.250109,16.418694,-8.021531,13.242812,-5.3118277,-5.017997,6.9150114,14.709259,31.606462,-68.20425,52.483505,14.27239,-2.6348348,-2.161532,6.01521,-19.307806,-9.844741,13.259876,29.772783,-15.839129,-4.7855306
87,-6.032402038574219,2.4219226837158203,80.25322723388672,1.3596682441653583,4.625708896026328,-99.09475264919504,-3.2021728,7.268843,5.37743,16.572151,-2.9463978,-11.000362,-14.094491,-24.547464,-15.184707,11.4929905,-7.101196,13.231195,-5.151567,-4.9836893,6.6480436,16.708498,31.811962,-67.91661,52.659447,13.974344,-2.112914,-2.2862952,4.4327617,-18.564154,-11.47255,12.212326,29.190865,-16.34878,-4.8568826
88,-6.364406585693359,2.3707752227783203,79.90455627441406,1.4651665920741457,4.560033061413037,-100.46146478675387,-2.0682416,7.3452363,6.0460386,15.45354,-3.304496,-10.970999,-13.889076,-24.417418,-14.61283,6.9946904,-5.9576035,13.573826,-4.8989105,-5.0517926,6.5895534,18.737833,32.10105,-67.0389,52.74078,13.816054,-1.881907,-2.1956902,2.8710215,-17.94838,-12.794746,11.528629,28.321775,-16.915964,-5.1543765
89,-6.711981296539307,2.3521852493286133,79.47254943847656,1.5735368308677087,4.301420738190232,-101.92484836347718,-0.5273771,7.5439963,7.0963144,14.311196,-4.3002143,-11.340603,-15.510759,-24.519201,-12.445046,6.66388,-6.5505843,14.598914,-4.5368776,-5.153673,6.7744484,20.948261,32.507126,-65.49067,52.619633,14.061717,-2.0403292,-1.8552916,1.2129807,-17.495218,-13.752938,11.283638,27.197165,-17.60282,-5.6829085
90,-7.087940216064453,2.3420968055725098,79.02399444580078,1.4941700281095163,3.9282428226257036,-103.54533553369066,1.1956683,8.113142,8.519931,13.354964,-5.865102,-12.047324,-17.104546,-23.952007,-9.633686,6.5772204,-6.9246473,15.000033,-4.014238,-5.0822105,7.1262126,23.377312,33.032715,-63.26342,52.187782,14.556924,-2.4197958,-1.2911484,-0.5881881,-17.200329,-14.367656,11.47541,25.810204,-18.368582,-6.353628
91,-7.480208396911621,2.330202341079712,78.60798645019531,1.3661305312702299,3.487576193674567,-105.0922254029668,2.950345,8.7765875,9.981594,12.465808,-7.4315357,-12.909425,-18.37045,-23.141996,-6.9065404,6.5527735,-6.9585295,15.000033,-3.4535697,-4.9780264,7.601289,25.834515,33.676174,-60.455956,51.45901,14.824597,-2.913738,-0.59734935,-2.366989,-17.071918,-14.652857,12.11242,24.142178,-19.078989,-7.2612085
92,-7.879325866699219,2.330310583114624,78.25138092041016,1.3557114626013398,3.0731243188448043,-106.3488569483323,4.500381,9.24344,11.114113,11.589615,-8.47146,-13.723584,-19.218164,-22.66397,-4.901566,6.553563,-6.6030946,15.000033,-2.9567893,-5.004718,8.121455,28.120865,34.434334,-57.17724,50.48377,14.383341,-3.429621,0.12536925,-3.9462154,-17.125574,-14.626944,13.195196,22.18051,-19.59078,-8.491424
93,-8.282093048095703,2.364516019821167,77.950439453125,1.5358678768824237,2.688935956728912,-107.39565928208752,5.9127355,9.400612,11.935946,10.586786,-8.850496,-14.456643,-19.65228,-22.701283,-3.6558905,6.5271735,-5.6337214,15.000033,-2.4606783,-5.257729,8.699491,30.34538,35.317673,-53.273766,49.28717,13.198196,-4.0413313,0.7648449,-5.395206,-17.384405,-14.258756,14.8387165,19.745308,-19.915077,-10.3354
94,-8.69823169708252,2.4460811614990234,77.71398162841797,1.8468081984963045,2.3321902036033766,-108.30742547735466,7.2590113,9.336225,12.593124,9.443945,-8.810926,-15.000033,-19.774782,-23.059786,-2.8355727,6.4763503,-4.113744,15.000033,-1.9247732,-5.657609,9.333464,32.673534,36.319664,-48.713543,47.77685,11.490996,-4.7775593,1.370235,-6.787748,-17.845583,-13.535831,17.033224,16.92131,-20.044994,-12.660064
95,-9.128607749938965,2.564271926879883,77.53888702392578,2.217460569069089,2.1278252282025414,-108.88859084658671,8.215146,9.13752,12.8814125,8.394305,-8.449999,-15.000033,-19.813848,-23.654238,-2.4210985,6.5795794,-2.494611,15.000033,-1.440847,-6.0866218,9.885965,34.90014,37.399475,-43.834118,45.949333,9.147334,-5.50081,2.0908968,-7.9237576,-18.4711,-12.529042,19.564846,14.110022,-19.853346,-14.875943
96,-9.608622550964355,2.6789231300354004,77.41606140136719,2.5609288729264366,2.0743909910320264,-108.97522820236425,8.520346,9.067439,12.688083,7.9372106,-8.021784,-15.000033,-19.727255,-24.35116,-2.4623272,6.760406,-1.1218917,15.000033,-1.0677423,-6.448235,10.327328,36.72681,38.516655,-39.00374,43.921783,6.0429807,-6.1025667,3.1065667,-8.579259,-19.197317,-11.321629,22.197603,11.702506,-19.286812,-16.377363
97,-10.15389347076416,2.7742321491241455,77.35700225830078,2.828516658117868,2.2174150158691837,-108.44149421806392,8.041134,9.214793,11.911735,8.195007,-7.589071,-15.000033,-21.020178,-25.224691,-2.647265,10.020722,-1.6866163,14.820369,-0.8913835,-6.707203,10.587,37.998062,39.696476,-34.279144,41.942554,1.8939941,-6.6222534,4.552485,-8.5949135,-20.024622,-9.9937935,24.940208,9.621407,-18.329428,-17.118187
98,-10.756532669067383,2.8645405769348145,77.36302947998047,3.0502294849066196,2.4938533944680565,-107.41880580130652,6.9504266,9.505211,10.662864,9.02095,-7.0893383,-15.000033,-21.94447,-26.23276,-3.5687175,13.059076,-2.2404087,14.193542,-0.82635415,-6.906997,10.73699,38.825336,40.974957,-29.513964,39.99662,-3.1541934,-7.196916,6.3116035,-8.071533,-20.972734,-8.525346,27.848639,7.70387,-17.067478,-17.346731
99,-11.402420997619629,2.9651496410369873,77.41297149658203,3.2875573372015694,2.77962202816348,-106.08030103727064,5.457791,9.80911,9.088579,10.30876,-6.462798,-15.000033,-22.524433,-27.283688,-4.6244507,15.865645,-2.717666,13.609809,-0.7234138,-7.085844,10.925325,39.20986,42.29898,-24.79705,37.901295,-8.5947275,-7.8531027,8.217163,-7.1367464,-21.989378,-6.86848,30.720764,6.164225,-15.659473,-16.917778
100,-12.08220386505127,3.093167543411255,77.49713134765625,3.5371824759459933,2.96856677239573,-104.63374695026191,3.7206109,10.087823,7.3585706,12.048458,-5.7000456,-15.000033,-22.827358,-28.127472,-5.227981,18.421537,-3.0469434,13.097987,-0.39773825,-7.234933,11.287606,39.02759,43.52967,-20.269432,35.62054,-13.948651,-8.568092,10.140263,-5.879336,-22.983229,-4.979393,33.312904,5.172858,-14.257104,-15.709699
101,-12.783106803894043,3.2431766986846924,77.60626983642578,3.7613269647806624,3.0496594457649815,-103.06347924633653,1.6817986,10.359094,5.4454856,14.373171,-4.7590585,-15.000033,-22.864853,-28.700966,-5.2809505,20.789461,-3.239261,12.639434,0.11083743,-7.3092747,11.83223,38.06663,44.59726,-15.897895,33.332195,-19.458527,-9.378826,12.267635,-4.25401,-23.966314,-2.8580396,35.63611,4.8541856,-12.753339,-13.455702
102,-13.51362133026123,3.421926498413086,77.73522186279297,3.930689493351694,3.092527899638915,-101.28064919950867,-0.6939447,10.618486,3.2854068,17.158922,-3.6096332,-15.000033,-22.634094,-29.076971,-5.109257,22.999647,-3.3502145,12.221355,0.6715294,-7.26849,12.447828,36.34445,45.522404,-11.669539,31.156473,-25.215853,-10.372151,14.632254,-2.2555027,-25.00724,-0.50322556,37.817013,4.968645,-11.105759,-10.364964
103,-14.273852348327637,3.611445426940918,77.86885833740234,4.062192449000074,3.1121068296227956,-99.38941533228162,-3.2380302,10.80779,0.99457496,20.069944,-2.2823431,-15.000033,-22.228115,-29.216091,-4.731472,25.026937,-3.3862586,11.883865,1.2910482,-7.1303773,13.106714,33.722687,46.277477,-7.9384465,29.282108,-30.632303,-11.483278,16.91883,-0.032481536,-26.06143,2.192719,39.74136,5.162936,-9.563759,-7.0195312
104,-15.06684684753418,3.8095786571502686,77.99598693847656,4.189888513706179,3.1187054018632656,-97.49699011501951,-5.789007,10.876892,-1.3105285,22.806368,-0.8260949,-15.000033,-21.748215,-29.101505,-4.144197,26.853872,-3.3610854,11.669582,2.0657082,-6.9319587,13.773568,30.390242,46.74241,-4.8106184,27.605883,-34.890476,-12.539098,18.842407,2.40326,-27.028633,5.2663136,41.21379,5.113718,-8.41252,-3.9716263
105,-15.87887954711914,4.012293815612793,78.11001586914062,4.330444226123963,3.1037573072364744,-95.60119621770065,-8.441823,10.644291,-4.025185,25.56488,0.9564467,-15.000033,-21.292124,-28.58479,-2.958945,28.618965,-3.2062345,11.446148,2.9987228,-6.6854086,14.46005,26.134846,46.849117,-2.2215495,26.190544,-37.857494,-13.410272,20.433361,5.093374,-27.892141,8.949755,42.24706,4.807698,-7.815665,-1.2536396
106,-16.71442985534668,4.209555625915527,78.1972427368164,4.485012262580822,3.06122751917309,-93.66075000595002,-11.173792,10.114707,-7.0255256,28.39075,3.0153756,-15.000033,-20.794483,-27.746069,-1.2795047,30.338127,-2.9673276,11.25482,3.978065,-6.398392,15.152718,21.07211,46.64552,0.059002765,25.010477,-39.86397,-14.143648,21.875721,7.8775096,-28.737947,13.260276,43.061867,4.404825,-7.603386,1.3710493
107,-17.57213592529297,4.401933193206787,78.24058532714844,4.6481522587012725,3.0109858482372602,-91.72270232305699,-13.745736,9.669839,-9.477434,30.805607,4.9498425,-15.000033,-20.128435,-26.902866,0.15791686,31.787104,-2.8225782,11.366797,4.888704,-6.1077604,15.814051,15.779845,46.18294,2.1141715,23.887856,-40.948193,-14.766074,23.126402,10.49774,-29.579182,17.954493,43.663128,3.8797753,-7.585134,3.7805474
108,-18.451322555541992,4.583504676818848,78.22198486328125,4.782310400578071,2.984966547603947,-89.82926312247767,-16.06674,9.803077,-10.68955,32.437603,6.3308597,-15.000033,-19.232445,-26.361734,0.6257025,32.778927,-2.9658587,12.020075,5.644451,-5.8371806,16.423944,10.740896,45.5039,3.9469347,22.672806,-41.170197,-15.30159,24.12674,12.8225765,-30.37316,22.737942,43.933987,3.1741052,-7.5726047,5.85036
109,-19.367773056030273,4.754678726196289,78.13790130615234,4.840200366385968,2.9963459893456084,-87.97850100654586,-18.26096,10.88858,-10.379991,33.383247,6.985665,-15.000033,-18.006077,-26.246943,-0.34734315,33.151974,-3.3528466,13.5676985,6.313136,-5.585141,16.973314,5.8966093,44.577568,5.5144353,21.290113,-40.388752,-15.662861,24.739601,14.991045,-31.065136,27.78651,43.65517,2.1310198,-7.605404,7.4665804
110,-20.316774368286133,4.895679473876953,77.98857116699219,4.689028155165682,3.051913191886231,-86.22404144264067,-20.443096,12.865023,-9.078611,33.913857,7.0563135,-15.000033,-16.54107,-26.158249,-2.4660854,33.033424,-3.8315625,15.000033,6.9815803,-5.2181025,17.443783,1.0639951,43.39792,6.923736,19.798374,-38.653816,-15.832277,25.044847,17.01254,-31.6624,33.21777,42.975445,0.81684893,-7.7607937,8.712253
111,-21.30033302307129,5.020763874053955,77.78520965576172,4.212666983758979,3.1758793171107755,-84.67179701287573,-22.524527,15.519357,-7.3015094,33.889606,6.6476607,-15.000033,-15.079631,-25.660233,-5.1602297,32.617523,-4.4488406,15.000033,7.6338325,-4.6039624,17.820803,-3.4534836,42.044018,8.315962,18.161837,-36.344242,-15.928737,25.292225,18.749573,-32.181488,38.545742,42.16684,-0.49862406,-7.8970523,9.775316
112,-22.259634017944336,5.13213586807251,77.54507446289062,3.8998823264330396,3.2539543336315986,-83.17088710699144,-24.153692,17.852577,-5.3020315,32.92154,6.066683,-15.000033,-13.861089,-25.181738,-7.172655,32.36974,-5.5335026,15.000033,8.073987,-4.158181,18.288897,-7.3942327,40.635864,9.724324,16.338535,-33.8727,-16.04968,25.727512,20.19844,-32.625225,43.19335,41.3782,-1.540537,-7.8654876,10.861516
113,-23.199039459228516,5.232848167419434,77.2774429321289,3.8169078795841216,3.2510141566326523,-81.66776045965202,-25.156425,19.86543,-2.709006,30.700289,5.198486,-15.000033,-12.8584,-24.749174,-8.282149,32.241116,-7.355271,15.000033,8.277289,-3.9731982,18.911455,-10.836821,39.2055,10.994827,14.337583,-31.175867,-16.176226,26.3884,21.422218,-32.957985,47.091965,40.43803,-2.2131505,-7.6082473,12.010356
114,-24.10515785217285,5.320469856262207,76.97203826904297,3.9802970043586683,3.199264864041337,-80.1541322752606,-25.55275,21.675354,0.8662578,27.37393,4.0157647,-14.614396,-12.004128,-24.502945,-8.930209,32.13122,-9.775067,15.000033,8.300771,-4.0989842,19.631939,-13.947689,37.719322,12.056913,12.203734,-28.149874,-16.246206,27.152384,22.522486,-33.14455,50.512745,39.247063,-2.6732557,-7.1942463,13.132075
115,-24.968908309936523,5.417850494384766,76.6167984008789,4.351151328169982,3.1594118430088742,-78.66911301609633,-25.56602,22.946346,4.762816,23.45044,2.8764007,-13.416374,-11.420954,-24.514717,-9.376803,32.258396,-12.451105,15.000033,8.165275,-4.464762,20.379604,-16.841757,36.19558,12.9806595,10.15833,-25.10952,-16.280819,28.021822,23.524052,-33.186165,53.376602,38.035957,-3.0128262,-6.669544,14.247711
116,-25.809551239013672,5.511455059051514,76.22835540771484,4.698898405652632,3.158435037716444,-77.34426995095137,-25.542246,23.682484,7.788303,19.5499,2.1007593,-12.532544,-11.151063,-24.578913,-9.894205,32.775723,-15.0270815,15.000033,7.99532,-4.814118,21.098795,-19.477272,34.671997,13.854449,8.270273,-22.415554,-16.310425,29.001781,24.48226,-33.110886,55.550976,36.989326,-3.313382,-6.083343,15.389242
117,-26.63246726989746,5.6124186515808105,75.80504608154297,4.994131135994112,3.206301444930042,-76.14466191167821,-25.542213,23.82785,9.796514,15.417833,1.8825405,-11.885273,-11.15452,-24.706081,-10.648715,33.725716,-17.616817,15.000033,7.7657495,-5.116172,21.78766,-21.887487,33.15219,14.620444,6.5621643,-20.137068,-16.329111,30.120993,25.479126,-32.925465,56.841705,35.9793,-3.5638528,-5.3660784,16.691198
118,-27.442630767822266,5.729519367218018,75.37206268310547,5.233083644666413,3.247857229893458,-75.08625241068839,-25.355083,23.627518,11.187979,10.74751,2.092146,-11.3666525,-11.357413,-24.839453,-11.481114,35.007774,-20.348818,15.000033,7.4984965,-5.38028,22.512026,-24.147177,31.61003,15.208221,5.0412183,-18.105131,-16.324642,31.374588,26.47382,-32.62345,57.364502,34.89784,-3.7296638,-4.51562,18.104893
119,-28.21150779724121,5.879422664642334,74.96875762939453,5.385781583573413,3.2522527097920735,-74.30626412096012,-25.18438,23.454723,11.865806,6.5101643,2.352447,-10.992101,-11.817185,-24.887585,-12.132803,36.595974,-22.8909,15.000033,7.3027754,-5.5680027,23.312862,-26.208803,30.038061,15.726629,3.6906643,-16.317112,-16.327227,32.71397,27.310383,-32.22344,57.462036,33.95767,-3.836367,-3.6832778,19.388996
120,-28.940582275390625,6.071255683898926,74.58998107910156,5.507106095775402,3.2440858128611634,-73.87791308087694,-26.613953,23.730219,11.233774,6.316677,0.8809663,-10.797054,-12.654703,-24.865341,-12.358151,38.469006,-24.902472,15.000033,7.2016554,-5.7384233,24.19165,-28.02684,28.456366,16.314222,2.5011685,-14.777056,-16.370258,34.077698,27.813194,-31.760176,57.496986,33.373726,-3.8929439,-3.017273,20.299747
121,-29.605573654174805,6.28369665145874,74.24283599853516,5.6523045326128365,3.2756948433233952,-73.85597360456082,-27.794882,23.954113,9.708166,6.311181,-0.251815,-10.976615,-14.139537,-24.848528,-11.99215,40.884396,-26.20932,15.000033,7.1815586,-5.9750175,25.159023,-29.523249,26.870087,17.066679,1.3691106,-13.540831,-16.506407,35.443935,27.870302,-31.25992,57.561012,33.20434,-3.7970705,-2.555047,20.756578
122,-30.228046417236328,6.512058734893799,73.93644714355469,5.802208251846337,3.333041220340226,-74.16350763674465,-28.72195,24.011824,7.399603,6.295388,-1.0088316,-11.446725,-16.114374,-24.80665,-11.205209,43.726032,-27.00928,15.000033,7.1788545,-6.2620597,26.208624,-30.723408,25.268925,17.907995,0.3080644,-12.583646,-16.71483,36.846245,27.575932,-30.732561,57.493332,33.304375,-3.5566652,-2.2130275,20.8939
123,-30.8251953125,6.743290901184082,73.67285919189453,5.993240084662074,3.4207078324087283,-74.6119502975281,-29.292654,23.9188,5.0711584,6.284884,-1.3950696,-11.863158,-18.196508,-24.733322,-10.245601,46.500107,-27.544666,15.000033,7.091356,-6.6134872,27.250874,-31.71759,23.691988,18.714703,-0.5264214,-11.842213,-16.924063,38.29478,27.065727,-30.18336,57.258198,33.58585,-3.3426194,-1.9577368,20.792807
124,-31.423866271972656,6.990627288818359,73.45052337646484,6.24178328162055,3.5476714483008718,-75.0196834049122,-29.412968,23.77157,3.4673333,6.2813845,-1.4056371,-11.886919,-20.027664,-24.640236,-9.372489,48.747997,-28.064985,15.000033,6.8096075,-7.069391,28.179955,-32.583138,22.166458,19.362501,-0.9872393,-11.197598,-17.058088,39.81169,26.449274,-29.611406,56.86544,33.964645,-3.320771,-1.757053,20.542137
125,-32.008262634277344,7.261946201324463,73.26873779296875,6.596250415886999,3.7091692049792506,-75.33539986305995,-29.033129,23.579798,2.6098952,6.292951,-0.9340246,-11.330628,-21.526287,-24.586765,-8.628503,50.333397,-28.62025,15.000033,6.293679,-7.6955695,28.985954,-33.32577,20.725447,19.803709,-1.0479146,-10.564346,-17.121658,41.59484,25.703562,-29.01775,56.38062,34.484528,-3.501458,-1.641818,20.10883
126,-32.55731201171875,7.523630619049072,73.10984802246094,7.0477866246559575,3.9441168104126603,-75.6435946711364,-28.370481,23.35529,2.1073089,6.5090575,-0.12073058,-10.385858,-22.95935,-24.588755,-7.8635244,51.553658,-29.092321,15.000033,5.5799627,-8.51079,29.671938,-33.92671,19.363838,20.092808,-0.75174516,-9.998895,-17.151365,43.578762,24.758286,-28.397854,55.807774,35.16496,-3.8022957,-1.6135142,19.470438
127,-33.056488037109375,7.764878273010254,72.96702575683594,7.363721333701596,4.309598413050965,-76.06948429979104,-28.896448,23.440233,1.5809622,9.523984,-0.56959754,-9.305667,-24.420385,-24.33264,-7.123863,52.49674,-29.416933,14.758259,4.74065,-9.219834,29.793802,-34.25186,18.125116,20.225199,0.20514677,-9.761398,-17.15006,45.368126,23.865324,-27.743856,55.09696,36.04201,-4.2291503,-1.5839939,18.781847
128,-33.500999450683594,7.97581672668457,72.83922576904297,7.432212681514526,4.675597780163393,-76.70139058678146,-30.419403,23.975927,1.2484661,15.139306,-2.431416,-8.326223,-25.801432,-23.721405,-6.4329777,53.308636,-29.595911,14.346191,3.900642,-9.694299,29.793802,-34.506977,16.979965,20.269798,1.6935115,-9.994414,-17.093948,46.585472,22.952059,-27.054613,54.029057,36.89353,-4.8547835,-1.4876698,18.085943
129,-33.88336181640625,8.177162170410156,72.73101043701172,7.223467793544662,5.021055882070524,-77.56265644095295,-31.54622,25.187727,1.9906018,20.834923,-4.4418426,-7.5125365,-27.066874,-22.734648,-5.822424,53.97144,-29.58554,13.827245,3.1166928,-9.875545,29.793802,-34.70047,15.917665,20.27042,3.6925268,-10.750707,-16.915571,47.25135,22.033587,-26.331318,52.42834,37.700325,-5.7814035,-1.2762648,17.372492
130,-34.220314025878906,8.39194107055664,72.6353530883789,6.817147713149186,5.339732407795284,-78.61492109421447,-32.367134,27.034178,3.5108626,26.878443,-6.6449084,-6.6719575,-28.196451,-21.473457,-5.280314,54.43147,-29.409195,13.26321,2.350878,-9.863009,29.793802,-34.81896,14.920934,20.177279,6.1578054,-11.909229,-16.647036,47.536335,21.067923,-25.581358,50.394867,38.518135,-6.9629407,-0.9919908,16.598465
131,-34.520225524902344,8.620232582092285,72.541748046875,6.28234061256704,5.649641092352199,-79.80155883772973,-32.914925,29.143955,5.0958266,33.024956,-8.878852,-5.7094297,-29.242592,-20.046003,-4.7841144,54.766876,-29.138447,12.70408,1.5691773,-9.70341,29.793802,-34.881096,14.019384,19.877644,8.96604,-13.550537,-16.411745,47.256824,20.017529,-24.818834,48.05925,39.27979,-8.244075,-0.6986451,15.769298
132,-34.79660415649414,8.841958045959473,72.43814849853516,5.683294557826831,5.965967161625018,-81.06997305747981,-33.288586,31.044857,6.0464,39.078243,-10.977163,-4.581408,-30.255516,-18.552174,-4.305396,55.059254,-28.848064,12.199418,0.7309918,-9.46159,29.793802,-34.93322,13.256127,19.272406,12.033263,-15.73516,-16.313463,46.230457,18.836172,-24.062304,45.57232,39.903942,-9.467357,-0.46465427,14.89136
133,-35.01755905151367,9.05219554901123,72.31651306152344,5.041352009467666,6.309885240723709,-82.4528522749637,-33.632076,32.63325,6.1858273,45.27108,-12.985391,-3.1891732,-31.287518,-16.99206,-3.7807713,55.305145,-28.538422,11.776446,-0.16371289,-9.184609,29.793802,-34.975452,12.670559,18.482344,15.440038,-18.79699,-16.388855,44.406494,17.501486,-23.33319,42.84976,40.382015,-10.71265,-0.27941087,13.974935
134,-35.1722412109375,9.244972229003906,72.1777572631836,4.330978523057176,6.6676009774855,-83.94990860768341,-33.915417,34.054554,5.8665333,51.69643,-14.995237,-1.6137277,-32.30609,-15.344863,-3.2460785,55.46707,-28.174345,11.409006,-1.1099424,-8.851997,29.793802,-34.99413,12.288561,17.503193,19.21393,-22.637203,-16.451654,41.878826,16.062757,-22.65121,39.85134,40.715202,-12.023857,-0.11032236,13.0101185
135,-35.273841857910156,9.423962593078613,72.02751922607422,3.5468651602673402,7.002407798433723,-85.4616299725598,-34.015915,35.139046,5.2318954,57.970333,-16.88302,-0.13330476,-33.24005,-13.675851,-2.8139455,55.57692,-27.779392,11.06613,-2.139869,-8.440905,29.793802,-35.0401,12.116848,16.071054,23.222317,-26.629238,-16.266644,38.695744,14.571905,-22.02813,36.801228,40.838547,-13.189076,-0.0018570609,11.972322
136,-35.3271598815918,9.586254119873047,71.87474060058594,2.6884978670443482,7.281649113276701,-86.88756842894817,-33.80164,35.717205,4.465603,63.727245,-18.524378,0.9640848,-34.03089,-12.056185,-2.58851,55.669205,-27.378185,10.716193,-3.2785847,-7.924395,29.793802,-35.182095,12.164988,13.913958,27.36703,-30.150902,-15.657772,34.918144,13.075391,-21.463688,33.912613,40.705635,-13.998416,-0.0069153868,10.83527
137,-35.3465690612793,9.735855102539062,71.7093734741211,1.76234571291178,7.484880253474078,-88.21309198947336,-33.262215,35.564358,3.454169,69.00677,-19.886564,1.575313,-34.679066,-10.515148,-2.5962603,55.769466,-26.952307,10.341414,-4.5500455,-7.324156,29.793802,-35.527023,12.427955,11.153813,32.024784,-33.27141,-14.451038,29.993006,11.573952,-20.95349,31.170643,40.306328,-14.5022545,-0.20699655,9.5364485
138,-35.35097122192383,9.868988037109375,71.54131317138672,0.776846728007179,7.636187437259649,-89.48269317917092,-32.45722,34.748295,2.241662,74.02971,-21.039164,1.7977821,-35.236385,-9.023923,-2.7678769,55.852158,-26.495504,9.964604,-5.906611,-6.631204,29.793802,-36.092743,12.973187,7.755745,37.20925,-36.287674,-12.673404,24.141556,10.098121,-20.509,28.43812,39.654507,-14.790194,-0.5621759,8.102007
139,-35.34581756591797,9.969442367553711,71.36299896240234,-0.2591508520638189,7.768349511698208,-90.68717430368206,-31.358736,33.56929,1.2458282,78.69886,-22.013252,1.6704035,-35.720543,-7.56528,-3.056,55.88137,-26.055225,9.610731,-7.3589425,-5.9368625,29.793802,-36.78162,13.713903,3.5253317,42.190414,-38.567673,-10.646992,18.499096,8.638718,-20.110893,25.907238,38.75833,-14.682653,-0.96586096,6.669369
140,-35.32862854003906,10.041171073913574,71.18718719482422,-1.3466878543692462,7.91853778464772,-91.81979200649421,-29.974789,32.364212,0.8326004,82.89631,-22.840832,1.269192,-36.143814,-6.113962,-3.4194214,55.81878,-25.67917,9.300513,-8.866959,-5.2162623,29.793802,-37.486794,14.592331,-1.9202548,46.234257,-39.82747,-8.890969,14.119782,7.2067823,-19.735636,23.674393,37.65813,-14.011598,-1.3158467,5.3581223
141,-35.29309844970703,10.075892448425293,71.00045013427734,-2.5113810728932107,8.089239005528414,-92.83672191402341,-28.311872,31.151207,1.0106164,86.61581,-23.502707,0.5592079,-36.46285,-4.6774626,-3.912654,55.6385,-25.407902,9.020685,-10.492003,-4.4381237,29.793802,-38.19594,15.58569,-9.334113,49.293503,-40.052723,-7.6804347,11.204701,5.764866,-19.376959,21.786354,36.348484,-12.573313,-1.6110486,4.153083
142,-35.25101089477539,10.082883834838867,70.78968048095703,-3.7356803384514885,8.273601947223696,-93.75876564923617,-26.41266,29.748743,1.6011187,89.923386,-24.007286,-0.460035,-36.707695,-3.2681057,-4.519859,55.379818,-25.2148,8.762051,-12.275086,-3.6624722,29.793802,-38.751907,16.561567,-18.209528,51.44672,-39.377747,-6.8481183,9.0953245,4.259402,-19.007347,20.222244,34.875175,-10.52131,-1.9324102,3.012587
143,-35.190452575683594,10.070281982421875,70.56510162353516,-4.9732551237229385,8.48691311939062,-94.67842810837824,-24.362455,28.223907,2.6420634,92.78468,-24.408201,-1.6316519,-36.972763,-1.8573318,-5.1105447,55.082745,-25.039572,8.550056,-14.069569,-2.8776245,29.793802,-39.02163,17.423548,-27.293055,52.387627,-38.05979,-6.3295,7.5555224,2.7310958,-18.605928,18.86904,33.33349,-8.227716,-2.2836084,2.0006773
144,-35.12483596801758,10.049201965332031,70.3217544555664,-6.183620461760624,8.731924487979672,-95.68695392638192,-22.239534,26.65397,4.159971,95.15834,-24.747229,-2.79807,-37.339485,-0.41483328,-5.564415,54.79499,-24.826485,8.411169,-15.658156,-2.0292113,29.793802,-39.24499,18.217127,-35.717724,52.141247,-36.709824,-6.0635448,6.3730803,1.2958246,-18.176441,17.545055,31.753586,-6.0467057,-2.6480496,1.1799494
145,-35.06180191040039,9.995556831359863,70.0778579711914,-7.391001280086407,9.01233595491257,-96.82298981264258,-20.010094,25.106075,6.2591395,97.00759,-25.013466,-3.9250944,-37.816006,1.1095982,-5.850039,54.503548,-24.560684,8.363284,-17.075617,-1.120176,29.793802,-39.285835,18.958204,-43.25304,50.361107,-34.69263,-6.1488585,5.8488393,-0.1266498,-17.715885,16.313055,30.157118,-3.8950312,-3.00974,0.6224769
146,-34.98040008544922,9.941734313964844,69.82615661621094,-8.615901239410412,9.315244787395779,-98.03632362914671,-17.706081,23.491053,8.836595,98.3508,-25.16221,-5.0745416,-38.346428,2.6928926,-6.0419645,54.19185,-24.273071,8.387685,-18.390617,-0.14089875,29.793802,-39.182247,19.689497,-50.4768,47.269463,-32.03837,-6.568774,6.0235505,-1.5620095,-17.240686,15.207815,28.510265,-1.6309824,-3.3635092,0.27638474
147,-34.912513732910156,9.882810592651367,69.57440185546875,-9.809175429399291,9.622073438003222,-99.28256435244703,-15.503419,21.67263,11.6169,99.22079,-25.174484,-6.235159,-38.920536,4.25025,-6.1787767,53.901237,-23.975588,8.456624,-19.543005,0.8774959,29.793802,-38.999996,20.417873,-57.052074,43.42108,-29.626856,-7.040348,6.2853703,-2.9008386,-16.759102,14.136758,26.771202,0.49425626,-3.699155,0.03154483
148,-34.839447021484375,9.825418472290039,69.32587432861328,-10.92060352388212,9.918804695296044,-100.5155464107667,-13.577253,19.547455,14.333628,99.65235,-25.036596,-7.4014316,-39.534306,5.6959324,-6.2986956,53.67386,-23.680685,8.54213,-20.4937,1.8999634,29.793802,-38.74439,21.119947,-62.48172,39.365597,-28.216377,-7.330554,5.9819274,-4.0463066,-16.282661,13.0415325,24.907495,2.2349036,-4.013378,-0.22784019
149,-34.761966705322266,9.770296096801758,69.07195281982422,-11.958610829773912,10.226704482128333,-101.75703136029551,-11.986081,17.104214,17.007235,99.598015,-24.76106,-8.570775,-40.223156,7.032069,-6.4147353,53.5199,-23.379007,8.640415,-21.21591,2.961115,29.793802,-38.451447,21.762623,-66.451416,35.114876,-28.295511,-7.4011874,4.733568,-4.982104,-15.802764,11.89543,22.845078,3.4773808,-4.284638,-0.5151623
150,-34.68375778198242,9.719855308532715,68.81858825683594,-12.953913294348025,10.546137534662499,-103.01854770814677,-10.673835,14.427785,19.708622,99.04637,-24.330614,-9.764099,-40.974834,8.301912,-6.5172615,53.411175,-23.066954,8.764263,-21.725296,4.083601,29.793802,-38.160786,22.348097,-69.30751,30.497707,-29.363617,-7.336382,2.9438357,-5.7595663,-15.314976,10.732301,20.611307,4.3816376,-4.513907,-0.7834651
151,-34.59518051147461,9.662095069885254,68.57036590576172,-13.885600861681823,10.84055691196516,-104.23623010444918,-9.628938,11.589063,22.257687,98.099594,-23.703009,-11.029951,-41.7217,9.481012,-6.6085353,53.33488,-22.766197,8.909238,-22.069626,5.2099867,29.793802,-37.825253,22.884218,-71.450745,25.787943,-30.620235,-7.1350737,1.1191993,-6.3773456,-14.831244,9.612487,18.307909,5.1159782,-4.731657,-1.0532929
152,-34.514625549316406,9.616206169128418,68.32794189453125,-14.72863571568633,11.077055191628974,-105.344272500444,-8.82119,8.660096,24.492834,96.86918,-22.848797,-12.414446,-42.394524,10.545371,-6.6869836,53.28068,-22.498938,9.069657,-22.29269,6.2872953,29.793802,-37.410328,23.3862,-73.283066,21.251644,-31.280577,-6.858958,-0.24157137,-6.8283844,-14.372099,8.596288,16.031683,5.85358,-4.9701085,-1.3414799
153,-34.46345520019531,9.5759916305542,68.10052490234375,-15.462566833351042,11.262732147096113,-106.36825615156368,-8.275758,5.5151873,26.433382,95.21419,-21.662115,-14.034914,-43.005543,11.494098,-6.718497,53.271595,-22.271744,9.262527,-22.360426,7.325332,29.793802,-36.94681,23.85314,-74.79347,16.84101,-31.140842,-6.5028663,-0.9427877,-7.1037645,-13.940281,7.690544,13.732301,6.6418595,-5.248246,-1.7175406
154,-34.38988494873047,9.544758796691895,67.89254760742188,-15.953685251219163,11.499016732190238,-107.22991478959642,-7.9698663,2.2123227,28.428783,93.08948,-20.159113,-15.000033,-43.6941,12.132599,-6.6627674,53.46196,-22.156054,9.5252,-22.362104,8.261427,29.793802,-36.5169,24.284227,-75.78819,12.440643,-30.61069,-6.060076,-1.2700907,-7.229083,-13.528929,6.854232,11.294718,7.3890724,-5.5439296,-2.1519506
155,-34.30485916137695,9.516669273376465,67.70780944824219,-16.287625470128933,11.767495537975176,-107.87032148489898,-7.7437325,-0.8621848,30.438286,90.843796,-18.577015,-15.000033,-44.380466,12.523904,-6.6173825,53.747334,-22.118938,9.804363,-22.36312,9.118181,29.793802,-36.032074,24.691326,-76.41313,8.221403,-29.849277,-5.6212955,-1.4840493,-7.239345,-13.133482,6.120423,8.87594,8.076934,-5.8280125,-2.5070345
156,-34.24224090576172,9.481339454650879,67.55144500732422,-16.635051500260985,11.972905133743067,-108.31439324333446,-7.4910583,-3.4867918,32.05644,88.85988,-17.188921,-15.000033,-44.883034,12.879787,-6.688431,53.913246,-22.070473,10.013149,-22.340855,9.951202,29.793802,-35.36099,25.08814,-76.83445,4.358862,-29.026793,-5.2809415,-1.8481183,-7.161349,-12.740524,5.5241013,6.6954775,8.692829,-6.0701814,-2.6446517
157,-34.21253204345703,9.455802917480469,67.43141174316406,-16.97477184348401,12.091338244268568,-108.58260086430046,-7.127743,-5.692203,33.35109,87.0891,-15.9526005,-15.000033,-45.187626,13.206639,-6.8306684,53.991306,-22.019405,10.157855,-22.286144,10.728092,29.793802,-34.470688,25.481064,-77.01495,0.80728394,-28.062906,-5.075689,-2.5102823,-7.012204,-12.331195,5.0812945,4.770905,9.295255,-6.274333,-2.4668036
158,-34.23127746582031,9.433294296264648,67.35564422607422,-17.27430865387251,12.142090005619355,-108.69433899146419,-6.68622,-7.617525,34.37853,85.403915,-14.776903,-15.000033,-45.32918,13.477974,-7.0107603,54.018875,-21.97646,10.259666,-22.177286,11.440756,29.793802,-33.408623,25.871052,-76.89431,-2.5139,-26.92561,-4.9583287,-3.3140469,-6.7963214,-11.897251,4.7858877,3.0486434,9.868523,-6.4482136,-2.0704746
159,-34.3171272277832,9.421027183532715,67.3229751586914,-17.533881974130473,12.159101062643023,-108.59391784645247,-6.2020144,-9.174842,35.051533,84.04948,-13.811788,-15.000033,-45.305435,13.658019,-7.2816906,53.948257,-21.9333,10.297329,-22.056318,12.076918,29.793802,-32.193375,26.262278,-76.58173,-5.4733295,-25.81187,-4.8939953,-4.043916,-6.5305176,-11.45264,4.6234617,1.5745733,10.281591,-6.5681,-1.6104593
160,-34.45914840698242,9.414708137512207,67.33860778808594,-17.753311988697188,12.17604580187767,-108.22587817074782,-5.7170844,-10.265982,35.289474,83.277306,-13.2096815,-15.000033,-45.115376,13.710364,-7.696285,53.73438,-21.882618,10.250481,-21.953714,12.635571,29.793802,-30.876032,26.667389,-76.197624,-7.945778,-24.94598,-4.835669,-4.483277,-6.21596,-11.022715,4.566808,0.38246822,10.406374,-6.6144185,-1.2411135
161,-34.647300720214844,9.400284767150879,67.42310333251953,-17.94414082182152,12.193012238075568,-107.56139260721278,-5.2439547,-10.830497,35.01008,83.24031,-13.051458,-15.000033,-44.738045,13.640945,-8.282777,53.36183,-21.831707,10.111725,-21.879715,13.129272,29.793802,-29.498291,27.108807,-75.75647,-9.920873,-24.539274,-4.7782755,-4.6527987,-5.8395762,-10.611516,4.62878,-0.5066293,10.216694,-6.573864,-0.9692995
162,-34.86440658569336,9.407604217529297,67.5540771484375,-18.091753938780624,12.195875714599715,-106.63588731694443,-4.7536793,-10.932826,34.296257,83.78427,-13.245119,-15.000033,-44.175636,13.464283,-8.99788,52.859795,-21.785198,9.898595,-21.836712,13.540008,29.793802,-27.920956,27.57662,-75.173546,-11.491316,-24.343578,-4.7382655,-4.634924,-5.4332294,-10.215406,4.841229,-1.0872948,9.7826395,-6.463891,-0.72662294
163,-35.09847640991211,9.427754402160645,67.73410034179688,-18.166483294985515,12.192605896058014,-105.48829559680448,-4.2296004,-10.649984,33.30897,84.69864,-13.688264,-15.000033,-43.458725,13.163395,-9.797663,52.24941,-21.734194,9.62827,-21.779495,13.873635,29.793802,-26.277338,28.077604,-74.470474,-12.685597,-24.217373,-4.6921377,-4.3188286,-4.995011,-9.85924,5.1340556,-1.4125942,9.118363,-6.3114567,-0.5555136
164,-35.35921859741211,9.455672264099121,67.95237731933594,-18.138408062996184,12.189940042539254,-104.15782861760542,-3.657599,-10.062776,32.210136,85.770485,-14.276046,-15.000033,-42.6207,12.719698,-10.639282,51.55221,-21.668924,9.31704,-21.667833,14.137382,29.793802,-24.647703,28.619217,-73.66434,-13.543147,-23.969286,-4.6177216,-3.5899856,-4.521584,-9.583373,5.438791,-1.5398109,8.247229,-6.140585,-0.49705577
165,-35.64754867553711,9.47816276550293,68.22835540771484,-18.009583353296446,12.191243653663777,-102.61121372153553,-3.0345147,-9.1168995,30.951078,87.09691,-15.055055,-15.000033,-41.669567,12.120334,-11.5568905,50.772205,-21.602621,8.955086,-21.514814,14.343473,29.793802,-22.972124,29.205856,-72.766884,-13.992568,-23.660204,-4.543532,-2.310661,-3.9940789,-9.416695,5.7283425,-1.4952012,7.1356473,-5.9112773,-0.53841347
166,-35.94085693359375,9.502312660217285,68.5517578125,-17.80080784133228,12.188419115604983,-100.84030479443433,-2.3863626,-7.780857,29.465885,88.727356,-16.058037,-15.000033,-40.583843,11.394598,-12.576963,49.887253,-21.53435,8.543677,-21.336681,14.510661,29.793802,-21.217999,29.838072,-71.75198,-14.07485,-23.358372,-4.4700747,-0.5754681,-3.409753,-9.36201,6.034624,-1.2542917,5.800929,-5.622234,-0.66595364
167,-36.23235321044922,9.530921936035156,68.9156265258789,-17.50535106109144,12.167392644724641,-98.92141495270504,-1.7343422,-6.1675096,27.89831,90.38595,-17.15945,-15.000033,-39.357483,10.579268,-13.643609,48.885227,-21.433445,8.114296,-21.101753,14.646372,29.793802,-19.485104,30.515562,-70.58056,-13.995952,-22.868061,-4.3205724,1.379416,-2.7903652,-9.4184475,6.3784113,-0.79914534,4.342382,-5.35211,-0.92250246
168,-36.51797103881836,9.548430442810059,69.32377624511719,-17.11343773435387,12.111921798605016,-96.93101078285282,-1.0931752,-4.3930554,26.40102,91.80568,-18.231827,-15.000033,-37.988583,9.705581,-14.696647,47.758167,-21.269,7.6976185,-20.778214,14.750674,29.793802,-17.870691,31.237028,-69.22168,-13.958597,-21.996782,-4.0050893,3.315623,-2.157316,-9.585014,6.779158,-0.11357637,2.8562472,-5.176835,-1.3544127
169,-36.8303108215332,9.543083190917969,69.78480529785156,-16.609801026385327,12.02010555645547,-94.87298049394452,-0.44679502,-2.3969383,24.992943,93.01135,-19.274397,-15.000033,-36.485344,8.769426,-15.732684,46.495285,-21.056892,7.278104,-20.321058,14.813547,29.686068,-16.358025,31.99866,-67.72798,-13.884642,-20.265913,-3.3446221,5.361019,-1.4600044,-9.86013,7.189881,0.8463985,1.1973008,-5.0959625,-1.9741
170,-37.1180419921875,9.533711433410645,70.288330078125,-15.889495906307674,12.047454562226992,-92.69995487832196,0.067333095,-0.10003866,23.851503,94.111855,-20.301374,-14.258458,-35.084644,7.5971885,-16.748795,45.243523,-20.850447,6.880813,-19.717457,14.7658825,28.89579,-14.655544,32.76375,-66.22714,-13.624522,-18.036308,-2.381731,7.5142193,-0.6457742,-10.211958,7.6527987,2.4097526,-0.57986605,-5.064267,-2.763388
171,-37.374122619628906,9.505596160888672,70.8258285522461,-14.937089300402516,12.118310788798826,-90.38172974013838,0.45933002,2.2921128,22.969957,94.95514,-21.261826,-12.857838,-33.735455,6.1463723,-17.743885,44.084652,-20.647804,6.565358,-19.109959,14.565001,27.979597,-13.002764,33.519917,-64.55316,-13.407867,-16.161665,-1.4137279,9.462546,0.17171384,-10.646485,8.207999,4.215608,-2.206716,-5.084454,-3.716041
172,-37.617156982421875,9.471110343933105,71.39178466796875,-13.93926940910061,12.152551944522612,-88.0248246489488,0.66496915,4.578099,22.112051,95.44651,-22.156895,-11.648242,-32.313522,4.6668124,-18.760624,42.84401,-20.302986,6.3347507,-18.492935,14.322271,27.089802,-11.358581,34.241207,-62.63939,-13.413366,-15.555091,-0.82629657,10.895006,0.9220167,-11.152881,8.96928,6.283154,-3.3551638,-5.177105,-4.8379874
173,-37.82875061035156,9.425285339355469,71.99103546142578,-12.892151752386571,12.138686413521322,-85.64420004854118,0.6984604,6.7791066,21.29441,95.58767,-23.008715,-10.630229,-30.8045,3.170892,-19.77224,41.485558,-19.818869,6.180965,-17.843504,14.026077,26.219883,-9.733326,34.908844,-60.466022,-13.587999,-16.621971,-0.7922951,11.647819,1.586732,-11.742215,9.996295,8.69961,-3.895979,-5.397158,-6.3133426
174,-38.02474594116211,9.376336097717285,72.615966796875,-11.78078622951307,12.069436078455846,-83.21857023355521,0.59806097,8.958685,20.525326,95.436455,-23.824347,-9.727663,-29.215805,1.6356388,-20.796743,40.027508,-19.21918,6.091323,-17.153805,13.6672535,25.3507,-8.130942,35.510426,-58.068634,-13.846611,-18.799088,-1.1299338,11.919574,2.2276866,-12.425179,11.220346,11.408268,-4.023594,-5.7325826,-8.080719
175,-38.19578170776367,9.327669143676758,73.27110290527344,-10.628196221283178,11.958570668513804,-80.7293911720379,0.33301708,11.001292,19.767088,94.961395,-24.52589,-8.975953,-27.58841,0.050143704,-21.894806,38.551563,-18.472416,6.090826,-16.485367,13.263669,24.513132,-6.518933,36.019035,-55.47989,-14.302685,-21.536346,-1.7154316,11.96123,2.8909118,-13.175607,12.557114,14.21793,-3.8987367,-6.1143017,-9.768968
176,-38.35028839111328,9.25545597076416,73.95775604248047,-9.455789243881071,11.819771765632893,-78.15670711993472,-0.122305974,12.791147,18.983196,94.13146,-25.038132,-8.404255,-25.95679,-1.5965823,-23.122158,37.144424,-17.548098,6.1981597,-15.892497,12.8285265,23.73458,-4.8818445,36.395565,-52.743286,-15.047955,-24.287064,-2.4364939,12.035918,3.6105275,-13.944046,13.9213,16.95171,-3.6831858,-6.463793,-11.0053215
177,-38.47124481201172,9.19992446899414,74.6612777709961,-8.256286392363522,11.648173959674606,-75.46081181069876,-0.80360496,14.307428,18.110865,92.93673,-25.339363,-8.030597,-24.288069,-3.332981,-24.53932,35.794098,-16.405218,6.4239116,-15.38785,12.354384,23.017303,-3.2775226,36.598896,-49.893955,-16.058764,-27.26791,-3.406994,12.133574,4.3956113,-14.707065,15.277075,19.625957,-3.3726003,-6.7873964,-11.607434
178,-38.57130432128906,9.128965377807617,75.3739242553711,-7.026543416019278,11.426864665044766,-72.66400384166839,-1.6629137,15.60796,17.182358,91.397385,-25.47677,-7.8213987,-22.572695,-5.139848,-26.098211,34.48696,-15.07172,6.746312,-14.923179,11.835025,22.334036,-1.7608579,36.597027,-46.960697,-17.214535,-30.659105,-4.634153,12.103191,5.2376294,-15.465714,16.657818,22.327211,-2.9081442,-7.1238832,-11.797003
179,-38.639320373535156,9.044754981994629,76.09197235107422,-5.790019111421079,11.155758105757045,-69.83711125231157,-2.595223,16.69954,16.309841,89.52915,-25.480036,-7.728976,-20.874105,-6.9656343,-27.683603,33.302906,-13.62142,7.131364,-14.459955,11.278886,21.668009,-0.32750332,36.363773,-43.97995,-18.449581,-33.852024,-5.8693285,12.046805,6.13314,-16.204313,18.085644,24.99406,-2.3710916,-7.432269,-11.807672
180,-38.68685531616211,8.94192123413086,76.80673217773438,-4.567891463029052,10.840030366594439,-67.04970191083564,-3.4936724,17.591696,15.612288,87.342804,-25.379751,-7.7111826,-19.257744,-8.769629,-29.17212,32.31724,-12.129885,7.5451517,-13.958972,10.687779,21.002947,1.023403,35.88037,-40.987144,-19.698446,-36.225704,-6.875409,12.11737,7.07894,-16.89688,19.583101,27.571115,-1.8510702,-7.6752357,-11.874486
181,-38.70786666870117,8.835576057434082,77.50728607177734,-3.3278319180158076,10.467341450769792,-64.28182605588557,-4.345284,18.213114,15.062717,84.78468,-25.174429,-7.8026695,-17.670341,-10.615265,-30.628927,31.501698,-10.546153,8.072488,-13.423993,10.023818,20.334879,2.2734053,35.124306,-37.9705,-20.963293,-37.436985,-7.566467,12.429026,8.075484,-17.527351,21.196896,30.11477,-1.393497,-7.874906,-12.139228
182,-38.70076370239258,8.736039161682129,78.18437957763672,-2.072963164904162,10.033479531993281,-61.5079682749977,-5.1710997,18.5981,14.620911,81.86799,-24.86501,-8.001098,-16.091171,-12.510526,-32.06957,30.840286,-8.855422,8.695246,-12.87282,9.292426,19.659025,3.3442898,34.082687,-34.95477,-22.189413,-37.862164,-8.076617,12.917802,9.12274,-18.09686,22.911482,32.664948,-0.9542465,-8.040876,-12.455012
183,-38.672508239746094,8.629337310791016,78.83285522460938,-0.8705194633995851,9.568012136179322,-58.78647479502428,-5.9284616,18.911957,14.394498,78.702866,-24.48326,-8.216219,-14.639726,-14.351521,-33.29227,30.412577,-7.1922565,9.227654,-12.283436,8.558189,18.957388,4.154515,32.77079,-32.019974,-23.239851,-37.95203,-8.506006,13.48236,10.2199745,-18.606745,24.649784,35.133263,-0.48992544,-8.114864,-12.622856
184,-38.629051208496094,8.526310920715332,79.44165802001953,0.2265100939251187,9.110339177351417,-56.17405705247779,-6.585064,19.30238,14.501862,75.39656,-24.055151,-8.366785,-13.452013,-16.062267,-34.094196,30.313437,-5.710604,9.4859915,-11.628854,7.8779073,18.212074,4.648174,31.230875,-29.226795,-24.011408,-38.158443,-8.958881,14.009154,11.361936,-19.058256,26.328285,37.429688,0.042513333,-8.036489,-12.443419
185,-38.55928421020508,8.419620513916016,80.01026916503906,1.2204234788285158,8.688400695020817,-53.69529008128718,-7.107245,19.82985,15.0843935,71.91458,-23.580887,-8.436808,-12.565105,-17.688469,-34.50005,30.575777,-4.358642,9.331552,-10.877214,7.2593584,17.413956,4.8665414,29.501444,-26.532938,-24.556526,-38.567974,-9.453867,14.463739,12.55184,-19.446129,27.921474,39.566975,0.797916,-7.7817383,-11.918557
186,-38.486576080322266,8.319056510925293,80.53388214111328,2.1516948625972647,8.287575581401475,-51.3095463230623,-7.513312,20.391565,16.06321,68.21396,-23.048515,-8.481723,-11.907469,-19.275333,-34.58574,31.119314,-3.0799346,8.894297,-10.052979,6.6651945,16.57515,4.8391004,27.617058,-23.878105,-24.945591,-38.942066,-9.933845,14.902999,13.78489,-19.769966,29.477814,41.594574,1.6981,-7.3768516,-11.143673
187,-38.39653778076172,8.21882152557373,81.00878143310547,3.0013890580256772,7.892350332586377,-48.97591551959705,-7.869152,20.91141,17.212025,64.390816,-22.44922,-8.5318985,-11.4263735,-20.686983,-34.23275,31.768503,-1.9653232,8.399272,-9.213067,6.1127563,15.720741,4.5375295,25.63661,-21.270544,-25.150385,-39.2445,-10.397094,15.3414545,15.040703,-20.04133,31.020681,43.4672,2.4369078,-6.837908,-10.057786
188,-38.306236267089844,8.1217041015625,81.42539978027344,3.7399215306956517,7.489614857471644,-46.65669796750193,-8.249977,21.332724,18.289421,60.539036,-21.772673,-8.60886,-11.066804,-21.76375,-33.319427,32.34438,-1.1042682,8.078101,-8.407226,5.6316066,14.882961,3.9584522,23.634768,-18.717224,-25.178932,-39.44288,-10.845104,15.797712,16.30891,-20.27626,32.563232,45.117367,2.7087102,-6.191776,-8.590611
189,-38.213314056396484,8.02879524230957,81.7845458984375,4.35877427039837,7.1041039185623145,-44.36030742345824,-8.650864,21.673128,19.34992,56.624268,-20.971548,-8.696679,-10.885087,-22.45705,-31.695286,32.9127,-0.553985,7.926803,-7.613351,5.2261877,14.067274,3.1935742,21.662786,-16.14912,-25.169617,-39.580593,-11.25687,16.20374,17.615776,-20.477766,34.097122,46.485527,2.2866292,-5.411406,-6.602363
190,-38.11333465576172,7.936931610107422,82.07589721679688,4.871386707995454,6.747932756289941,-42.09721303224775,-9.0459585,21.969776,20.4733,52.61078,-20.066614,-8.789544,-10.871281,-22.806839,-29.470978,33.506466,-0.24643075,7.8545423,-6.816474,4.8842373,13.279333,2.317751,19.75749,-13.531877,-25.208504,-39.66904,-11.643919,16.579918,18.957811,-20.6458,35.61936,47.596916,1.3629534,-4.534289,-4.1570415
191,-38.000064849853516,7.847671985626221,82.29955291748047,5.271853300802583,6.389908261117893,-39.83502560287434,-9.488541,22.208624,21.442139,48.58742,-19.140654,-8.914981,-10.864951,-22.794815,-26.92121,33.92245,-0.106943004,7.951113,-6.0715575,4.6182446,12.557859,1.3256266,17.977318,-10.933795,-25.249159,-39.63221,-12.06024,17.08216,20.281483,-20.794031,37.14203,48.49642,0.2705262,-3.678341,-1.4882108
192,-37.889732360839844,7.767140865325928,82.456298828125,5.553376876335049,5.997781137628873,-37.542117314772696,-10.026746,22.367743,22.041779,44.62913,-18.272762,-9.098124,-10.709624,-22.436644,-24.317303,33.973186,-0.07767226,8.291302,-5.428655,4.4372873,11.946983,0.22716106,16.3883,-8.435074,-25.267527,-39.39771,-12.563243,17.873829,21.535427,-20.941801,38.672527,49.21556,-0.64306855,-2.9231849,1.1631625
193,-37.7815055847168,7.688957214355469,82.55097961425781,5.699479619852191,5.575496198425951,-35.18621801387143,-10.685715,22.41764,22.193914,40.68549,-17.449171,-9.367396,-10.421109,-21.564312,-21.332224,33.613472,-0.16722675,9.073599,-4.9071364,4.342989,11.466201,-0.9354808,15.023554,-6.0231934,-25.344885,-38.951954,-13.200277,19.025795,22.735376,-21.090326,40.23681,49.685287,-1.3017596,-2.256804,3.819548
194,-37.670772552490234,7.61245059967041,82.58409118652344,5.717654452930972,5.14498196301089,-32.78704435552488,-11.418216,22.37124,22.019537,36.695755,-16.618706,-9.6935,-10.005945,-20.25803,-17.990042,32.97767,-0.4667468,10.154946,-4.4801636,4.3145165,11.104715,-2.1151626,13.882007,-3.6736572,-25.530838,-38.34855,-13.932774,20.46584,23.89691,-21.233301,41.834564,49.88691,-1.8793843,-1.6378423,6.5834403
195,-37.55537414550781,7.534313201904297,82.56320190429688,5.63676203626536,4.700996745603383,-30.39395127268794,-12.166138,22.268894,21.605642,32.72564,-15.804454,-10.013461,-9.372182,-18.950577,-15.039584,32.14571,-0.9866817,11.09512,-4.12152,4.3296337,10.857369,-3.3082185,12.966679,-1.4607785,-25.740767,-37.614582,-14.688647,22.145802,24.975515,-21.378456,43.42913,49.920074,-2.3908007,-1.0680455,9.33001
196,-37.45970916748047,7.460946559906006,82.48859405517578,5.4799215615459556,4.239733117709355,-28.059641412556594,-12.884403,22.166246,21.037025,28.863476,-15.037824,-10.265692,-8.5073595,-18.05259,-13.178775,31.167917,-1.6516343,11.491563,-3.797517,4.3742676,10.715629,-4.523426,12.282252,0.5357713,-25.873817,-36.78058,-15.399084,24.018095,25.940208,-21.539059,44.977005,49.868374,-2.8466063,-0.54761314,11.936868
197,-37.352787017822266,7.39686918258667,82.36270904541016,5.219251669995061,3.769670478807597,-25.790705107374,-13.607421,22.067488,20.14925,25.10467,-14.349369,-10.417687,-7.450292,-17.658745,-12.666836,30.01901,-2.5732455,11.094808,-3.5010662,4.479996,10.685518,-5.777721,11.835398,2.275994,-25.92887,-35.87896,-16.093798,26.273596,26.77277,-21.718649,46.48902,49.744793,-3.186137,-0.05922909,14.486807
198,-37.23890686035156,7.337162494659424,82.18135833740234,4.833716962784659,3.2963153831446874,-23.564873602492263,-14.324634,21.97945,18.959148,21.38819,-13.703257,-10.500793,-6.234344,-17.484571,-13.065345,28.640182,-3.7220721,10.252572,-3.2351189,4.66064,10.761971,-7.0941916,11.615983,3.7873008,-25.8982,-34.880184,-16.77916,28.886679,27.506477,-21.911922,47.984104,49.492523,-3.4179685,0.40758118,17.0124
199,-37.12041473388672,7.270740032196045,81.94156646728516,4.356019338692637,2.805858761116645,-21.392171837159054,-14.944263,21.964045,17.822346,17.742886,-13.034452,-10.560054,-4.863077,-17.356401,-14.021571,27.029755,-4.7679667,9.462925,-2.9775662,4.881111,10.919175,-8.502956,11.597217,5.0892925,-25.665897,-33.730343,-17.354391,31.473854,28.1845,-22.123766,49.420467,49.098633,-3.6523857,0.83525807,19.313187
200,-36.991519927978516,7.206672668457031,81.6445541381836,3.8240714231293103,2.2799220620105065,-19.28205354572478,-15.382832,22.066994,17.099903,14.196269,-12.278762,-10.652641,-3.342944,-17.152214,-15.19605,25.203787,-5.338937,9.139503,-2.7078183,5.107651,11.133867,-10.036997,11.743434,6.20272,-25.11829,-32.388966,-17.726477,33.640152,28.854635,-22.366522,50.75015,48.540386,-3.99592,1.1995826,21.188244
201,-36.856727600097656,7.141849517822266,81.28746032714844,3.1927915709788395,1.693497907671664,-17.222720323926065,-15.538246,22.302801,16.873251,10.528353,-11.379559,-10.912676,-1.6161228,-16.865974,-16.809412,22.922722,-4.992435,9.293937,-2.411557,5.3930264,11.412234,-11.728164,12.016075,7.1300054,-24.253504,-30.85336,-17.810984,35.317596,29.522774,-22.646095,52.06897,47.814213,-4.4141903,1.4823835,22.483559
202,-36.72214889526367,7.091275691986084,80.86211395263672,2.4328551258388202,1.0485563443520407,-15.21532649497236,-15.735058,22.74398,16.855747,7.32315,-10.660463,-11.287911,0.3413199,-16.453989,-18.945223,20.20117,-3.9902048,9.728561,-2.0995758,5.778412,11.772689,-13.582781,12.403024,7.849893,-23.088531,-29.153288,-17.676197,36.681953,30.170382,-22.965881,53.361362,46.92592,-4.8610625,1.7064221,23.339993
203,-36.57869338989258,7.039534091949463,80.39144134521484,1.6720756010237328,0.3815593011799879,-13.274622604055754,-17.166748,23.587109,16.618582,7.0586824,-11.286421,-11.552785,2.4400284,-15.917047,-21.048279,17.451496,-2.9861548,10.472596,-1.7950673,6.1430182,12.193418,-15.592049,12.918931,8.34171,-21.55119,-27.297716,-17.476004,37.710644,30.81091,-23.337622,54.406147,45.849228,-5.426308,1.9012796,24.001589
204,-36.382896423339844,6.969238758087158,79.94738006591797,1.084258963310742,-0.24960557551098844,-11.418979080879955,-18.413666,24.259329,16.790041,6.8477836,-11.580303,-11.487313,4.5459175,-15.397336,-22.573969,15.142262,-2.671909,11.541683,-1.510667,6.3126287,12.631227,-17.744772,13.593664,8.577898,-19.567858,-25.287895,-17.371193,38.3991,31.469156,-23.777647,54.97679,44.53522,-6.204146,2.0919366,24.716476
205,-36.266632080078125,6.943236351013184,79.36196899414062,0.890690886749885,-0.793803381003112,-9.608546658660298,-19.558962,24.546085,17.646122,6.8455153,-11.541166,-10.956769,6.492776,-15.244321,-23.232033,13.851479,-3.651695,13.174814,-1.2160083,6.044711,13.038656,-20.208208,14.450561,8.533858,-17.055208,-23.154423,-17.552938,38.62859,32.230377,-24.29691,55.064404,42.830196,-7.369381,2.2583463,25.493752
206,-36.20703887939453,6.924969673156738,78.71841430664062,0.9001251843257342,-1.2608638114157957,-7.8693855688804435,-20.54117,24.643215,19.11182,6.849089,-11.153341,-10.1204605,8.313622,-15.258143,-23.451885,13.265754,-5.510631,15.000033,-0.88240695,5.5281463,13.418828,-22.969301,15.48465,8.193785,-14.042597,-20.891144,-17.922407,38.47596,33.08314,-24.90229,54.762386,40.75489,-8.823218,2.389541,26.231462
207,-36.12898635864258,6.869207382202148,78.16642761230469,0.6516208155567341,-1.533737749950812,-6.385283762249233,-21.543056,25.112501,20.676405,6.8721466,-10.505587,-9.204517,9.948064,-14.627454,-23.571623,12.431561,-7.3181734,15.000033,-0.46400142,5.2297635,13.668569,-25.706663,16.68394,7.5672574,-10.665637,-18.438446,-18.195715,38.21154,33.879284,-25.595089,54.016,38.53655,-10.246132,2.5239928,27.01309
208,-36.01142120361328,6.836197376251221,77.71514892578125,0.27402732251731926,-1.7802689670563732,-5.080632094602688,-22.34539,25.65616,21.955511,6.9030385,-9.798432,-8.267722,11.504655,-13.862048,-23.95317,11.350922,-8.603085,15.000033,-0.17532828,5.067714,13.938536,-28.127684,18.033281,6.6633706,-7.0279584,-15.737832,-18.063658,38.07701,34.5,-26.375128,52.762794,36.39576,-11.322977,2.7059808,27.91686
209,-35.87063980102539,6.8577423095703125,77.32762145996094,-0.30246539410270534,-2.049319935227656,-3.927429212569503,-22.920427,26.328527,22.842756,6.955807,-9.045604,-7.284521,13.242263,-12.82301,-24.862396,9.52523,-9.053575,15.000033,-0.050681435,5.123865,14.288974,-30.285515,19.53987,5.50671,-3.0446587,-12.469974,-17.403147,38.227665,34.98226,-27.25552,50.921417,34.382347,-12.03912,2.9996202,29.178082
210,-35.75971221923828,6.939890384674072,76.98095703125,-0.9765755542833223,-2.2959435559814265,-2.9217874091485148,-23.305918,27.05701,23.588982,7.0195394,-8.196999,-6.1692414,15.105383,-11.568042,-26.041739,7.1667037,-8.992838,15.000033,-0.03959055,5.280267,14.678061,-32.318592,21.195547,4.073213,1.3082907,-8.783881,-16.371767,38.451458,35.427433,-28.243925,48.538612,32.348347,-12.544977,3.3696353,30.68681
211,-35.64004898071289,7.06782865524292,76.71623229980469,-1.609217118242341,-2.4306495802153574,-2.163085856081685,-23.764595,27.833075,24.202917,7.5301123,-7.5365257,-4.9989624,15.840497,-10.822913,-26.939085,6.869497,-9.656924,15.000033,-0.092782944,5.3956957,14.99683,-34.05365,22.952663,2.3274877,5.8374543,-5.318317,-15.100931,38.41739,35.78788,-29.31947,45.745834,30.264639,-12.764086,3.7245202,31.992317
212,-35.46779251098633,7.251942157745361,76.5386962890625,-2.1062578608576272,-2.404636948344655,-1.7508216694266938,-25.067097,28.915045,24.387861,10.057744,-7.9223285,-3.8947854,16.189024,-10.338664,-27.407194,6.7291155,-9.923254,15.000033,-0.14380854,5.4028707,15.164004,-35.329235,24.767103,0.24047332,10.366951,-2.7141192,-13.759298,37.82333,35.993237,-30.43959,42.653763,28.151396,-12.610035,3.9761121,32.632565
213,-35.24636459350586,7.482958793640137,76.46826171875,-2.381030346695474,-2.180921965901501,-1.7112758679945663,-25.956318,29.740414,24.807117,12.047587,-7.94037,-2.8829412,16.145939,-10.20526,-27.407906,6.6595287,-9.723578,15.000033,-0.14507711,5.2293754,15.090694,-36.079372,26.639774,-2.2291648,14.963475,-0.8820734,-12.292622,36.719124,36.063686,-31.580402,39.14153,26.170427,-12.197564,4.1158094,32.571697
214,-34.98564529418945,7.77729606628418,76.50081634521484,-2.524075706066841,-1.826400266186794,-1.9884381006150713,-26.592573,30.453403,25.307058,13.891385,-7.7766395,-1.9319682,15.815326,-10.300824,-27.120289,6.628208,-9.109053,15.000033,-0.13385642,4.9678063,14.859863,-36.39324,28.58091,-5.038896,19.669184,0.4723331,-10.672623,35.229607,36.04087,-32.72867,35.17763,24.333952,-11.519449,4.1843657,32.012894
215,-34.7096061706543,8.131914138793945,76.60983276367188,-2.637011865082285,-1.4286804837586617,-2.5187799959701485,-27.037277,31.112326,25.71876,15.685295,-7.562504,-1.0588354,15.272565,-10.508217,-26.571941,6.6599965,-8.100567,15.000033,-0.23461296,4.7106304,14.636688,-36.182766,30.52827,-8.005291,24.135532,1.1454247,-9.103016,33.21022,35.77423,-33.839436,31.052141,22.516638,-10.293545,4.1508236,30.846455
216,-34.43876647949219,8.546751976013184,76.78175354003906,-2.816702748955792,-1.070098948010431,-3.244280590860831,-27.338133,31.761751,25.88023,17.480574,-7.41655,-0.27010706,14.59934,-10.704501,-25.789389,6.746288,-6.699201,15.000033,-0.5433842,4.5647483,14.572484,-35.33903,32.40572,-10.919361,28.01153,0.96278566,-7.7585278,30.526545,35.06197,-34.842773,27.04796,20.641262,-8.240165,3.9565735,28.953218
217,-34.194026947021484,9.025949478149414,77.0024642944336,-3.0705282742275792,-0.7065427815835381,-4.224094473711044,-27.525854,32.405033,25.706797,19.253191,-7.353808,0.43166843,13.249837,-11.100084,-24.613264,7.9617853,-5.368795,15.000033,-0.9685321,4.561148,14.596974,-33.870724,34.241814,-13.773163,31.416874,-0.6001351,-6.6463923,26.86624,33.804356,-35.703987,23.056202,18.83207,-5.299282,3.466903,26.119751
218,-33.962921142578125,9.547510147094727,77.26074981689453,-3.308405365490197,-0.2879645566008071,-5.482330689826069,-27.557789,32.958725,25.360437,20.949144,-7.296274,1.0517937,10.881412,-11.88287,-22.975758,10.925713,-4.457349,15.000033,-1.4214846,4.5922265,14.586209,-31.91374,36.095234,-16.681017,34.602455,-3.2254045,-5.503658,22.456457,32.04415,-36.422466,19.004332,17.230095,-1.6719314,2.5974438,22.494314
219,-33.73728561401367,10.118502616882324,77.53286743164062,-3.4600700426135402,0.11700828361973638,-6.912636196114,-27.37234,33.333843,25.059252,22.58903,-7.2431726,1.6094637,8.122235,-12.828567,-21.066917,14.393508,-3.4916778,15.000033,-1.978657,4.543285,14.615517,-29.508553,37.92682,-19.61733,37.37164,-5.8154545,-4.201627,17.953514,29.759827,-36.96432,15.212557,15.77978,2.5382862,1.3481907,18.478922
220,-33.53221893310547,10.73897933959961,77.80094146728516,-3.4617835577227196,0.434903140989431,-8.402837200323752,-26.918242,33.46103,25.000843,24.213924,-7.2050157,2.1283686,5.1244903,-13.937449,-18.946905,18.232723,-2.5801206,15.000033,-2.701335,4.321219,14.770457,-26.60736,39.660484,-22.545904,39.447254,-7.2608585,-2.8291728,13.971155,26.933842,-37.26447,11.97475,14.418308,7.2714148,-0.24964185,14.429481
221,-33.31761169433594,11.396783828735352,78.0586929321289,-3.2580658095597794,0.6497495464995436,-9.942728551340752,-26.162725,33.26078,25.176062,25.849087,-7.2201653,2.6267116,1.7308547,-15.197303,-16.25512,22.728758,-1.5714176,15.000033,-3.6023397,3.8577185,15.062098,-23.225306,41.26324,-25.602413,40.988613,-7.4659257,-1.559229,10.49967,23.460165,-37.27302,9.297061,13.194976,13.163187,-2.4811363,10.212201
222,-33.09822463989258,12.096192359924316,78.29035949707031,-2.883146594640121,0.8130528974260288,-11.587406286422901,-25.16931,32.792633,25.486444,27.504536,-7.2939835,3.097529,-1.9973626,-16.415777,-12.972537,27.528204,-0.2673736,15.000033,-4.560769,3.1977787,15.374005,-19.48902,42.763153,-28.901175,42.211052,-6.956796,-0.42902437,7.243367,19.416576,-36.988224,6.9688106,12.154294,19.933144,-5.5227685,5.841687
223,-32.87929916381836,12.826752662658691,78.4885482788086,-2.446900470110422,0.9307468770999908,-13.304579709179814,-24.02737,32.22679,25.94848,29.183836,-7.3739266,3.5239801,-5.6229124,-17.449553,-9.725653,31.805553,1.1293341,15.000033,-5.484472,2.4560351,15.689743,-15.637493,44.156796,-32.418575,42.996677,-5.621692,0.5416052,4.3295255,15.061147,-36.418316,4.9168525,11.14512,26.234314,-8.918607,1.7673594
224,-32.62845230102539,13.566519737243652,78.65108489990234,-2.043939239116999,0.9982922513386808,-15.053171796530696,-22.803389,31.705942,26.595846,30.88455,-7.4104867,3.8910208,-8.788762,-18.403168,-7.1998806,35.007763,2.2456083,15.000033,-6.3166933,1.7328422,16.033773,-11.945411,45.41697,-36.165913,43.243816,-3.3762953,1.3417451,1.886769,10.627311,-35.581894,3.0764601,9.997401,30.82595,-11.9499655,-1.7918411
225,-32.36394119262695,14.327898979187012,78.74903869628906,-1.6320414652528856,0.9874753609440191,-16.830523138137888,-21.566729,31.174273,27.323322,32.819313,-7.2902727,4.4716263,-11.54499,-19.552078,-5.438758,37.386776,2.8825438,15.000033,-7.0871587,1.0065885,16.433266,-8.264145,46.514366,-40.29992,42.751816,0.32966936,1.9351972,-0.04524647,6.084218,-34.467567,1.3870373,8.556212,33.472622,-14.207586,-5.128769
226,-32.110862731933594,15.078669548034668,78.77781677246094,-1.4382779194729929,0.9404615848586344,-18.73953752041323,-20.419939,30.945612,27.992672,35.046932,-7.092159,5.1148057,-14.074426,-20.682709,-4.6134057,39.146477,3.244372,13.76707,-7.692496,0.49580282,16.867792,-4.6651506,47.437767,-44.954227,41.757076,5.2446,2.2873523,-1.555735,1.4484344,-33.084293,-0.29700923,6.8734107,34.90092,-15.9417,-8.450528
227,-31.843297958374023,15.839749336242676,78.74327087402344,-1.3011955719053625,0.8531531495296408,-20.663863979276094,-19.062643,30.783289,28.96668,37.034046,-7.0292034,5.349417,-16.28873,-21.92671,-4.5382195,40.12057,3.249453,12.373227,-8.120869,0.038176432,17.329823,-1.5436214,48.174164,-49.976986,40.638435,10.2723465,2.4538631,-2.691466,-2.988448,-31.4972,-2.1052866,5.0517154,35.40572,-17.302141,-11.527439
228,-31.541772842407227,16.61860466003418,78.65423583984375,-1.2848018384813469,0.7539489744896571,-22.565314537382715,-17.357025,30.777487,30.461016,38.415386,-7.356406,4.651722,-18.050356,-23.150839,-5.3464904,39.992332,2.9183815,11.06109,-8.323956,-0.29403627,17.815693,0.96291566,48.7009,-54.983242,39.593063,14.412828,2.535165,-3.4944282,-7.0095325,-29.798515,-4.059995,3.1976411,35.29161,-18.449705,-14.0662365
229,-31.215991973876953,17.398160934448242,78.50487518310547,-1.44610789487445,0.6068603170618517,-24.44044042739757,-15.011739,31.023333,32.876186,38.98539,-8.124742,2.4401336,-19.106312,-24.511728,-7.618279,38.434647,1.9568162,9.802237,-8.367513,-0.3980102,18.375345,2.9449618,48.973614,-60.032627,38.4302,17.470867,2.596452,-3.7771401,-10.737587,-28.00835,-6.0584435,1.350611,34.3731,-19.262,-15.918654
230,-30.86323356628418,18.181119918823242,78.28667449951172,-1.7451367765409476,0.4040270136594724,-26.30770347836806,-12.1810465,31.441002,36.049385,39.03586,-9.129433,-0.86600375,-19.517166,-25.938211,-11.140031,35.725628,0.4130273,8.666037,-8.2800045,-0.29040748,18.981064,4.557566,48.953495,-65.294334,37.071033,19.949171,2.6606102,-3.5803127,-14.33533,-26.120079,-8.062024,-0.5050314,32.660076,-19.637283,-17.287773
231,-30.51354217529297,18.95924949645996,77.9880599975586,-2.1080452708824238,0.2184938962146315,-28.164743921605716,-9.418221,31.893167,39.320568,38.959934,-10.288828,-4.2962847,-19.667908,-27.003798,-14.878006,32.42465,-1.1227622,7.8658905,-8.00728,-0.07213626,19.54724,5.9464436,48.637424,-70.310555,35.76402,21.972422,2.7419574,-3.293773,-17.699463,-24.194963,-10.07855,-2.3627193,30.75955,-19.818697,-18.36635
232,-30.172767639160156,19.71573829650879,77.64561462402344,-2.445860366520887,0.12373696582272443,-30.005266157068874,-7.27575,32.26915,41.96355,39.115875,-11.653668,-6.882364,-20.033154,-27.425735,-17.746887,29.070824,-2.031639,7.473121,-7.561971,0.12840945,20.02677,7.2572846,48.071873,-74.55856,34.697006,23.59115,2.8188927,-3.309294,-20.771034,-22.319212,-12.031242,-4.2238274,29.290087,-20.0702,-19.365347
233,-29.848426818847656,20.456565856933594,77.29157257080078,-2.758815397885571,0.13628938519930506,-31.92253699641688,-5.837581,32.51694,43.72241,39.352985,-13.504012,-8.431837,-20.715498,-27.074821,-19.54325,25.433737,-2.0385537,7.4946885,-6.9252667,0.32755122,20.43415,8.529531,47.28219,-77.88834,33.686947,24.751951,2.8623962,-3.6721354,-23.64764,-20.501837,-13.790208,-6.073918,28.532011,-20.46823,-20.25192
234,-29.538240432739258,21.178936004638672,76.8962173461914,-3.0688198387079275,0.2041825830685812,-33.8771626512179,-4.8231316,32.693104,44.987457,39.51568,-15.774813,-9.460152,-21.430994,-26.209045,-20.816093,21.180637,-1.4137971,7.8146224,-6.158028,0.5683725,20.811361,9.755516,46.270782,-80.532265,32.57481,25.443413,2.8821218,-4.1967254,-26.427572,-18.705732,-15.337843,-7.8539762,28.147903,-20.899548,-20.955853
235,-29.261987686157227,21.897693634033203,76.48046112060547,-3.303576999688615,0.29621166794445836,-35.6538646843702,-4.226306,32.848145,45.93786,39.934547,-18.083187,-10.052467,-22.083582,-25.215988,-21.58785,16.72179,-0.37624064,8.267941,-5.4067845,0.7286124,21.195562,11.012869,45.081795,-82.46967,31.552973,25.794195,2.8997579,-4.926966,-29.025076,-16.948387,-16.751085,-9.545356,27.835457,-21.339436,-21.63845
236,-29.02079200744629,22.587602615356445,76.054931640625,-3.3925377230411877,0.388833993386389,-37.038637588879794,-4.0372386,33.035774,46.747948,40.95903,-20.042936,-10.28671,-22.642422,-24.45925,-21.8719,12.633738,0.77579,8.721825,-4.8283463,0.6818298,21.634813,12.385768,43.79977,-83.642296,30.78265,25.933474,2.9370835,-5.910359,-31.370617,-15.276851,-18.08824,-11.11878,27.31275,-21.753628,-22.467764
237,-28.853425979614258,23.238033294677734,75.61915588378906,-3.280165170504301,0.5161400425623837,-37.98662901765439,-4.41894,33.34445,47.45694,42.9609,-21.545696,-9.975314,-23.214085,-23.923613,-21.391678,8.927992,2.0934317,9.262048,-4.442212,0.3572509,22.157587,13.902534,42.501717,-83.84046,30.133863,25.859198,3.0109725,-7.3551316,-33.558846,-13.677763,-19.381214,-12.560059,26.494726,-22.12701,-23.48965
238,-28.74293327331543,23.84222984313965,75.2085189819336,-3.0142552429434026,0.6671915552166539,-38.59634368365752,-5.2988353,33.7046,47.936783,45.6458,-22.819304,-9.128277,-24.275122,-23.65504,-20.026413,6.4977183,3.0745716,9.928019,-4.189694,-0.18561234,22.767134,15.472874,41.226166,-83.16255,29.430666,25.518072,3.1230283,-9.177736,-35.629265,-12.118911,-20.570488,-13.860717,25.537941,-22.472673,-24.622799
239,-28.653223037719727,24.42671775817871,74.8394775390625,-2.7482362496972796,0.8031962480250405,-38.924907586398795,-6.370862,34.046246,48.15135,48.410618,-23.97081,-8.134222,-25.999035,-23.735529,-18.225735,6.2883058,3.1235795,10.516346,-4.0422883,-0.7867764,23.424892,16.98668,39.997215,-82.02239,28.775023,24.953438,3.2707372,-10.987138,-37.391663,-10.64941,-21.565119,-15.015716,24.556343,-22.79552,-25.839972
