liuchenxu125/GMR/soma-retargeter/assets/motions/csv/dance_basic_chaines_180_R_001__A306.csv
Frame,root_translateX,root_translateY,root_translateZ,root_rotateX,root_rotateY,root_rotateZ,left_hip_pitch_joint_dof,left_hip_roll_joint_dof,left_hip_yaw_joint_dof,left_knee_joint_dof,left_ankle_pitch_joint_dof,left_ankle_roll_joint_dof,right_hip_pitch_joint_dof,right_hip_roll_joint_dof,right_hip_yaw_joint_dof,right_knee_joint_dof,right_ankle_pitch_joint_dof,right_ankle_roll_joint_dof,waist_yaw_joint_dof,waist_roll_joint_dof,waist_pitch_joint_dof,left_shoulder_pitch_joint_dof,left_shoulder_roll_joint_dof,left_shoulder_yaw_joint_dof,left_elbow_joint_dof,left_wrist_roll_joint_dof,left_wrist_pitch_joint_dof,left_wrist_yaw_joint_dof,right_shoulder_pitch_joint_dof,right_shoulder_roll_joint_dof,right_shoulder_yaw_joint_dof,right_elbow_joint_dof,right_wrist_roll_joint_dof,right_wrist_pitch_joint_dof,right_wrist_yaw_joint_dof
0,-0.4426858425140381,-1.1001167297363281,78.63578033447266,-0.39516732875561705,-2.5755833085992417,-98.32726111399376,11.693404,7.6748166,19.319832,6.9353857,-11.727371,-8.260518,7.3582835,-5.3409667,-8.390057,7.5832562,-11.592459,5.913668,-3.9275482,0.6295688,11.901426,6.1468163,16.58794,-26.240622,55.263134,4.760767,0.6507476,-7.3112073,-2.2436922,-19.4086,49.912098,55.784985,-11.652963,-1.9715048,1.0257311
1,-0.44415566325187683,-1.1474385261535645,78.63876342773438,-0.39650092757433075,-2.5128430508322523,-98.35571737151342,11.6675825,7.673946,19.364109,6.935713,-11.714348,-8.237039,7.3083797,-5.3427796,-8.389739,7.603759,-11.571942,5.885725,-3.9508374,0.61489844,11.991723,6.049648,16.613632,-26.232819,55.25517,4.6649837,0.6666984,-7.2609406,-2.3070803,-19.455889,49.8868,55.838226,-11.64653,-1.9446485,1.0300461
2,-0.44648969173431396,-1.1910563707351685,78.64227294921875,-0.4008578383890284,-2.4547458437661294,-98.38938831580573,11.649457,7.6758146,19.413008,6.9352946,-11.70277,-8.213045,7.2604394,-5.3417053,-8.383259,7.628644,-11.551004,5.855594,-3.96638,0.59979093,12.0937195,5.9710565,16.661968,-26.2245,55.21035,4.562325,0.6893543,-7.2127185,-2.3531697,-19.530209,49.852646,55.852005,-11.640265,-1.9148918,1.0351267
3,-0.45090872049331665,-1.2386406660079956,78.64368438720703,-0.40051301291567254,-2.3873277225231155,-98.41267955122048,11.61642,7.6724825,19.452726,6.935528,-11.688251,-8.189168,7.2076993,-5.3461967,-8.389082,7.6458697,-11.531056,5.830292,-3.9896824,0.578433,12.18535,5.8820972,16.706459,-26.220308,55.183918,4.4653826,0.7007382,-7.16833,-2.4091556,-19.588072,49.822575,55.884544,-11.633729,-1.8897169,1.0424652
4,-0.4573192596435547,-1.2845513820648193,78.64800262451172,-0.3892353564144249,-2.2963874434381606,-98.4099938623799,11.545995,7.6572495,19.469868,6.935175,-11.664474,-8.163015,7.1393557,-5.3640785,-8.425264,7.649511,-11.515618,5.8170133,-4.019325,0.5385596,12.26955,5.7920923,16.786129,-26.234985,55.141964,4.3726926,0.686151,-7.142269,-2.446463,-19.676306,49.779305,55.864014,-11.625337,-1.8732576,1.0618378
5,-0.46648961305618286,-1.32451331615448,78.652099609375,-0.366028108899447,-2.1825765320999784,-98.38998647681763,11.442878,7.6290727,19.464375,6.933592,-11.637713,-8.141464,7.056163,-5.3953676,-8.48267,7.6348424,-11.503773,5.815384,-4.062292,0.4864138,12.327698,5.680494,16.856668,-26.269178,55.112373,4.3558984,0.65656185,-7.1387506,-2.5021718,-19.74016,49.74604,55.881195,-11.620377,-1.882545,1.0887607
6,-0.4775254428386688,-1.3668811321258545,78.65547180175781,-0.33512185018882357,-2.051830935366804,-98.35629232980544,11.314219,7.5937467,19.44198,6.9330397,-11.608707,-8.123045,6.960924,-5.4354143,-8.556472,7.609784,-11.496102,5.822285,-4.1099095,0.42333966,12.3733015,5.564556,16.94131,-26.321749,55.067585,4.385571,0.6161979,-7.1545773,-2.5574303,-19.803598,49.710617,55.895123,-11.618104,-1.9091996,1.1229494
7,-0.4876452386379242,-1.4016938209533691,78.65544128417969,-0.30057050614734865,-1.8975446527768953,-98.28353751510133,11.111549,7.565595,19.391106,7.006502,-11.6024475,-8.094525,6.855182,-5.483028,-8.674884,7.5676775,-11.489098,5.840909,-4.1693416,0.34423387,12.413556,5.4403944,17.063866,-26.38546,55.04889,4.3346353,0.53448355,-7.1713386,-2.597888,-19.883846,49.654488,55.86096,-11.610173,-1.9248464,1.1667876
8,-0.5021892786026001,-1.4294816255569458,78.659912109375,-0.2632799234016792,-1.7147869442953254,-98.15083291764238,10.820043,7.542703,19.308172,7.1569104,-11.606648,-8.041307,6.7417154,-5.540149,-8.861208,7.50302,-11.479984,5.873747,-4.2624927,0.25578886,12.433776,5.2523136,17.162823,-26.439323,55.20605,4.0966134,0.37550443,-7.1566525,-2.6533933,-19.940231,49.58994,55.836536,-11.586842,-1.9031624,1.2174034
9,-0.5186635851860046,-1.456451177597046,78.6644058227539,-0.21419933969323332,-1.4925321114753456,-97.95920906552399,10.248543,7.579451,19.154587,7.779034,-11.8337755,-7.960526,6.60825,-5.617109,-9.11848,7.4153833,-11.469795,5.9258857,-4.378234,0.13755542,12.431936,5.0146794,17.285286,-26.509722,55.527016,3.553023,0.07504397,-7.10815,-2.692021,-19.998833,49.477077,55.74363,-11.58059,-1.817288,1.2859465
10,-0.5368248224258423,-1.4781941175460815,78.66854095458984,-0.15308044806274648,-1.2369279300727214,-97.71837419469882,9.57631,7.618628,18.959555,8.499082,-12.094547,-7.8578906,6.4602537,-5.709575,-9.434432,7.3033295,-11.457684,5.9941573,-4.518088,-0.0010729346,12.406663,4.7307987,17.41231,-26.59063,55.98705,2.799177,-0.33215043,-7.0398083,-2.7277153,-20.048542,49.33653,55.620262,-11.584688,-1.6885763,1.3680425
11,-0.558134913444519,-1.492696762084961,78.67378234863281,-0.1018727281048396,-0.9678379915552497,-97.41824789921024,8.7846,7.6912723,18.743021,9.407012,-12.418242,-7.735323,6.3210006,-5.797057,-9.812221,7.1679816,-11.441427,6.0690365,-4.6704874,-0.13675791,12.387825,4.4186454,17.554646,-26.66333,56.510715,2.0013688,-0.7223844,-6.9690638,-2.7634,-20.097984,49.18973,55.499367,-11.5383,-1.5599117,1.447884
12,-0.5741395354270935,-1.5002695322036743,78.678955078125,-0.07760806833528201,-0.7039909566359098,-97.04864459282926,7.8608575,7.827447,18.524096,10.576011,-12.827116,-7.5947595,6.1944895,-5.860584,-10.253249,7.0488124,-11.439009,6.141048,-4.840525,-0.23777029,12.397654,4.0814605,17.686588,-26.69106,57.060627,1.3376951,-0.97401404,-6.903411,-2.8170993,-20.145353,49.079117,55.438843,-11.37706,-1.4734434,1.5082676
13,-0.5836056470870972,-1.5107325315475464,78.6791000366211,-0.08637523235584117,-0.4346565160357602,-96.58450825119046,6.7362,8.03862,18.22661,12.093834,-13.356172,-7.4156246,6.0259566,-5.9022894,-10.778172,7.0436234,-11.493578,6.200338,-5.0586147,-0.2985449,12.433278,3.6995492,17.803024,-26.666395,57.6676,0.8225822,-1.0358739,-6.8555665,-2.8800986,-20.195953,48.967163,55.42016,-11.179773,-1.4321896,1.518183
14,-0.5937533378601074,-1.5100075006484985,78.67570495605469,-0.1183430694246632,-0.15413871067449053,-96.03907406367634,5.446581,8.304218,17.863474,13.878558,-13.974199,-7.201776,5.8618584,-5.921998,-11.382802,7.036529,-11.54833,6.254025,-5.319576,-0.32407066,12.476797,3.254444,17.879316,-26.604073,58.384617,0.38116235,-0.98163044,-6.808705,-2.9583797,-20.23753,48.860054,55.450626,-10.945605,-1.4165331,1.4942943
15,-0.604831874370575,-1.4981825351715088,78.65926361083984,-0.17056829251038141,0.11152242495078758,-95.45975599100369,4.1291018,8.612841,17.587646,15.766449,-14.611737,-6.992048,5.7243314,-5.923155,-12.017438,7.0287476,-11.6186495,6.3185534,-5.5460424,-0.32280502,12.556661,2.8081656,17.967075,-26.524382,59.078796,0.028779361,-0.8684569,-6.7415743,-3.0417347,-20.301208,48.815506,55.5187,-10.50247,-1.4333402,1.4975414
16,-0.6126174330711365,-1.4840813875198364,78.6324234008789,-0.2352454437101126,0.33654949942668516,-94.89393852618652,2.9138284,8.962376,17.553366,17.61568,-15.210403,-6.826075,5.6362395,-5.9101176,-12.632539,7.02164,-11.720156,6.410442,-5.6873865,-0.29312745,12.68237,2.3931968,18.051657,-26.422394,59.69491,-0.20121937,-0.7590441,-6.622759,-3.1612344,-20.381584,48.93553,55.688923,-9.667193,-1.4889147,1.5839423
17,-0.613647997379303,-1.4838348627090454,78.59820556640625,-0.31656047678542343,0.5162782348816437,-94.34028459489991,1.7981114,9.373131,17.792425,19.460144,-15.765894,-6.7298594,5.603702,-5.8784056,-13.228608,7.012986,-11.856433,6.5442824,-5.742323,-0.23223573,12.863058,2.00286,18.129374,-26.279577,60.230873,-0.21586642,-0.63934827,-6.433291,-3.32246,-20.474085,49.239082,55.99727,-8.275385,-1.617688,1.7450744
18,-0.610074520111084,-1.4863041639328003,78.5516128540039,-0.4144013553773983,0.664658631943245,-93.77872864853775,0.7224291,9.848573,18.22495,21.368092,-16.312473,-6.676426,5.613339,-5.8288107,-13.825932,7.0038867,-12.019357,6.707456,-5.7414265,-0.14391136,13.089317,1.6261328,18.202206,-26.095007,60.716446,-0.058343187,-0.48590004,-6.1935086,-3.5163512,-20.578726,49.686443,56.412235,-6.4588275,-1.800474,1.9622729
19,-0.6061989068984985,-1.4919352531433105,78.5000228881836,-0.5180301729689218,0.7835872150129136,-93.2276122830134,-0.25873554,10.363055,18.841349,23.229279,-16.843773,-6.6271396,5.661624,-5.7729206,-14.409201,6.9963746,-12.205281,6.878772,-5.6664248,-0.035970602,13.344647,1.2818234,18.27262,-25.90746,61.141834,0.09523944,-0.34722418,-5.9310894,-3.7397056,-20.693071,50.2671,56.888256,-4.4875283,-1.9605126,2.2746239
20,-0.6042969226837158,-1.5187058448791504,78.44454956054688,-0.6173172991588399,0.8746370979896952,-92.70494889325704,-1.0929828,10.89109,19.631733,24.937109,-17.35507,-6.543099,5.74545,-5.7202954,-14.962313,6.990351,-12.409865,7.0358,-5.4988585,0.08476544,13.612392,0.98964876,18.343637,-25.756104,61.49629,0.068579,-0.2732846,-5.6723714,-3.9934275,-20.813332,50.970837,57.38379,-2.6315775,-2.020857,2.7151346
21,-0.5939421057701111,-1.5520087480545044,78.38652801513672,-0.7169737070090649,0.9305965708114221,-92.23359772324746,-1.7505672,11.450084,20.65779,26.477377,-17.83973,-6.435119,5.8644037,-5.663622,-15.462151,6.9880285,-12.640477,7.169986,-5.211292,0.22521812,13.906744,0.7400967,18.42084,-25.680304,61.770874,-0.2090835,-0.28312558,-5.4095297,-4.2805667,-20.937616,51.798767,57.904495,-0.7608129,-1.9630665,3.3014448
22,-0.5772559642791748,-1.5957692861557007,78.32466125488281,-0.8216122778238432,0.9535952495742286,-91.79731521444273,-2.2577972,12.048639,21.905613,27.904932,-18.3052,-6.316958,6.020605,-5.598667,-15.923781,6.9868507,-12.895787,7.2938766,-4.8180017,0.38801876,14.2304,0.52861875,18.505991,-25.652473,61.968254,-0.63759995,-0.34963414,-5.1338763,-4.5997715,-21.064543,52.751373,58.4653,1.1999338,-1.815679,4.0069666
23,-0.5571811199188232,-1.6458030939102173,78.26109313964844,-0.9226309913036155,0.9589497919884793,-91.3556553264651,-2.6531668,12.645978,23.251833,29.220488,-18.763771,-6.154668,6.21144,-5.5399795,-16.388899,6.9854426,-13.161526,7.4161105,-4.365537,0.5611039,14.54934,0.38401198,18.594149,-25.606493,62.096176,-1.133436,-0.45428088,-4.870009,-4.945867,-21.188965,53.818523,59.037823,2.895307,-1.5804136,4.7951345
24,-0.5377793312072754,-1.7128570079803467,78.19895935058594,-1.011455992262901,0.9618297299604633,-90.86784767275064,-2.9737096,13.198849,24.572926,30.410261,-19.226595,-5.915031,6.4341,-5.500893,-16.898918,6.9824824,-13.423509,7.545225,-3.9018478,0.7322541,14.828644,0.33529997,18.676142,-25.475204,62.16413,-1.6123964,-0.5759348,-4.641633,-5.3149967,-21.303019,54.993286,59.597282,3.971018,-1.271459,5.632505
25,-0.5170689225196838,-1.794352412223816,78.13616943359375,-1.0886739069478164,0.9595400770704293,-90.33647917577092,-3.2281418,13.70984,25.878172,31.494099,-19.707815,-5.5418024,6.690438,-5.4788404,-17.453701,6.9796243,-13.679934,7.6905136,-3.4215825,0.9040546,15.065166,0.39312577,18.743078,-25.237528,62.168003,-2.06185,-0.7355895,-4.45032,-5.7205253,-21.401842,56.350666,60.192356,4.2696753,-0.9226982,6.51816
26,-0.48347049951553345,-1.9060770273208618,78.07168579101562,-1.1591875801570237,0.9462529626344722,-89.77861235967188,-3.3960936,14.192826,27.220724,32.469055,-20.199472,-5.0702405,6.981676,-5.465282,-18.03558,6.973394,-13.935675,7.8447866,-2.9108217,1.0821303,15.271502,0.54173166,18.793535,-24.924553,62.111908,-2.5200298,-0.93451506,-4.284438,-6.167331,-21.481663,57.877888,60.827927,4.001266,-0.5364781,7.472949
27,-0.44619762897491455,-2.025738000869751,78.00773620605469,-1.2180402968711594,0.9324006478732046,-89.17533429908221,-3.478107,14.618064,28.543089,33.28656,-20.676308,-4.6046414,7.300735,-5.4669647,-18.659962,6.966754,-14.194106,7.991991,-2.3991978,1.2546679,15.437495,0.76293963,18.83053,-24.55428,62.032013,-2.98238,-1.1294757,-4.1482067,-6.6301174,-21.535198,59.425163,61.40938,3.3566587,-0.086627044,8.499654
28,-0.407287061214447,-2.164398193359375,77.94552612304688,-1.2602899190911414,0.9281343797028684,-88.50768296725437,-3.4810228,14.957661,29.786919,33.9054,-21.114847,-4.24976,7.642009,-5.490643,-19.342472,6.9604793,-14.456717,8.116187,-1.9124258,1.4089975,15.553702,1.0360849,18.859962,-24.15039,61.963665,-3.446572,-1.2768322,-4.0452056,-7.084228,-21.55556,60.84022,61.847878,2.525481,0.4578005,9.599839
29,-0.35845398902893066,-2.323499917984009,77.88218688964844,-1.2906030853653765,0.9346670378122398,-87.76905958921755,-3.399055,15.216742,30.986158,34.305656,-21.505972,-4.045646,8.008465,-5.5260987,-20.090345,6.9522033,-14.73021,8.209214,-1.4476178,1.5482076,15.614872,1.367955,18.882225,-23.711287,61.906105,-3.9374433,-1.3676301,-3.9834485,-7.525344,-21.538347,62.13333,62.13593,1.4042158,1.1388878,10.829943
30,-0.32175561785697937,-2.483785629272461,77.81867218017578,-1.3103863484154983,0.9465439982413091,-86.96997316626681,-3.2382405,15.400505,32.15686,34.513954,-21.86201,-3.9352484,8.403573,-5.571174,-20.894993,6.940729,-15.010822,8.281086,-0.9910613,1.6742283,15.625618,1.7647914,18.896137,-23.232584,61.844395,-4.4502716,-1.4231555,-3.95852,-7.9639616,-21.4822,63.363983,62.32222,-0.06764644,1.9063672,12.1844225
31,-0.27150052785873413,-2.6728403568267822,77.75773620605469,-1.3070941453983567,0.9627688345497196,-86.11589864965053,-3.023162,15.481904,33.211994,34.54822,-22.18396,-3.8771656,8.824467,-5.6404243,-21.749012,6.9253526,-15.282143,8.34342,-0.5516591,1.7737856,15.593269,2.2050972,18.908152,-22.73467,61.79039,-4.939739,-1.4450426,-3.9547052,-8.397556,-21.388443,64.450935,62.406677,-1.6357884,2.6678445,13.564194
32,-0.21063925325870514,-2.88116717338562,77.6971664428711,-1.2678698350527358,0.9818290322862132,-85.21253301822782,-2.784439,15.438491,34.062023,34.440266,-22.481474,-3.8297112,9.269122,-5.749032,-22.645613,6.9064927,-15.528857,8.407541,-0.13137251,1.83281,15.527174,2.6648033,18.929625,-22.245562,61.75284,-5.364193,-1.4348418,-3.9567804,-8.816819,-21.261518,65.30324,62.38098,-3.041586,3.3484979,14.860093
33,-0.14743191003799438,-3.0998518466949463,77.62783813476562,-1.1984255030759563,0.9920979511082871,-84.24553184696623,-2.5113552,15.297222,34.751938,34.217793,-22.788853,-3.767121,9.681099,-5.9186773,-23.592632,7.0607495,-15.871086,8.481763,0.25969854,1.8586442,15.433153,3.1525192,18.96482,-21.771244,61.72393,-5.7352734,-1.3777301,-3.966185,-9.205007,-21.10545,65.86589,62.22598,-4.266959,3.9690416,16.135277
34,-0.07819050550460815,-3.3086791038513184,77.55045318603516,-1.1003326764020733,1.0003385510756284,-83.21968087526248,-2.1905975,15.04737,35.312164,33.827602,-23.075676,-3.7157645,10.117675,-6.1186786,-24.59369,7.2353153,-16.223497,8.558378,0.6339915,1.8506074,15.302603,3.6774073,19.014826,-21.303389,61.695778,-6.0715346,-1.2770587,-3.9897788,-9.565889,-20.92322,66.188866,61.944103,-5.4347277,4.561648,17.414503
35,-0.018155094236135483,-3.535789728164673,77.4747543334961,-0.9751018414142668,1.0016948589963537,-82.15268590214147,-1.8859234,14.691814,35.586903,33.33844,-23.328224,-3.7257297,10.573344,-6.344491,-25.634317,7.4311337,-16.540325,8.618499,1.002054,1.8074483,15.159177,4.2196255,19.08396,-20.841282,61.668434,-6.337999,-1.161324,-4.0196934,-9.932711,-20.721586,66.34733,61.567657,-6.484221,5.08795,18.519705
36,0.04836300387978554,-3.784991502761841,77.39189910888672,-0.8237140768873177,0.9914690131524552,-81.06287235612135,-1.6564384,14.235394,35.422867,32.81828,-23.532276,-3.844916,11.037418,-6.5969043,-26.69838,7.6611137,-16.777878,8.641888,1.3746147,1.7270262,15.027093,4.76116,19.178455,-20.383455,61.638866,-6.500536,-1.0587393,-4.048743,-10.338657,-20.50963,66.41734,61.124466,-7.34917,5.5175123,19.269815
37,0.12721610069274902,-4.032249450683594,77.31087493896484,-0.6235883518803695,0.9843189766138717,-79.95182277892458,-1.513682,13.608488,34.660664,32.18692,-23.661488,-4.141185,10.889425,-7.2224364,-27.694374,9.354641,-17.73124,8.64046,1.7538047,1.5850002,14.887344,5.3079147,19.30437,-19.9451,61.605278,-6.5136046,-0.9647302,-4.083872,-10.775834,-20.291162,66.381584,60.60343,-7.9456306,5.8662868,19.618362
38,0.2066735476255417,-4.279872417449951,77.20767974853516,-0.3628280989203098,0.978385162715031,-78.81645478851378,-1.4058636,12.813533,33.4397,31.430477,-23.728584,-4.5647798,10.426738,-8.116879,-28.653212,11.84952,-19.057402,8.618509,2.1397376,1.3688254,14.734558,5.873041,19.46351,-19.51828,61.55952,-6.408584,-0.86767995,-4.127924,-11.233856,-20.067852,66.21379,59.98731,-8.321275,6.159231,19.655266
39,0.27517491579055786,-4.522278785705566,77.09488677978516,-0.047902651495975286,0.9472857768660726,-77.67111111342808,-1.2988518,11.943042,32.056133,30.700869,-23.768452,-4.982487,9.874408,-9.187699,-29.601124,14.690648,-20.413603,8.551175,2.5398252,1.0836178,14.612033,6.4513154,19.65534,-19.062304,61.488247,-6.263898,-0.78562,-4.1681147,-11.738747,-19.846436,65.975464,59.289536,-8.609271,6.381794,19.40331
40,0.34680378437042236,-4.762600898742676,76.96989440917969,0.3150516983509731,0.8649018781919859,-76.52941972732813,-1.1764054,11.088578,30.80296,30.155499,-23.817217,-5.2646627,9.255469,-10.448481,-30.543262,17.908768,-21.708118,8.418462,2.9565673,0.73365706,14.564182,7.041202,19.87756,-18.531353,61.375988,-6.157458,-0.7364544,-4.191365,-12.318254,-19.636738,65.735695,58.52173,-8.94019,6.518066,18.88677
41,0.42050114274024963,-5.014454364776611,76.84089660644531,0.7602369545198421,0.7178244890385534,-75.39239036301821,-1.0547487,10.2298565,29.732697,29.862385,-23.876226,-5.3569775,8.62156,-11.938464,-31.52312,21.480953,-22.979856,8.236409,3.3950336,0.27985826,14.612849,7.6404514,20.133234,-17.90553,61.219612,-6.062578,-0.7285485,-4.202262,-12.970141,-19.443312,65.49186,57.664352,-9.307325,6.6141543,18.06634
42,0.5025657415390015,-5.269896507263184,76.71163940429688,1.284539363569663,0.5196209928516992,-74.2539253752037,-0.9370145,9.321592,28.697212,29.725227,-23.925995,-5.334837,7.994052,-13.633613,-32.518284,25.31924,-24.21669,8.000166,3.8496683,-0.27424595,14.736264,8.257831,20.423254,-17.203863,61.02081,-5.9534426,-0.752174,-4.2063146,-13.684813,-19.268175,65.22092,56.709167,-9.650147,6.667041,16.944096
43,0.5794810652732849,-5.514240741729736,76.5752182006836,1.8236667617138456,0.28642379525260886,-73.11595291702366,-0.8033717,8.41925,27.683401,29.660658,-23.972961,-5.26375,7.3422737,-15.447476,-33.437256,29.368387,-25.260126,7.6580787,4.306104,-0.8565925,14.911272,8.907552,20.737734,-16.437963,60.770294,-5.905358,-0.7941274,-4.1910057,-14.471143,-19.119493,64.95364,55.679543,-10.03285,6.588891,15.606893
44,0.6492336988449097,-5.7606401443481445,76.44673919677734,2.3144975649085184,0.03706275846224004,-71.98006624030867,-0.63439316,7.578141,26.679012,29.583935,-24.0236,-5.2086616,6.616179,-17.297167,-34.18957,33.60152,-25.956905,7.159696,4.748087,-1.3939353,15.111613,9.596625,21.05923,-15.619769,60.473057,-5.991855,-0.84595865,-4.143245,-15.33577,-19.00904,64.72465,54.593426,-10.522047,6.2942786,14.139433
45,0.7327577471733093,-6.023575305938721,76.32271575927734,2.7509524253911155,-0.2256131116727279,-70.83543216797327,-0.43198746,6.8015428,25.681614,29.487495,-24.074682,-5.173268,5.811691,-19.194653,-34.7854,38.099815,-26.318712,6.5574546,5.166852,-1.8727959,15.335532,10.311568,21.375366,-14.764812,60.145523,-6.2601624,-0.9073127,-4.045352,-16.278612,-18.94811,64.55845,53.487453,-11.214495,5.7091017,12.456473
46,0.8177601099014282,-6.282820701599121,76.20824432373047,3.154798869781102,-0.5107695497153731,-69.68196171209757,-0.20816073,6.0720043,24.691793,29.41569,-24.126108,-5.12808,4.9560113,-21.162022,-35.266136,42.84391,-26.412025,5.84621,5.5696354,-2.3164232,15.594282,11.043147,21.682737,-13.864157,59.7968,-6.658811,-0.98486763,-3.906694,-17.292156,-18.942818,64.43568,52.330406,-12.06649,4.9116893,10.542314
47,0.9099011421203613,-6.539566993713379,76.10782623291016,3.5082288196100695,-0.8144800546926707,-68.53728232865102,0.042149473,5.410158,23.70426,29.3567,-24.188095,-5.0889306,4.0318427,-23.136368,-35.601223,47.664165,-26.167582,4.904737,5.964514,-2.7101004,15.878172,11.803414,21.976168,-12.897097,59.419895,-7.1154847,-1.0789112,-3.7548532,-18.368355,-18.995327,64.32383,51.02942,-12.927956,4.038097,8.588125
48,1.0165672302246094,-6.812953948974609,76.01409912109375,3.796398527795282,-1.131170237096142,-67.41998154841005,0.32797182,4.831363,22.714468,29.286446,-24.264938,-5.069088,3.010102,-25.05344,-35.76262,52.389755,-25.505331,3.6160603,6.3582706,-3.042587,16.174822,12.605794,22.248928,-11.839769,59.008385,-7.5575466,-1.188921,-3.617623,-19.500671,-19.1067,64.19199,49.49825,-13.638707,3.2084293,6.7915916
49,1.111680030822754,-7.0793585777282715,75.9293441772461,4.014433585031637,-1.4641235056544337,-66.33924521408365,0.66127247,4.335707,21.725605,29.19639,-24.367384,-5.0651164,1.8209589,-26.9592,-35.743145,57.13882,-24.306051,1.817173,6.7596483,-3.305228,16.488073,13.457118,22.488653,-10.665233,58.548336,-7.957199,-1.310143,-3.501558,-20.68766,-19.282555,64.04086,47.711266,-14.15672,2.4285245,5.1613717
50,1.2225319147109985,-7.355957984924316,75.85430145263672,4.171984175806035,-1.8120581426926567,-65.28066650016504,1.0349791,3.912662,20.736956,29.092455,-24.486319,-5.070412,0.4963186,-28.89227,-35.60131,61.94564,-22.622501,-0.38292852,7.15715,-3.50484,16.817703,14.3440895,22.689447,-9.392453,58.056126,-8.355236,-1.4448571,-3.3919587,-21.927343,-19.527222,63.889786,45.70691,-14.566563,1.6325816,3.610214
51,1.3285963535308838,-7.657625675201416,75.7926254272461,4.27605137316963,-2.162020727717364,-64.22764161628837,1.4257804,3.5637083,19.7394,28.981714,-24.602262,-5.095292,-0.85217685,-30.776632,-35.40495,66.534134,-20.637716,-2.6831727,7.529015,-3.6563632,17.144999,15.25278,22.858366,-8.067084,57.565315,-8.7833395,-1.6017958,-3.2856445,-23.216198,-19.837114,63.73809,43.494617,-14.880842,0.8218793,2.196141
52,1.4128434658050537,-7.969212532043457,75.7392349243164,4.335191690675358,-2.5006020075964353,-63.16589025526582,1.8039993,3.291977,18.725882,28.88424,-24.702297,-5.1510205,-2.1350565,-32.52191,-35.185017,70.65759,-18.547733,-4.7733254,7.857653,-3.7787051,17.452606,16.17513,23.011435,-6.7353063,57.101944,-9.27529,-1.7892077,-3.180851,-24.550043,-20.202023,63.57813,41.08498,-15.113427,-0.0016079966,0.9764
53,1.5005412101745605,-8.290056228637695,75.69307708740234,4.34896687713702,-2.840486158578082,-62.09882252919484,2.1801462,3.101779,17.699127,28.816584,-24.79456,-5.2410655,-3.367167,-34.14766,-34.937103,74.32421,-16.056206,-6.7206693,8.141901,-3.8773096,17.752943,17.132473,23.159098,-5.3889313,56.64192,-9.872314,-2.0226161,-3.0807495,-25.936125,-20.616674,63.406574,38.437344,-15.220042,-0.87331635,-0.008040262
54,1.583804965019226,-8.621227264404297,75.66033172607422,4.31627230653195,-3.182893710230145,-61.028006096560624,2.5633233,2.9865649,16.660109,28.763458,-24.88233,-5.3588276,-4.5945077,-35.71102,-34.654392,77.664276,-13.163772,-8.646982,8.388975,-3.9495366,18.049051,18.126646,23.299297,-4.0111127,56.176315,-10.550711,-2.2919452,-2.9903424,-27.373224,-21.08049,63.22807,35.561226,-15.2,-1.7902322,-0.7938039
55,1.6538063287734985,-8.96704387664795,75.64706420898438,4.231463650756926,-3.4925037848785934,-59.94309166945381,2.9232743,2.9486933,15.603359,28.688013,-24.941236,-5.503925,-5.808966,-37.07604,-34.302437,80.608826,-10.520893,-10.273417,8.601118,-3.9879076,18.304462,19.122189,23.430569,-2.6340377,55.749847,-11.243806,-2.5670936,-2.908356,-28.837309,-21.585205,63.03692,32.544746,-15.1447315,-2.6884396,-1.4423277
56,1.7074246406555176,-9.347895622253418,75.6566390991211,4.082873638639302,-3.7281826269698914,-58.84181000279153,3.220857,3.0021806,14.529569,28.565428,-24.953054,-5.6783195,-7.0395985,-38.045326,-33.799824,83.10353,-8.795842,-11.275591,8.789684,-3.9780688,18.476305,20.080685,23.553993,-1.2936733,55.410007,-11.885467,-2.8182576,-2.831258,-30.312037,-22.11692,62.828995,29.484966,-15.140739,-3.5023806,-2.0182076
57,1.761865258216858,-9.747368812561035,75.68834686279297,3.849358430497047,-3.863588949896564,-57.720368655199124,3.4126325,3.178666,13.430803,28.425507,-24.931803,-5.891917,-8.365741,-38.395214,-33.00031,85.12308,-8.407884,-11.383998,8.949804,-3.9031363,18.531029,20.999756,23.674479,0.005993487,55.17589,-12.495428,-3.0545578,-2.7644947,-31.802458,-22.663008,62.59859,26.374298,-15.194455,-4.239004,-2.5131714
58,1.800745964050293,-10.136839866638184,75.73385620117188,3.538364465192978,-3.9171962173063015,-56.59115309080926,3.5218809,3.4711072,12.316307,28.277943,-24.887587,-6.143063,-9.783516,-38.21797,-31.975277,86.74082,-8.956789,-10.799204,9.086785,-3.770317,18.489738,21.897076,23.794096,1.2809654,55.02182,-13.09766,-3.2860029,-2.7072165,-33.317867,-23.216627,62.35068,23.188307,-15.263136,-4.9257145,-2.9040873
59,1.8420664072036743,-10.561429977416992,75.80504608154297,3.180688674006266,-3.9141202238111337,-55.47737846811771,3.6067154,3.8386838,11.213214,28.069489,-24.797266,-6.416408,-11.202999,-37.794785,-30.955168,88.047905,-9.8787565,-9.89851,9.228173,-3.6006122,18.391413,22.763498,23.908787,2.525823,54.92741,-13.630535,-3.4841805,-2.6437938,-34.859,-23.772211,62.10041,20.001848,-15.350996,-5.528093,-3.2361047
60,1.876581072807312,-11.007410049438477,75.900634765625,2.805521761342665,-3.878915596058285,-54.402214150789305,3.721407,4.2446184,10.149326,27.750288,-24.638609,-6.696987,-12.550488,-37.408333,-30.128998,89.11323,-10.580578,-9.040111,9.402111,-3.411908,18.274115,23.586578,24.012045,3.732915,54.874897,-14.031498,-3.6216223,-2.5563152,-36.415745,-24.323185,61.8566,16.88955,-15.478455,-6.010879,-3.554243
61,1.9116744995117188,-11.470283508300781,76.01217651367188,2.410065995482311,-3.806135925934798,-53.37502845744968,3.8767924,4.6948447,9.12406,27.28939,-24.396744,-6.9860253,-13.833332,-37.07911,-29.498404,89.91994,-10.979179,-8.23281,9.616998,-3.2019315,18.13124,24.362194,24.102339,4.90517,54.871693,-14.256796,-3.6822112,-2.4235573,-37.999947,-24.861052,61.622112,13.837971,-15.67267,-6.3267403,-3.8691316
62,1.9463340044021606,-11.941595077514648,76.14257049560547,1.9871885599976906,-3.687173048653242,-52.38159479358066,4.0447774,5.2014074,8.122641,26.7173,-24.085506,-7.288514,-15.072113,-36.704567,-28.981771,90.44187,-11.367813,-7.333538,9.849763,-2.967261,17.946644,25.102247,24.180683,6.0496197,54.92217,-14.347421,-3.6837082,-2.2582839,-39.632744,-25.382257,61.402237,10.8306055,-15.9001465,-6.5082197,-4.1584134
63,1.9837419986724854,-12.423571586608887,76.28167724609375,1.5547173424008673,-3.539948398896982,-51.41185952861319,4.2152734,5.7443933,7.1538854,26.083988,-23.72773,-7.5964584,-16.248018,-36.34945,-28.591688,90.7235,-11.682584,-6.4360104,10.094737,-2.7155504,17.747742,25.807106,24.24572,7.155828,55.00273,-14.3656,-3.6499388,-2.0914793,-41.27206,-25.881573,61.187775,7.9253464,-16.13796,-6.6381454,-4.419138
64,2.0105323791503906,-12.914310455322266,76.42611694335938,1.1290559623675827,-3.3819448925258384,-50.45583494243164,4.379995,6.3040514,6.227329,25.437685,-23.345455,-7.9020214,-17.347204,-36.070942,-28.337242,90.80881,-11.856813,-5.630728,10.335231,-2.4568737,17.555481,26.485315,24.293962,8.221023,55.09155,-14.375222,-3.604704,-1.9553885,-42.937454,-26.363462,60.999733,5.1938186,-16.299145,-6.80196,-4.6465
65,2.049647569656372,-13.410822868347168,76.57635498046875,0.700641042533183,-3.2179756835785125,-49.519851565464336,4.560582,6.89319,5.346187,24.74968,-22.9267,-8.206748,-18.369423,-35.86101,-28.212626,90.68725,-11.838067,-4.926026,10.589529,-2.1758308,17.37949,27.12915,24.326126,9.246107,55.181297,-14.364237,-3.5442371,-1.8469844,-44.586937,-26.819557,60.80916,2.6244888,-16.426447,-7.0172887,-4.840544
66,2.0703275203704834,-13.92538833618164,76.72430419921875,0.26683271436508205,-3.038322127718107,-48.60632091310178,4.755014,7.516485,4.504353,24.005346,-22.467031,-8.513082,-19.32423,-35.700077,-28.204449,90.339775,-11.667525,-4.278557,10.838093,-1.8798649,17.195742,27.752039,24.341255,10.246017,55.287426,-14.311097,-3.4585867,-1.7554376,-46.301807,-27.259422,60.651474,0.20049223,-16.466326,-7.2443705,-5.0006785
67,2.0866942405700684,-14.438803672790527,76.86509704589844,-0.1488190936741668,-2.840091781310145,-47.69916205230662,4.9128766,8.145312,3.6968784,23.28986,-21.999043,-8.815339,-20.210169,-35.62861,-28.310265,89.796234,-11.417057,-3.6976836,11.077655,-1.5890307,17.020031,28.347517,24.341537,11.194701,55.39743,-14.250671,-3.3653767,-1.6885595,-48.04422,-27.679703,60.533157,-2.066353,-16.44748,-7.471841,-5.1333117
68,2.107682228088379,-14.95329761505127,76.99632263183594,-0.5222819389603618,-2.620313691891167,-46.78210882999702,4.985762,8.747678,2.9190907,22.680557,-21.552515,-9.108998,-21.025803,-35.687805,-28.529514,89.08793,-11.159757,-3.1941485,11.282495,-1.3297081,16.854416,28.922304,24.328285,12.079183,55.509342,-14.223277,-3.2816532,-1.6583459,-49.849277,-28.086428,60.495865,-4.145861,-16.32214,-7.6919365,-5.2393436
69,2.129537343978882,-15.481721878051758,77.11872863769531,-0.850279518575463,-2.3700781454978155,-45.836144795639854,4.954426,9.315098,2.1520634,22.176746,-21.114801,-9.391205,-21.766695,-35.901844,-28.882122,88.22351,-10.9106,-2.7656176,11.438668,-1.1089906,16.697884,29.479036,24.305971,12.894968,55.613956,-14.238276,-3.2102046,-1.6751307,-51.72284,-28.47957,60.548546,-6.0336714,-15.972342,-7.961716,-5.333692
70,2.138761043548584,-16.004348754882812,77.22643280029297,-1.1440364743333746,-2.094259636490179,-44.874743138778136,4.8479705,9.862094,1.4031657,21.73871,-20.673094,-9.666481,-22.432314,-36.24573,-29.361193,87.18744,-10.631527,-2.4084466,11.55913,-0.91402227,16.54893,30.016983,24.276215,13.651751,55.71557,-14.275644,-3.1424375,-1.7306995,-53.658535,-28.859596,60.674732,-7.7518253,-15.444781,-8.267282,-5.407259
71,2.1469056606292725,-16.52133560180664,77.31866455078125,-1.4031168182284013,-1.8117622197068877,-43.928747530353064,4.688863,10.392831,0.70703506,21.39009,-20.259766,-9.942472,-23.024199,-36.68371,-29.930035,85.97458,-10.314786,-2.1318057,11.676329,-0.7350871,16.421572,30.53021,24.235752,14.347353,55.818703,-14.327588,-3.0774803,-1.8044862,-55.632385,-29.228624,60.85777,-9.315975,-14.986474,-8.490901,-5.430014
72,2.1393985748291016,-17.0393009185791,77.38783264160156,-1.6275997300613068,-1.5417973317849045,-43.0291475938386,4.5004883,10.911649,0.09962977,21.152988,-19.905548,-10.226699,-23.544626,-37.177063,-30.553532,84.57938,-9.953208,-1.9434788,11.81936,-0.5618621,16.32887,31.012403,24.17895,14.980301,55.933575,-14.385654,-3.018889,-1.8763391,-57.624146,-29.591654,61.085064,-10.743837,-14.841896,-8.513554,-5.374572
73,2.1258673667907715,-17.551856994628906,77.43937683105469,-1.8144869729371207,-1.2854375195135896,-42.18029375523941,4.2911205,11.415462,-0.3984371,21.011074,-19.60444,-10.513558,-23.994434,-37.741207,-31.244146,83.01454,-9.575334,-1.8712461,11.990537,-0.39633703,16.27606,31.471294,24.10586,15.538927,56.046898,-14.448426,-2.9617746,-1.9537072,-59.640095,-29.952078,61.352375,-12.047066,-15.072852,-8.290612,-5.2139983
74,2.1175649166107178,-18.0733699798584,77.46896362304688,-1.9665698015687376,-1.0348764516301696,-41.36672527590918,4.048787,11.904504,-0.80840224,20.957388,-19.34236,-10.802614,-24.367334,-38.377182,-32.023727,81.27908,-9.177815,-1.8973739,12.176901,-0.24082077,16.25698,31.909857,24.019278,16.028337,56.15391,-14.519216,-2.9068556,-2.042093,-61.687485,-30.311527,61.667267,-13.225602,-15.55122,-7.8909326,-4.9670258
75,2.108879804611206,-18.59471321105957,77.47691345214844,-2.0937517668396923,-0.7966764649099092,-40.59045941434709,3.7655509,12.387312,-1.1564144,21.03024,-19.140575,-11.108692,-24.660698,-39.023422,-32.8667,79.35087,-8.706144,-1.9595222,12.387304,-0.08432515,16.268063,32.31654,23.914757,16.470842,56.269802,-14.595895,-2.8610573,-2.1168358,-63.748985,-30.672619,62.033524,-14.273571,-16.238995,-7.369245,-4.6755066
76,2.09110164642334,-19.113094329833984,77.4649429321289,-2.2061806487989952,-0.5770642406921734,-39.85356612319725,3.4332442,12.872639,-1.4689617,21.267523,-19.019798,-11.446654,-24.871988,-39.618008,-33.746307,77.202324,-8.105653,-1.9967325,12.628495,0.08413844,16.306799,32.68305,23.783243,16.891203,56.404408,-14.67517,-2.8310695,-2.1521876,-65.81041,-31.038713,62.458458,-15.181454,-17.097557,-6.779212,-4.3812923
77,2.071350574493408,-19.63397789001465,77.42798614501953,-2.3078182438575237,-0.3785882861400179,-39.16734614562728,3.0588474,13.365678,-1.7369466,21.666245,-18.990108,-11.824512,-25.015453,-40.145023,-34.65334,74.8192,-7.3716826,-2.0478847,12.91032,0.27282715,16.37751,33.000034,23.618116,17.294262,56.553246,-14.721883,-2.8038,-2.1362681,-67.89458,-31.41227,62.94292,-15.972996,-18.306255,-6.029466,-4.041118
78,2.038256883621216,-20.15205192565918,77.36759185791016,-2.393969757349843,-0.19814029717559667,-38.52796788193674,2.642903,13.861408,-1.9502567,22.210806,-19.038118,-12.232449,-25.092247,-40.626663,-35.604115,72.22302,-6.536592,-2.1219945,13.223993,0.47523066,16.481714,33.28183,23.418184,17.67163,56.701183,-14.746635,-2.7800071,-2.0823512,-70.00319,-31.794624,63.487846,-16.652538,-19.82626,-5.1324487,-3.636268
79,1.995270013809204,-20.67209243774414,77.27613067626953,-2.461516764413658,-0.03283238101425577,-37.91391711423528,2.1633906,14.3525915,-2.1355593,22.92901,-19.154913,-12.658285,-25.08498,-41.0566,-36.6012,69.43325,-5.5948067,-2.1086137,13.551918,0.6792278,16.615007,33.553486,23.18358,18.027424,56.846363,-14.814753,-2.7920418,-2.0027099,-72.09681,-32.184593,64.093506,-17.1799,-21.28376,-4.2897573,-3.260455
80,1.947598934173584,-21.20185089111328,77.15485382080078,-2.5069104190132694,0.11979474698846156,-37.30346291182092,1.5995545,14.831089,-2.319712,23.846191,-19.330486,-13.089994,-24.979864,-41.4278,-37.642296,66.46362,-4.535814,-1.8975639,13.877774,0.87101173,16.77381,33.839455,22.915157,18.36655,56.98573,-14.990931,-2.871835,-1.9094918,-74.14199,-32.57777,64.75364,-17.50478,-22.294598,-3.693402,-3.0258439
81,1.9051905870437622,-21.73750877380371,77.0060043334961,-2.5335355167838975,0.25692464750644034,-36.68507661586009,0.92826855,15.298578,-2.513431,25.003029,-19.575579,-13.526484,-24.727057,-41.734364,-38.800556,63.244938,-3.2952821,-1.4068487,14.182866,1.0548115,16.960579,34.142193,22.61226,18.678938,57.117107,-15.290148,-3.0401256,-1.7969582,-76.11408,-32.973793,65.460365,-17.646961,-22.845926,-3.4014723,-3.0050535
82,1.8481045961380005,-22.28250503540039,76.82923126220703,-2.5426187014439727,0.3786130034745533,-36.07307497161587,0.1632299,15.75868,-2.7019746,26.38015,-19.893755,-13.9724455,-24.370674,-41.960358,-40.030754,59.78966,-1.8925644,-0.700741,14.485468,1.2332647,17.177982,34.450356,22.276127,18.966396,57.23751,-15.677576,-3.276359,-1.6615577,-78.05616,-33.370224,66.21278,-17.607916,-23.0968,-3.302527,-3.1353257
83,1.7952550649642944,-22.83200454711914,76.61792755126953,-2.526076954534895,0.49086658544655454,-35.48460501425215,-0.6580399,16.2057,-2.8733823,27.907837,-20.264164,-14.424743,-24.038475,-42.096806,-41.150013,56.23165,-0.43953457,0.10601839,14.802612,1.3923981,17.41013,34.771656,21.905714,19.255947,57.362473,-16.146595,-3.5508964,-1.5235752,-79.958725,-33.766037,67.02502,-17.363317,-22.978136,-3.3319116,-3.329114
84,1.7421960830688477,-23.39691734313965,76.37014770507812,-2.4752132745774333,0.5992545992997589,-34.93636915810261,-1.5026759,16.634,-3.0175745,29.527237,-20.664715,-14.878877,-23.84358,-42.150906,-41.989334,52.69775,0.94652885,0.889538,15.151836,1.51826,17.643084,35.11292,21.497314,19.574923,57.505444,-16.690063,-3.833616,-1.4027016,-81.81112,-34.16046,67.90808,-16.890402,-22.421116,-3.4266896,-3.4962015
85,1.6891287565231323,-23.964078903198242,76.08259582519531,-2.307880001841437,0.7138886174868663,-34.39944690753642,-2.4297206,16.8872,-3.169238,31.308954,-21.059952,-15.000033,-23.85669,-42.21485,-42.460865,49.167683,2.334833,1.6899046,15.506147,1.5281769,17.898739,35.4768,21.045326,19.93347,57.65697,-17.380535,-4.161927,-1.3101233,-83.665596,-34.554226,68.91278,-16.21029,-21.111485,-3.6127584,-3.6879323
86,1.636911153793335,-24.54920768737793,75.76095581054688,-2.088418094880499,0.8273259566704114,-33.882768123207484,-3.4489684,17.081562,-3.3135579,33.294388,-21.49368,-15.000033,-23.980667,-42.22652,-42.692097,45.582405,3.7432585,2.5335712,15.871132,1.4879332,18.17107,35.859905,20.54562,20.317022,57.809326,-18.195965,-4.536908,-1.2347035,-85.5071,-34.946175,70.016525,-15.331365,-19.19148,-3.9157767,-3.9164183
87,1.5914907455444336,-25.14177894592285,75.4101333618164,-1.8387628197407124,0.9272162483490858,-33.42085904256906,-4.394875,17.281218,-3.3782175,35.232765,-21.97403,-15.000033,-24.199724,-42.21198,-42.68212,42.06623,4.9984765,3.315214,16.279263,1.4233545,18.45008,36.259785,20.001848,20.718336,57.973583,-18.987747,-4.873751,-1.1596546,-87.263725,-35.329697,71.121605,-14.192168,-17.24827,-4.262635,-4.037269
88,1.549362063407898,-25.74537467956543,75.02887725830078,-1.5617369393864484,1.0021536252208476,-33.044536282470766,-5.0979753,17.507612,-3.2954144,36.865387,-22.503695,-15.000033,-24.514824,-42.212833,-42.423237,38.74855,5.9336925,3.9391658,16.758165,1.3434672,18.72642,36.67224,19.422829,21.130493,58.1701,-19.60773,-5.087183,-1.0673484,-88.84818,-35.69711,72.13019,-12.722509,-15.878384,-4.568431,-3.9175773
89,1.51667320728302,-26.359472274780273,74.62353515625,-1.2441990526107822,1.040539779480818,-32.76355429038416,-5.535666,17.761288,-3.0223525,38.19243,-23.08063,-15.000033,-24.96723,-42.144436,-41.748543,35.532448,6.404103,4.39293,17.32779,1.2356759,19.015146,37.09338,18.818092,21.541838,58.40595,-20.015673,-5.1483617,-0.93831426,-90.2223,-36.044292,72.99871,-10.899722,-15.265309,-4.823069,-3.474658
90,1.502294659614563,-26.986297607421875,74.18814086914062,-0.8901286933414897,1.0528726548525134,-32.56103219061565,-5.787378,18.030481,-2.6034212,39.324574,-23.70152,-15.000033,-25.521679,-42.00248,-40.74932,32.361763,6.5421476,4.7215667,17.969463,1.10287,19.311611,37.515095,18.190037,21.954927,58.6909,-20.293234,-5.106168,-0.7888764,-91.433655,-36.372837,73.7871,-8.746573,-15.083784,-5.06401,-2.800757
91,1.5027495622634888,-27.62689208984375,73.73684692382812,-0.5276376710206472,1.0628385287783713,-32.428633310674044,-5.840027,18.313755,-2.1023004,40.172504,-24.36767,-15.000033,-26.112059,-41.925846,-39.77575,29.437902,6.6127124,4.94611,18.651714,0.97693425,19.575094,37.935417,17.534346,22.382887,59.036346,-20.476154,-4.984371,-0.6510011,-92.5212,-36.68569,74.55426,-6.2637773,-15.166487,-5.2749677,-2.0341208
92,1.5318236351013184,-28.27570343017578,73.27413177490234,-0.184632638473417,1.094350058515624,-32.35879916929971,-5.6842155,18.609713,-1.5854453,40.64991,-25.081123,-15.000033,-26.698818,-42.03245,-39.1703,26.95666,6.880479,5.1009765,19.343185,0.8867608,19.764538,38.35428,16.842993,22.841663,59.4552,-20.597816,-4.8118987,-0.5577045,-93.52665,-36.985756,75.35873,-3.4492486,-15.3460865,-5.438106,-1.3121455
93,1.5883475542068481,-28.914352416992188,72.80887603759766,0.125761301886233,1.1580352884948155,-32.377709603733,-5.2400317,18.93621,-1.0071533,40.614597,-25.892101,-15.000033,-27.308249,-42.32568,-38.899235,24.888014,7.4081883,5.1582403,20.072987,0.845779,19.848545,38.780552,16.108816,23.329899,59.962444,-20.615406,-4.594773,-0.4814939,-94.42464,-37.271683,76.1681,-0.24114336,-15.764576,-5.548294,-0.62185085
94,1.6449272632598877,-29.558137893676758,72.33822631835938,0.42030077525050846,1.2442321382405348,-32.48338832262374,-4.538762,19.274275,-0.3573685,40.147297,-26.777637,-15.000033,-27.98768,-42.66398,-38.821465,23.1073,8.083621,5.140831,20.842247,0.83496195,19.85068,39.222313,15.329498,23.840107,60.543537,-20.527065,-4.3180327,-0.41661343,-95.203026,-37.54467,76.97129,3.3392923,-16.450775,-5.620721,0.08856246
95,1.714556097984314,-30.206357955932617,71.86811828613281,0.7204987990442294,1.342241426566693,-32.62278221013448,-3.7334208,19.568996,0.245272,39.489742,-27.625786,-15.000033,-28.714148,-43.036762,-39.080402,21.709148,8.906145,5.1225557,21.574158,0.83183056,19.818737,39.678036,14.504852,24.381037,61.163166,-20.426699,-3.9781888,-0.4277774,-95.92828,-37.81384,77.865616,7.171484,-17.069092,-5.65538,0.7429266
96,1.7770432233810425,-30.86768341064453,71.40779113769531,1.0527413019405836,1.4326373420483205,-32.736130432129826,-2.9745367,19.771673,0.6800425,38.88774,-28.32853,-15.000033,-29.431013,-43.553833,-39.815155,20.835754,9.84692,5.136764,22.189362,0.8155968,19.812597,40.13874,13.635764,24.960379,61.78532,-20.407898,-3.57202,-0.5786922,-96.66954,-38.09243,78.945404,11.137632,-17.281315,-5.6429067,1.2669022
97,1.833228349685669,-31.538782119750977,70.9640884399414,1.4269316233973042,1.5050976335278397,-32.79530210360981,-2.3129067,19.84986,0.8479923,38.41572,-28.91588,-15.000033,-30.107742,-44.464455,-41.28547,20.726645,10.9008665,5.2021174,22.65701,0.78474987,19.856482,40.59102,12.713362,25.610964,62.414574,-20.49991,-3.085937,-0.90096456,-97.50645,-38.393738,80.39199,15.306979,-16.912003,-5.542326,1.5374779
98,1.883170247077942,-32.23786163330078,70.52490997314453,1.8354842024215519,1.543587842484551,-32.814663892815446,-1.6488457,19.832773,0.8097881,37.93929,-29.425652,-15.000033,-30.748865,-45.810978,-43.330284,21.416084,11.985443,5.278737,23.00115,0.755086,19.946333,41.045357,11.735038,26.315395,63.05578,-20.647127,-2.524644,-1.3529806,-98.39013,-38.720924,82.10925,19.694258,-16.16494,-5.3618846,1.6257094
99,1.940656304359436,-32.95965576171875,70.11093139648438,2.268627239032983,1.54222034625104,-32.8192685593553,-0.9238058,19.78453,0.70963484,37.39866,-29.766607,-15.000033,-31.298948,-47.307945,-45.50861,22.532568,13.050023,5.309453,23.248987,0.73178554,20.074688,41.517704,10.719368,27.007313,63.68495,-20.81588,-1.9123293,-1.8899794,-99.18815,-39.073746,83.76688,24.11163,-15.276083,-5.1633997,1.7533281
100,1.9883856773376465,-33.73577117919922,69.73886108398438,2.7273637990086907,1.4859439347438106,-32.82138709207556,-0.06748591,19.750954,0.6855922,36.730125,-29.849646,-15.000033,-31.79806,-48.712055,-47.31723,23.830187,13.981231,5.2282753,23.41676,0.7099469,20.242926,42.015697,9.699463,27.62314,64.293045,-20.976341,-1.2725418,-2.4719603,-99.75962,-39.45619,85.027565,28.386793,-14.485,-5.0075917,2.149173
101,2.0440897941589355,-34.55879211425781,69.41211700439453,3.229970112271909,1.3440774088911882,-32.81959197455481,0.9685323,19.72588,0.79586184,35.918102,-29.67011,-15.000033,-32.25352,-49.95194,-48.65509,25.23702,14.923213,5.3038774,23.508669,0.68660176,20.49051,42.514618,8.696653,28.13539,64.93656,-21.199327,-0.6005455,-3.1110375,-100.04365,-39.882122,85.83028,32.534805,-13.9516945,-4.907142,2.97203
102,2.100247621536255,-35.43943786621094,69.1300277709961,3.7645888634856646,1.1427966935275105,-32.818548965541524,2.1369152,19.696428,0.97259104,34.989937,-29.269398,-15.000033,-32.68672,-51.11364,-49.759346,26.880766,15.881319,5.509918,23.532455,0.6659136,20.78491,42.99644,7.7184653,28.580904,65.635765,-21.473358,0.116209045,-3.8238735,-100.10643,-40.36642,86.33654,36.637524,-13.521303,-4.827895,4.072046
103,2.175990581512451,-36.379268646240234,68.88692474365234,4.297207661114311,0.9415581346228116,-32.825529542048336,3.3732896,19.683897,1.1541169,33.946835,-28.63176,-15.000033,-33.187668,-52.23434,-50.62365,28.838673,16.535019,5.302658,23.49763,0.6463958,21.03233,43.478172,6.7812524,28.993042,66.33333,-21.648024,0.85892475,-4.5832806,-99.99958,-40.914936,86.54664,40.627796,-12.960137,-4.7547436,5.2195554
104,2.2711195945739746,-37.36421585083008,68.68860626220703,4.797389523660167,0.7920155068662392,-32.839937700345196,4.616415,19.708292,1.2722365,32.793385,-27.739159,-15.000033,-33.804016,-53.360607,-51.2701,31.146778,16.619276,4.109344,23.411491,0.6262178,21.146921,43.977303,5.9057813,29.402538,66.964455,-21.574688,1.6130129,-5.365165,-99.7674,-41.52663,86.45167,44.44049,-12.035551,-4.668811,6.1843686
105,2.385434627532959,-38.39006423950195,68.51898956298828,5.2523412492484525,0.6953718519546349,-32.83131353564708,5.909293,19.77933,1.2782257,31.414942,-26.562576,-15.000033,-34.75872,-54.48653,-51.277855,33.952133,16.186243,1.4145594,23.25511,0.61091024,21.097677,44.498924,5.11095,29.806469,67.546074,-21.15043,2.3954916,-6.227191,-99.335945,-42.197,85.87724,48.058727,-10.668638,-4.555859,6.9474173
106,2.5102574825286865,-39.459957122802734,68.38685607910156,5.680851110826919,0.6215670532079444,-32.8027951055845,7.2712893,19.887049,1.2134881,29.849947,-25.122381,-15.000033,-36.037716,-55.517002,-50.68462,37.082306,15.513295,-2.3367238,23.036396,0.60169137,20.93387,45.019547,4.4037166,30.19254,68.12245,-20.472939,3.1993263,-7.173117,-98.68896,-42.92564,84.871056,51.528904,-8.992999,-4.4224415,7.6128206
107,2.6530909538269043,-40.59632873535156,68.2714614868164,6.10434242937416,0.5740201253256557,-32.80295312303633,8.602335,20.016516,1.1466566,28.336746,-23.474892,-15.000033,-37.247303,-56.452793,-50.257168,40.17967,14.536457,-6.330908,22.800915,0.5896007,20.695364,45.51301,3.7835772,30.574303,68.679085,-19.700531,3.9663432,-8.098945,-97.96052,-43.71535,83.76091,54.88014,-7.0908856,-4.285409,8.134978
108,2.7959463596343994,-41.761348724365234,68.19343566894531,6.548379570527857,0.5600644775247542,-32.8841055322851,9.793911,20.144773,1.1536106,27.114202,-21.670021,-15.000033,-37.873035,-57.39279,-50.83815,42.996067,12.965767,-9.806882,22.59409,0.5611665,20.422138,45.957863,3.2453167,30.962383,69.196175,-18.998045,4.646053,-8.8926325,-97.29872,-44.57168,82.89099,58.142685,-5.034267,-4.168486,8.472778
109,2.9583182334899902,-42.9593391418457,68.13900756835938,7.039740859350727,0.5904748855846182,-33.003182848380874,10.807879,20.248821,1.1621556,26.181067,-19.680592,-15.000033,-37.384937,-58.603527,-53.249065,45.66958,10.175086,-12.758975,22.387362,0.47998843,20.112984,46.37346,2.793352,31.341093,69.628174,-18.332296,5.2378345,-9.547056,-96.73126,-45.50212,82.40405,61.3924,-2.5340805,-4.153506,8.53354
110,3.1125712394714355,-44.16313552856445,68.12126159667969,7.554794941527356,0.6658651708356399,-33.161252847092065,11.696892,20.350584,1.1762209,25.438976,-17.493511,-15.000033,-36.093716,-59.872227,-56.63529,48.292133,6.3013787,-15.000033,22.186893,0.36876985,19.74016,46.765903,2.432755,31.703547,70.000336,-17.649916,5.766195,-10.111118,-96.18597,-46.507004,82.11008,64.59695,0.36007264,-4.2250686,8.371701
111,3.288767099380493,-45.378265380859375,68.13609313964844,8.076513842306762,0.6268554170830619,-33.34903512549589,12.6061325,20.452888,1.2435241,24.930326,-15.166542,-15.000033,-34.756588,-60.861366,-59.059105,50.74461,2.1535125,-15.000033,21.941006,0.31885228,19.439787,47.09865,2.1517017,32.07624,70.39238,-17.088223,6.226048,-10.549982,-95.66121,-47.580025,81.84226,67.6238,3.0588312,-4.2534328,8.162721
112,3.468924045562744,-46.598663330078125,68.174072265625,8.551264103050976,0.49772880754486193,-33.712805414440545,13.489115,20.617184,1.5593672,24.831804,-12.795101,-15.000033,-33.751263,-61.434906,-60.47253,52.897636,-1.4150113,-15.000033,21.745806,0.39430442,19.21553,47.34419,1.9262569,32.488964,70.86934,-16.781527,6.614844,-10.825533,-95.15553,-48.70727,81.42814,70.340225,4.967154,-4.087697,8.071482
113,3.642259120941162,-47.821929931640625,68.22503662109375,8.934162501255951,0.4852531004230531,-34.43329131355172,14.248013,20.933916,2.4465375,25.201584,-10.436165,-15.000033,-33.73184,-61.30216,-60.30479,54.584152,-4.146148,-15.000033,21.826237,0.59427,18.88229,47.523964,1.7392943,32.893852,71.41131,-16.828598,6.9041533,-10.845102,-94.67322,-49.87357,80.73136,72.79786,5.7414236,-3.6532416,8.125987
114,3.824025869369507,-49.06198501586914,68.29084014892578,9.240899574740396,0.5808350688102533,-35.43987071664682,14.884301,21.379557,3.7468913,25.989403,-8.057221,-15.000033,-34.243023,-60.667828,-59.28435,55.931,-6.4926586,-15.000033,22.115223,0.88041174,18.447693,47.66553,1.5831673,33.30042,71.96673,-17.137117,7.1067853,-10.64879,-94.20675,-51.071526,79.85315,75.04908,5.7532725,-3.0369835,8.246745
115,3.9883687496185303,-50.292015075683594,68.3755111694336,9.47217626809652,0.7188758081458901,-36.67493527227369,15.376886,21.880642,5.1480155,27.21903,-5.6314692,-15.000033,-34.980927,-59.678856,-57.844753,57.069237,-8.561536,-15.000033,22.495144,1.2148052,17.987356,47.757114,1.4438608,33.826332,72.54403,-17.55361,7.2826967,-10.398192,-93.76114,-52.29772,79.02808,76.970955,5.5213614,-2.327273,8.434385
116,4.144297122955322,-51.522125244140625,68.4725112915039,9.633803922506512,0.8351135963797022,-38.07885446705873,15.695787,22.36042,6.3434105,28.8884,-3.098119,-15.000033,-35.648514,-58.48754,-56.415997,58.112873,-10.459828,-15.000033,22.842585,1.5607454,17.57895,47.788258,1.3039913,34.588245,73.14785,-17.924067,7.495164,-10.254077,-93.34435,-53.5497,78.45632,78.43931,5.522413,-1.6094996,8.679792
117,4.288506507873535,-52.738033294677734,68.58246612548828,9.722844085005583,0.9321061775898327,-39.70766294427502,15.862953,23.045279,7.8158917,31.087286,-0.27689683,-15.000033,-36.272545,-57.057533,-54.979084,59.05985,-12.121481,-15.000033,23.20937,1.943542,17.223665,47.72529,1.139764,35.70409,73.84622,-18.241577,7.715353,-10.226628,-92.99339,-54.81679,78.07203,79.4073,5.754717,-0.75821847,9.055411
118,4.418079853057861,-53.94571304321289,68.7042465209961,9.718747764448832,1.0372810351625823,-41.576659237974866,15.935257,23.934723,9.513605,33.731884,2.7687817,-15.000033,-36.9028,-55.309944,-53.41891,59.86409,-13.522889,-15.000033,23.61957,2.376688,16.883224,47.615475,0.93690467,37.10327,74.56763,-18.571888,7.9342027,-10.233887,-92.7535,-56.098587,78.02027,79.94672,6.184989,0.22326131,9.540082
119,4.5493927001953125,-55.14033508300781,68.84758758544922,9.646684482942419,1.1268967669350352,-43.5465069452913,15.855996,24.498903,10.345818,36.532322,5.7815933,-15.000033,-37.39617,-53.392,-51.899544,60.55768,-14.803729,-15.000033,23.92678,2.8223438,16.600887,47.51635,0.71790415,38.55549,75.17672,-18.878048,8.216283,-10.305335,-92.52757,-57.378662,78.027725,80.168396,6.4826007,1.0515356,9.980823
120,4.682359218597412,-56.33176040649414,69.01060485839844,9.582782771699927,1.1866305965376964,-45.45826168105043,15.497213,24.078226,9.283438,39.189255,8.564757,-15.000033,-37.70201,-51.511166,-50.500553,61.16983,-16.096268,-15.000033,23.955303,3.15351,16.419088,47.480267,0.51984495,39.871845,75.54921,-19.122875,8.630092,-10.479019,-92.26051,-58.660748,78.2697,80.15189,6.7842345,1.4410927,10.224768
121,4.828448295593262,-57.51118087768555,69.1850357055664,9.613291204434233,1.185139258583757,-47.296797329249614,14.803116,21.99989,5.4914274,41.699165,11.272621,-15.000033,-37.871326,-49.75793,-49.116272,61.69474,-17.422928,-15.000033,23.656746,3.2871895,16.40873,47.480457,0.37088156,41.00836,75.69466,-19.336067,9.271952,-10.825328,-91.94389,-59.94563,78.808205,79.835526,7.037004,1.2442433,10.279168
122,4.981523036956787,-58.67559814453125,69.34420013427734,9.761154886644434,1.12679246174539,-49.143876203237106,14.107413,18.48397,0.014748096,44.188126,13.976412,-15.000033,-37.99909,-48.091583,-47.615562,62.136036,-18.70645,-15.000033,23.13744,3.2296522,16.563313,47.47055,0.2830525,42.064816,75.704666,-19.525352,10.08013,-11.311914,-91.62463,-61.232983,79.64019,79.21265,7.278284,0.63444495,10.214398
123,5.126791477203369,-59.82233810424805,69.49112701416016,9.972757486495924,1.0501787189878733,-50.987533245299225,13.726731,14.365448,-5.436877,46.602848,16.293362,-15.000033,-38.094444,-46.488586,-46.053757,62.53473,-19.93135,-15.000033,22.479332,3.059796,16.800465,47.45387,0.278848,43.019436,75.59831,-19.627815,10.88826,-11.823497,-91.26098,-62.513855,80.44011,78.47527,7.3978243,-0.19297421,9.977495
124,5.262948036193848,-60.9538688659668,69.63233947753906,10.13825421134334,1.016650118791171,-52.78238884657931,13.555659,10.68616,-9.474698,48.915176,17.869663,-15.000033,-38.12808,-44.888416,-44.58301,62.90911,-21.07878,-15.000033,21.738209,2.8968468,16.993984,47.433586,0.38613874,43.85208,75.40381,-19.586275,11.527211,-12.246963,-90.77954,-63.779804,80.8132,77.81621,7.2388067,-1.0405163,9.508475
125,5.388637542724609,-62.06206130981445,69.77709197998047,10.258173062206914,1.0562340002856694,-54.49112109880463,13.414724,7.458397,-12.186433,51.058445,18.64097,-15.000033,-38.143024,-43.32376,-43.214886,63.268143,-22.133837,-15.000033,20.867638,2.7205966,17.10919,47.41751,0.6266037,44.488327,75.14163,-19.245928,12.021977,-12.66004,-90.126656,-65.03353,80.641594,77.23656,6.646134,-2.0182467,8.693826
126,5.528209686279297,-63.17892837524414,69.91867065429688,10.326287301176793,1.126671400168953,-56.15185382374372,13.266295,4.3611975,-14.275209,53.134712,18.722113,-15.000033,-38.087845,-41.75478,-41.937706,63.588715,-23.118856,-15.000033,19.87108,2.5252786,17.189238,47.391136,1.0099784,44.970394,74.8224,-18.681774,12.435249,-13.097153,-89.29543,-66.285934,80.07947,76.64664,5.7098813,-3.165717,7.578172
127,5.6465582847595215,-64.30770111083984,70.05680847167969,10.254093396147251,1.2234706282602776,-57.76123620725265,12.864162,1.9010161,-15.523264,55.339363,18.210014,-15.000033,-37.858246,-40.07795,-40.87484,63.81588,-24.053526,-15.000033,18.814348,2.4123561,17.198208,47.323708,1.543807,45.460766,74.46275,-18.18809,12.658351,-13.37264,-88.283035,-67.54284,79.170135,76.09142,4.686286,-4.1760783,6.3479095
128,5.720939636230469,-65.44467163085938,70.19835662841797,9.985106223971094,1.353088643848108,-59.29887743484927,11.948773,0.5520502,-15.741037,57.821617,17.276157,-15.000033,-37.396927,-38.22243,-40.11357,63.883377,-24.941032,-15.000033,17.749002,2.4522662,17.107265,47.18442,2.233193,46.127865,74.07358,-18.059317,12.588306,-13.295721,-87.06412,-68.80651,77.929474,75.61682,3.8487093,-4.761728,5.2065096
129,5.7472405433654785,-66.59193420410156,70.3562240600586,9.459672709204368,1.540535376057078,-60.73731738812113,10.316687,0.7992806,-14.624641,60.71942,15.904467,-15.000033,-36.683796,-36.11454,-39.73831,63.715607,-25.757555,-15.000033,16.662783,2.7091663,16.882236,46.969715,3.0855947,47.010223,73.657974,-18.372013,12.175885,-12.775368,-85.596886,-70.0741,76.27601,75.21205,3.1715739,-4.803474,4.1258335
130,5.720931053161621,-67.73979187011719,70.51380157470703,8.679691192656556,1.7683880752062044,-62.116249997138226,8.207242,2.4125388,-12.557625,63.901756,13.953679,-15.000033,-35.76776,-33.72889,-39.669914,63.303623,-26.479725,-15.000033,15.557498,3.1892853,16.560371,46.699894,4.10445,48.01921,73.220184,-18.959251,11.477652,-11.932478,-83.84692,-71.34427,74.17921,74.85082,2.5632646,-4.472795,3.0413957
131,5.670056343078613,-68.8885269165039,70.66850280761719,7.706917700310368,1.9797217184556828,-63.51228018253598,6.02003,4.7407746,-10.318589,67.09591,11.449246,-15.000033,-34.715454,-31.094172,-39.723286,62.68856,-27.108934,-15.000033,14.500749,3.851761,16.228472,46.38158,5.2838073,49.12717,72.769196,-19.749235,10.547864,-10.895046,-81.81834,-72.62125,71.74687,74.55733,2.2060926,-3.939068,2.110338
132,5.602698802947998,-70.04009246826172,70.81765747070312,6.669560225421427,2.1393061868476115,-64.95308688612374,3.9893014,6.9885607,-8.5493765,70.03344,8.56954,-15.000033,-33.631138,-28.349524,-39.696205,61.955303,-27.65506,-15.000033,13.516898,4.5838404,15.959985,46.01689,6.613503,50.304413,72.3095,-20.675014,9.443717,-9.786541,-79.53356,-73.909485,69.102165,74.357346,2.277724,-3.377889,1.4830842
133,5.521703720092773,-71.20046997070312,70.95709991455078,5.569332716329934,2.2528414777286,-66.40270258414603,2.0476105,9.11324,-7.2589583,72.70602,5.160862,-15.000033,-32.508186,-25.49677,-39.60368,61.07936,-28.116308,-15.000033,12.587905,5.388594,15.751766,45.589134,8.089088,51.587452,71.817894,-21.770851,8.02531,-8.4050665,-76.9706,-75.21043,66.279655,74.283005,2.907427,-2.7805464,1.2324255
134,5.465052604675293,-72.33306884765625,71.0973892211914,4.815475849728885,2.3136356967539546,-67.83479576750214,0.041620187,11.934943,-4.766484,75.101494,1.2789284,-12.25708,-31.593557,-23.041525,-39.067097,60.340157,-28.545778,-15.000033,11.674934,5.8993907,15.691228,45.099594,9.712932,52.968697,71.296364,-23.022743,6.2981424,-6.7809067,-74.10215,-76.51097,63.187565,74.31189,3.980109,-2.0749695,1.2648672
135,5.440323829650879,-73.452880859375,71.23834991455078,4.490658641085203,2.341318266861644,-69.25658477126703,-1.8624058,14.740104,-1.6143261,77.20842,-2.770813,-7.6964064,-30.926203,-21.125443,-38.062435,59.874966,-28.989296,-15.000033,10.759966,6.032153,15.760392,44.57384,11.484925,54.346554,70.8127,-24.326591,4.540848,-5.373202,-70.94103,-77.78638,59.75599,74.393196,5.2955422,-1.3403301,1.4779751
136,5.42146110534668,-74.56330871582031,71.37024688720703,4.218873532309808,2.3524443911914084,-70.726763789709,-3.6253443,16.841724,0.8878899,79.09321,-6.5176473,-3.931548,-30.282793,-19.298218,-36.951405,59.464832,-29.393932,-15.000033,9.876576,6.142937,15.860204,44.04711,13.398683,55.60783,70.41629,-25.625872,3.0702472,-4.6162477,-67.54076,-79.00223,55.958473,74.49122,6.6558957,-0.6579881,1.7796766
137,5.411412715911865,-75.66541290283203,71.49191284179688,3.9797184277580775,2.3564415610807905,-72.2217090574227,-5.3834863,18.281717,2.7998064,80.75501,-9.728955,-0.8337522,-29.657309,-17.536835,-35.769485,59.099438,-29.762941,-15.000033,8.99416,6.2551312,15.984971,43.559975,15.455341,56.697453,70.102585,-27.031342,1.9501898,-4.6041503,-63.92643,-80.11234,51.79723,74.70424,8.043371,-0.00017224038,2.2861996
138,5.393701076507568,-76.76294708251953,71.60379028320312,3.786549557086791,2.3385653551301706,-73.70333053179677,-7.1835093,19.231403,4.313526,82.1987,-12.607109,1.8882637,-29.00752,-15.891333,-34.525505,58.78541,-30.113453,-14.732825,8.081102,6.359656,16.138182,43.085052,17.656366,57.681717,69.85993,-28.56789,1.0496677,-5.1004744,-60.14083,-81.07305,47.342686,75.07347,9.537436,0.67419016,2.9975886
139,5.385684013366699,-77.86114501953125,71.71145629882812,3.6542783193191757,2.283903854193936,-75.2109976985561,-8.99093,19.69736,5.469706,83.38799,-15.142366,4.127892,-28.327324,-14.386598,-33.212055,58.551884,-30.452448,-14.267004,7.158289,6.442571,16.306442,42.56274,19.992779,58.62385,69.72192,-30.07637,0.40004364,-6.0251827,-56.302765,-81.8484,42.70487,75.48323,11.098634,1.2908645,3.6541152
140,5.38247537612915,-78.95819854736328,71.81237030029297,3.546441970197189,2.21429903305673,-76.83964328044054,-10.791539,19.757652,6.308888,84.31188,-17.325357,5.7324286,-27.648653,-12.928239,-31.824455,58.36826,-30.749985,-13.847684,6.306059,6.52669,16.437672,41.94916,22.44777,59.588932,69.70691,-31.386238,0.024378821,-7.293185,-52.549286,-82.41839,38.01553,75.809235,12.697669,1.7599599,3.996481
141,5.387398719787598,-80.04713439941406,71.90657043457031,3.4546117480048437,2.1267843810065976,-78.5997861291933,-12.6131935,19.328661,6.7713103,84.93194,-19.038977,6.539978,-26.96007,-11.492841,-30.381506,58.232113,-31.003128,-13.489441,5.5171137,6.631803,16.516464,41.241962,25.011301,60.680183,69.83302,-32.40745,0.064473495,-9.052492,-49.130253,-82.76274,33.313175,76.13369,14.424708,2.0975797,3.924759
142,5.395020008087158,-81.13050079345703,71.99970245361328,3.3726553737085236,2.0234666263097307,-80.46651883491087,-14.48763,18.496296,6.922901,85.27296,-20.280016,6.7192903,-26.256182,-10.07054,-28.892357,58.131287,-31.213629,-13.176169,4.769817,6.739923,16.555128,40.51207,27.676107,61.846752,70.04401,-33.228077,0.4729949,-11.273448,-46.083286,-82.87605,28.688732,76.510086,16.25943,2.3131733,3.5682979
143,5.422059535980225,-82.2232437133789,72.08773040771484,3.305477213106484,1.9059896496050128,-82.44381271676713,-16.36998,17.52525,6.960845,85.39953,-21.21872,6.6095524,-25.543602,-8.68071,-27.325813,58.066483,-31.382105,-12.885763,4.07749,6.796755,16.574144,39.812828,30.424522,62.916817,70.25347,-33.94822,0.9754089,-13.6102495,-43.193825,-82.79443,24.34431,76.740204,18.025488,2.3014188,3.0335991
144,5.451526641845703,-83.31288146972656,72.16963958740234,3.2601875617647096,1.777360982397527,-84.53572413899886,-18.218103,16.663364,7.0622697,85.37976,-22.024439,6.537412,-24.829033,-7.345633,-25.650782,58.041775,-31.511974,-12.595319,3.4500403,6.7671795,16.593891,39.167633,33.23153,63.702034,70.39116,-34.697243,1.2968444,-15.724677,-40.21174,-82.576004,20.47068,76.61035,19.55741,1.9731209,2.456061
145,5.481553554534912,-84.4062271118164,72.25355529785156,3.2398821789692267,1.6334620016642316,-86.75887523947638,-20.038868,15.89019,7.222305,85.21259,-22.700863,6.4902635,-24.104359,-6.0564804,-23.866516,58.075806,-31.602648,-12.310589,2.8949978,6.6559386,16.62726,38.57085,36.078415,64.13134,70.43208,-35.49482,1.3604829,-17.610289,-37.016697,-82.26899,17.146772,76.026276,20.857065,1.234377,1.8069053
146,5.532426834106445,-85.5020751953125,72.3392105102539,3.240691760239168,1.4756750600749475,-89.10790018220705,-21.848234,15.108749,7.3609858,84.86635,-23.171923,6.327549,-23.359257,-4.7969446,-21.991772,58.15822,-31.653175,-12.036209,2.4057446,6.505773,16.666058,37.974953,38.9572,64.28933,70.4108,-36.2858,1.3110572,-19.425167,-33.78843,-81.89717,14.316812,75.0867,22.007019,0.16073366,1.0747125
147,5.586893081665039,-86.60358428955078,72.43183898925781,3.261033984538623,1.3166116102487173,-91.55373181662172,-23.615406,14.441843,7.535344,84.36218,-23.494621,6.1826873,-22.59872,-3.5835857,-20.024393,58.254707,-31.67167,-11.747659,1.9705906,6.336221,16.698936,37.32343,41.856987,64.21702,70.34633,-37.103535,1.2083882,-21.081686,-30.674597,-81.47853,11.922254,73.8595,22.968662,-1.0652742,0.41764465
148,5.655671119689941,-87.7110824584961,72.53246307373047,3.2986451243582025,1.1694082467456675,-94.06771034859717,-25.313503,14.002632,7.7933087,83.72114,-23.714382,6.1808767,-21.82738,-2.434492,-17.958618,58.328686,-31.665722,-11.42264,1.5777799,6.1636834,16.71346,36.557163,44.765865,63.954056,70.25511,-37.97212,1.1109627,-22.488033,-27.832033,-81.02957,9.905988,72.423645,23.709867,-2.2588155,-0.015235246
149,5.732052803039551,-88.82943725585938,72.63642883300781,3.347518904328642,1.0343849077954246,-96.66663080300222,-26.949642,13.850583,8.18021,82.97266,-23.857195,6.396295,-21.036844,-1.3359635,-15.780092,58.390335,-31.635588,-11.067588,1.237956,5.9940963,16.72184,35.606403,47.679073,63.54247,70.13165,-38.869465,1.0147294,-23.60416,-25.199516,-80.5689,8.261199,70.71305,24.125822,-3.406233,-0.15560052
150,5.817395210266113,-89.95616912841797,72.75513458251953,3.411972426872138,0.908012041923129,-99.3591868073611,-28.532331,13.906734,8.654241,82.09993,-23.896503,6.7447443,-20.21742,-0.28527427,-13.494946,58.455173,-31.583961,-10.688503,0.9494604,5.8079534,16.731665,34.63279,50.57286,62.720074,69.88919,-40.10603,0.8919221,-24.493944,-22.689518,-80.09893,6.976864,68.696205,24.272352,-4.584669,-0.10701141
151,5.905004501342773,-91.09265899658203,72.8802719116211,3.5015136035308307,0.7986541207586101,-102.10545008460113,-30.033085,14.076039,9.136411,81.05009,-23.808167,7.117555,-19.371727,0.68,-11.127485,58.493183,-31.523462,-10.2648325,0.6993989,5.62412,16.716036,33.358955,53.45201,61.73499,69.66039,-41.12502,0.7560614,-25.198542,-20.419632,-79.644775,5.989902,66.52888,24.363113,-5.7457104,0.02740648
152,5.9981560707092285,-92.23760223388672,73.00860595703125,3.6256557713050994,0.7148616874429045,-104.8666987880842,-31.423567,14.2639675,9.548762,79.76781,-23.567041,7.4079647,-18.504993,1.5198754,-8.699659,58.47574,-31.46952,-9.778237,0.46763283,5.436605,16.649633,31.765917,56.30479,60.52255,69.46526,-41.858086,0.624023,-25.764704,-18.48356,-79.20698,5.209258,64.353745,24.609154,-6.8398676,0.15329538
153,6.098964214324951,-93.39749145507812,73.14649200439453,3.7890567907874497,0.6661268262982301,-107.64970730041301,-32.71741,14.516373,9.936572,78.275215,-23.278357,7.698247,-17.627363,2.2220187,-6.188401,58.43157,-31.438786,-9.221182,0.25656265,5.2366166,16.527493,29.808828,59.12477,59.045425,69.28999,-42.330288,0.5179108,-26.188108,-16.880733,-78.78544,4.5876884,62.15752,25.187567,-7.87004,0.30817354
154,6.202882766723633,-94.58123779296875,73.31036376953125,3.9838988090966874,0.6497870020635009,-110.47143967069263,-33.922573,14.8487215,10.321981,76.589806,-22.921223,8.005762,-16.724398,2.8032572,-3.589149,58.364994,-31.429087,-8.607553,0.075918935,5.0191226,16.364183,27.45627,61.9037,57.229465,69.11607,-42.62104,0.4184459,-26.452837,-15.512148,-78.38275,4.119519,59.867744,25.945164,-8.854807,0.5294955
155,6.309595584869385,-95.79329681396484,73.47892761230469,4.198858249402153,0.6555538634125165,-113.30981419579116,-35.00399,15.127782,10.586643,74.647285,-22.27169,8.132785,-15.76852,3.2626593,-0.9473033,58.206882,-31.4248,-7.9556603,-0.07934239,4.7899256,16.161226,24.60685,64.62689,55.017757,68.995056,-42.592503,0.27666932,-26.583261,-14.30924,-77.99967,3.7665794,57.537052,26.597517,-9.768778,0.7228423
156,6.42096471786499,-97.02803802490234,73.66185760498047,4.423382645842187,0.6719101241825991,-116.14309852467487,-35.928097,15.225902,10.601396,72.38341,-21.104301,7.88767,-14.742123,3.5937204,1.6953866,57.894806,-31.40891,-7.286729,-0.21418478,4.5502653,15.923436,21.155968,67.26989,52.342392,68.97097,-42.115097,0.047275785,-26.603863,-13.190265,-77.631935,3.475227,55.208126,26.85564,-10.589073,0.78354675
157,6.517090797424316,-98.28446960449219,73.85497283935547,4.673719504809421,0.706116732563056,-118.96428985482731,-36.704468,15.150076,10.379055,69.7686,-19.342674,7.2430916,-13.678134,3.7600214,4.3427353,57.458344,-31.393324,-6.613401,-0.3341752,4.2717853,15.649049,16.98342,69.80249,49.151657,69.0361,-40.868526,-0.31976122,-26.403807,-12.120027,-77.27663,3.2052114,52.850098,26.579618,-11.315155,0.6306213
158,6.602893829345703,-99.56805419921875,74.05953216552734,4.948438137495396,0.7641244515972649,-121.7875710431707,-37.339745,14.942842,9.941063,66.83611,-17.117313,6.2942576,-12.581257,3.7596667,7.018558,56.919163,-31.384445,-5.9305954,-0.44806427,3.9383957,15.350557,12.071042,72.1832,45.38917,69.15139,-39.02998,-0.76384485,-26.00796,-11.108445,-76.92166,2.946673,50.422035,25.940817,-11.951953,0.3273429
159,6.661407470703125,-100.86474609375,74.28047943115234,5.212378949409651,0.8291526748278588,-124.6243759397988,-37.790237,14.5389,9.151759,63.60997,-14.519306,5.034387,-11.402062,3.6297283,9.714827,56.20105,-31.350348,-5.2341228,-0.57551366,3.5631726,15.0597925,6.5087123,74.352036,41.037666,69.29812,-37.206173,-1.1758854,-25.65484,-10.158919,-76.54593,2.7055838,47.94586,25.115278,-12.48939,-0.019242292
160,6.704567909240723,-102.2070083618164,74.52259826660156,5.43126199466772,0.8807789185713094,-127.48640189721061,-38.002693,13.886066,7.8655167,60.111954,-11.648115,3.4541397,-10.099907,3.4027565,12.424316,55.22944,-31.260012,-4.5185885,-0.74136686,3.1661253,14.810864,0.48553234,76.23446,36.169823,69.42392,-36.01243,-1.4683313,-25.59172,-9.290693,-76.12723,2.501354,45.445354,24.277803,-12.9233055,-0.30016974
161,6.733083724975586,-103.56874084472656,74.77263641357422,5.592654342256888,0.9015530709299477,-130.36288790400812,-37.920242,12.888487,5.857639,56.193977,-8.32983,1.2943411,-8.665974,3.0940673,15.152722,53.9541,-31.111374,-3.762411,-0.9801431,2.760809,14.62227,-5.8799386,77.74479,30.960825,69.49961,-35.55763,-1.6106098,-25.904501,-8.5481205,-75.64994,2.3567216,42.90174,23.39238,-13.215704,-0.5217251
162,6.733842849731445,-104.96277618408203,75.02552032470703,5.721495918479533,0.9006454635413299,-133.25524936297552,-37.501816,11.632495,3.1575637,51.87225,-4.6589904,-1.3778646,-7.148848,2.6596189,17.905739,52.431442,-30.919743,-2.97843,-1.3047906,2.3398657,14.492571,-12.32799,78.8245,25.686687,69.419014,-35.539658,-1.6644725,-26.437452,-7.968386,-75.12622,2.29714,40.303608,22.377821,-13.384554,-0.7364669
163,6.7056379318237305,-106.38317108154297,75.27732849121094,5.8378116521858425,0.8948994337176652,-136.19639447528044,-36.74386,10.380037,0.07826723,47.433964,-1.1098976,-4.046726,-5.604561,2.0556824,20.68096,50.744015,-30.661236,-2.2103455,-1.6912235,1.912162,14.414506,-18.404913,79.47241,20.629572,69.027695,-35.9428,-1.6916718,-27.074484,-7.552781,-74.596596,2.3458066,37.70363,21.343136,-13.515038,-0.9003337
164,6.631991863250732,-107.83168029785156,75.53531646728516,5.954584917167478,0.9050153890174246,-139.22083561426393,-35.717968,9.387942,-2.9668138,43.18255,1.9294707,-6.1648316,-4.09386,1.2551312,23.47217,48.959404,-30.301918,-1.4916023,-2.0990472,1.4934177,14.36923,-23.743727,79.73829,15.989004,68.21397,-36.750347,-1.7488784,-27.706991,-7.2821918,-74.11424,2.5138414,35.162613,20.406464,-13.692052,-0.9652533
165,6.533548831939697,-109.30087280273438,75.7866439819336,6.057716054801664,0.9191097012723923,-142.35740522604053,-34.43014,8.64587,-6.0761194,39.061222,4.414958,-7.5155463,-2.5933933,0.29989088,26.348244,46.987198,-29.842482,-0.8220733,-2.4946282,1.102866,14.355443,-28.206957,79.66624,11.861039,66.98976,-38.200043,-1.8522332,-28.347233,-7.1247277,-73.69948,2.7966323,32.696953,19.5665,-13.905611,-0.945404
166,6.423412322998047,-110.79690551757812,76.02520751953125,6.143871099583957,0.931080868499565,-145.5844582186254,-32.897327,8.098323,-9.323177,34.99871,6.569858,-8.369459,-1.1350138,-0.78779143,29.279676,44.818657,-29.287819,-0.16472478,-2.8797193,0.7577561,14.360465,-31.857328,79.29828,8.277771,65.43987,-40.20341,-1.9593346,-29.02798,-7.0657964,-73.36059,3.1734755,30.294342,18.786207,-14.120782,-0.8490339
167,6.28749418258667,-112.32075500488281,76.2542724609375,6.237827328432615,0.9770370497146819,-148.8579176782268,-31.295843,7.831061,-12.200564,31.284632,8.479086,-8.934624,0.13796566,-2.0560052,32.112072,42.629597,-28.603785,0.5116946,-3.26471,0.46561408,14.343508,-34.76478,78.70994,5.193179,63.58923,-42.270664,-2.0483406,-29.686377,-7.09384,-73.1308,3.616867,27.968935,18.1404,-14.384492,-0.6157889
168,6.1289167404174805,-113.87236022949219,76.462158203125,6.3611591075988025,1.0956395163988941,-152.13451030750838,-29.795378,7.8602314,-14.213247,28.17125,10.238496,-9.4586935,1.0943153,-3.5456007,34.698208,40.58845,-27.751589,1.2393466,-3.6702523,0.22764133,14.27169,-37.065388,77.984,2.5033574,61.47702,-43.91322,-2.108036,-30.271362,-7.2076097,-73.048454,4.105157,25.729935,17.715815,-14.744643,-0.17941236
169,5.945821285247803,-115.43299102783203,76.65076446533203,6.569933554426774,1.3297219363036432,-155.4258459507851,-28.508444,8.1083975,-15.16217,25.680264,12.208661,-9.82876,1.7140508,-5.303581,37.24475,38.664963,-26.70076,2.0041523,-4.0937095,-0.016448988,14.098731,-38.82974,77.17272,0.113530226,59.13473,-45.022587,-2.1337924,-30.80124,-7.393858,-73.11743,4.625042,23.56834,17.585669,-15.220366,0.48613864
170,5.751424789428711,-116.99708557128906,76.82071685791016,6.835329976800196,1.6599358605932986,-158.7461350927965,-27.361895,8.47106,-15.300309,23.707922,14.244102,-10.003376,2.0217242,-7.2457795,39.767532,36.767513,-25.459055,2.8085673,-4.5247154,-0.2636991,13.848553,-40.114758,76.30102,-2.0421386,56.5861,-45.863518,-2.1360402,-31.307604,-7.6291084,-73.32133,5.167835,21.472025,17.712414,-15.781344,1.351446
171,5.552089691162109,-118.59129333496094,76.97726440429688,7.042003870173987,2.0185320737359933,-162.06621282977372,-26.192808,8.946319,-14.84246,22.245188,15.709428,-10.355604,2.000349,-9.203017,41.848618,34.989647,-24.037773,3.6877103,-4.9757175,-0.41451886,13.610421,-41.10692,75.39472,-4.0552874,53.891766,-46.47867,-2.1314826,-31.766357,-7.917814,-73.6676,5.7332177,19.43454,18.017235,-16.393085,2.401904
172,5.331885814666748,-120.19715118408203,77.09950256347656,7.070780956234972,2.3209634590044326,-165.36434815498734,-24.786997,9.580838,-14.011668,21.190784,16.01973,-11.267792,1.6950747,-11.038827,43.05837,33.406624,-22.430914,4.673617,-5.4451456,-0.3553166,13.477524,-41.97684,74.47706,-6.0289216,51.111156,-46.933628,-2.135687,-32.154755,-8.26435,-74.17706,6.324695,17.453856,18.426783,-17.020708,3.6257157
173,5.134342670440674,-121.82154846191406,77.2330551147461,6.830188988843967,2.5157024689845926,-168.67191031965083,-22.922228,10.483521,-12.76913,20.5208,14.7928915,-13.249471,1.1952759,-12.700629,43.407074,32.080143,-20.546232,5.8589263,-5.9120646,0.016823206,13.489476,-42.768906,73.55871,-8.047694,48.25781,-47.16288,-2.142939,-32.496365,-8.667852,-74.88151,6.939245,15.539945,18.994934,-17.713495,5.1600103
174,4.89025354385376,-123.47380828857422,77.33187866210938,6.555065549062095,2.621636098111418,-171.9677030515268,-20.644373,11.432133,-10.496689,20.103369,12.503752,-15.000033,0.5340835,-14.477688,43.115284,30.952219,-18.414297,7.18535,-6.3983445,0.47943848,13.593132,-43.47132,72.641014,-10.128902,45.33254,-47.16867,-2.1532705,-32.79817,-9.113527,-75.7779,7.567791,13.6797905,19.767506,-18.453646,6.977761
175,4.575445175170898,-125.15479278564453,77.34169006347656,6.487792010348902,2.6955615182822017,-175.15001620203373,-18.23807,12.01286,-7.1279807,19.779263,9.839708,-15.000033,-0.33943897,-16.5919,42.03038,29.980421,-16.209326,8.435194,-6.9702706,0.78010356,13.719878,-44.168358,71.72673,-12.254743,42.384384,-47.1036,-2.18546,-33.01475,-9.589837,-76.82077,8.206471,11.836694,20.636686,-19.117191,8.810441
176,4.2193756103515625,-126.80570983886719,77.28903198242188,6.324990695200235,2.8358077795190164,-178.25093942180513,-16.26095,12.459576,-3.9157605,19.85988,7.194583,-15.000033,-1.5714232,-18.499393,39.981026,29.269575,-14.059815,9.283016,-7.5888753,1.158309,13.853921,-45.013405,70.81313,-14.427433,39.512695,-47.097107,-2.2478259,-33.105637,-10.117259,-77.94457,8.866972,9.973494,21.462421,-19.596645,10.377429
177,3.885249137878418,-128.39105224609375,77.27082061767578,6.0305197316807755,3.0129701164336864,178.69944033477464,-14.726058,12.916309,-0.84543604,20.421656,4.481826,-15.000033,-3.15897,-20.303493,36.625298,28.909365,-12.045628,9.809411,-8.205917,1.6206621,14.028809,-45.996212,69.936226,-16.736563,36.61416,-47.250275,-2.353055,-33.02005,-10.691689,-79.14973,9.576385,8.127055,22.219856,-19.868053,11.593625
178,3.564735174179077,-129.90408325195312,77.30744171142578,5.628336836022568,3.1806131728595335,175.66639250015464,-13.390717,13.426475,2.363942,21.409294,1.4661224,-15.000033,-4.943055,-22.13746,32.130836,28.910742,-10.127081,10.070622,-8.820043,2.1488707,14.278253,-47.123966,69.102516,-19.20603,33.71937,-47.466934,-2.4863663,-32.799988,-11.341851,-80.435776,10.344009,6.3074737,22.949312,-19.997074,12.602351
179,3.255286455154419,-131.37429809570312,77.3822021484375,5.184078754336455,3.3516315956770475,172.62314605527558,-12.18261,13.9702635,5.707421,22.598848,-1.5190964,-15.000033,-6.753346,-23.916904,27.08515,29.16567,-8.3413725,9.802914,-9.4024725,2.6905723,14.56162,-48.31997,68.27589,-21.664698,30.934612,-47.655174,-2.640342,-32.526573,-12.056725,-81.71842,11.124309,4.498965,23.578281,-20.028332,13.453297
180,2.9127037525177,-132.8131866455078,77.4502944946289,4.762953937419709,3.557128926223845,169.5595756448978,-11.072024,14.48552,9.134716,23.774925,-4.126849,-15.000033,-8.496209,-25.536848,22.057072,29.52502,-6.726893,8.759399,-9.970557,3.1857824,14.846383,-49.601135,67.40293,-23.959673,28.441149,-47.698498,-2.7961388,-32.281616,-12.853314,-82.880516,11.870814,2.6654782,24.008926,-20.008085,14.198382
181,2.554062843322754,-134.2296905517578,77.5163803100586,4.411070323667989,3.827790677242002,166.5453594160336,-10.131012,14.903537,12.78785,24.958948,-6.299223,-14.583855,-10.357168,-27.155886,16.83952,30.110918,-5.3262324,6.352937,-10.548985,3.575372,15.071344,-50.938995,66.47197,-26.059248,26.193268,-47.471252,-2.9628623,-32.075424,-13.742342,-83.86086,12.580642,0.8503565,24.089514,-19.938936,14.809201
182,2.1953320503234863,-135.621826171875,77.61661529541016,4.259593913160794,4.1777660916633215,163.6465261519195,-9.310053,14.9549,16.711826,25.997732,-8.097097,-13.0382805,-12.28601,-29.13173,11.1250105,30.955168,-4.3462925,2.9279559,-11.208812,3.7242901,15.201115,-52.40849,65.494255,-28.085413,24.174414,-47.051315,-3.1352732,-31.870136,-14.752561,-84.66495,13.298219,-0.92646676,23.86782,-19.808737,15.277176
183,1.8381836414337158,-136.9769744873047,77.76070404052734,4.10949649987674,4.555965620215754,160.67873225885597,-8.528876,14.929355,20.486275,26.92952,-9.594577,-11.615355,-13.861206,-30.974483,5.3783784,31.736605,-3.853932,-0.40145388,-11.790122,3.8166518,15.294782,-53.886333,64.462975,-30.000973,22.384346,-46.645348,-3.3068004,-31.66586,-15.833762,-85.27458,14.029028,-2.661835,23.551006,-19.645472,15.679721
184,1.4481593370437622,-138.2855224609375,77.93457794189453,3.9353666124043984,4.932976597805097,157.52945200368734,-7.671086,14.827531,23.844482,27.582705,-10.735549,-10.666786,-14.787546,-32.29772,0.2105748,32.060375,-3.581533,-2.4104722,-12.197361,3.888073,15.363014,-55.206497,63.37341,-31.722973,20.791418,-46.44283,-3.4714618,-31.462254,-16.91147,-85.66853,14.754997,-4.361593,23.341175,-19.474623,16.091366
185,1.0561797618865967,-139.5529327392578,78.12226104736328,3.7323196715248668,5.317120080208321,154.16372171747838,-6.722224,14.674743,26.74364,27.902273,-11.423542,-10.382363,-15.094417,-32.835762,-4.1477895,31.607944,-3.2278442,-2.5167391,-12.415929,3.9414146,15.40114,-56.321415,62.217472,-33.176105,19.394255,-46.481163,-3.6291347,-31.266586,-17.982231,-85.81239,15.439633,-6.0633273,23.22406,-19.2587,16.537243
186,0.6533349752426147,-140.7672576904297,78.32466125488281,3.4981779698711604,5.72146169372166,150.63664331050003,-5.7703304,14.492855,29.33706,28.01087,-11.710787,-10.533576,-15.070089,-32.717888,-7.935041,30.558876,-2.7930095,-1.4245908,-12.494016,3.963906,15.408517,-57.326736,61.00109,-34.416595,18.203917,-46.66277,-3.781175,-31.07969,-19.069384,-85.71598,16.089712,-7.748528,23.108599,-19.000399,16.974777
187,0.23451390862464905,-141.93896484375,78.5436019897461,3.220387125942517,6.12076946308707,146.96812509078998,-4.8568435,14.268198,31.650084,27.99871,-11.757192,-10.8462515,-14.887971,-32.142574,-11.1916275,29.256563,-2.3403208,0.13599809,-12.436464,3.9688964,15.406141,-58.258076,59.745377,-35.542034,17.203571,-46.97163,-3.9270763,-30.892971,-20.133429,-85.43587,16.75179,-9.348651,23.095709,-18.782211,17.370815
188,-0.17856132984161377,-143.07615661621094,78.77386474609375,2.8885183736210593,6.487151469838494,143.17408102963614,-4.01972,13.989339,33.70315,27.950546,-11.727584,-11.050089,-14.666775,-31.32802,-13.992607,28.10634,-1.9444194,1.4442147,-12.25412,3.976831,15.419612,-59.142094,58.479538,-36.638134,16.37232,-47.39958,-4.0659986,-30.697485,-21.148052,-85.050026,17.485735,-10.8042145,23.298553,-18.68367,17.691668
189,-0.6036480665206909,-144.1929473876953,79.01764678955078,2.4949968401164915,6.813249166979801,139.19399030912572,-3.216116,13.690827,35.70034,27.85703,-11.613957,-11.12708,-14.430774,-30.1994,-16.281,27.18773,-1.6493063,2.4205918,-11.918567,4.0165977,15.471789,-59.914555,57.216385,-37.639748,15.677081,-48.031143,-4.1986895,-30.487238,-22.103687,-84.5763,18.296629,-12.141254,23.839542,-18.737677,17.907421
190,-1.0632588863372803,-145.28009033203125,79.27195739746094,2.0542884478652486,7.103099731486502,135.03462663614286,-2.4434044,13.365431,37.567444,27.679165,-11.3449,-11.199751,-14.166225,-28.689268,-18.01972,26.264845,-1.4132463,3.4109025,-11.448816,4.073352,15.551575,-60.56221,55.96245,-38.499302,15.110881,-48.849686,-4.326255,-30.270447,-23.013765,-84.00174,19.159195,-13.388592,24.646738,-18.897236,18.037117
191,-1.5195506811141968,-146.3335723876953,79.5407485961914,1.58711489035756,7.348209114359024,130.80654614123605,-1.8049636,12.965794,38.905853,27.463894,-10.998584,-11.2124405,-13.875262,-27.03239,-19.349241,25.342833,-1.1617411,4.343826,-10.92407,4.110735,15.63352,-61.152878,54.734543,-39.30308,14.679473,-49.68599,-4.449917,-30.057476,-23.896078,-83.36267,20.096745,-14.492723,25.54773,-19.120344,18.123674
192,-1.9872807264328003,-147.3480224609375,79.80690002441406,1.10925021048783,7.545655980973897,126.61740148906004,-1.4087584,12.469085,39.317062,27.27154,-10.658498,-11.111586,-13.526934,-25.45674,-20.423388,24.442425,-0.814258,5.1491833,-10.422355,4.107449,15.694741,-61.749332,53.54774,-40.130352,14.390895,-50.379955,-4.5709453,-29.857327,-24.788328,-82.72018,21.147947,-15.403806,26.384014,-19.364511,18.20585
193,-2.4635720252990723,-148.31997680664062,80.06028747558594,0.6113133431687602,7.686422084294932,122.47144110413211,-1.2948619,11.898411,38.65921,27.164433,-10.323669,-10.872769,-13.032991,-23.953024,-21.244423,23.584766,-0.3229465,5.822105,-9.960108,4.0838695,15.757596,-62.3319,52.405933,-40.952755,14.247639,-50.899136,-4.695807,-29.668753,-25.678022,-82.11216,22.322409,-16.13621,27.20532,-19.64767,18.281979
194,-2.9365904331207275,-149.24697875976562,80.29647827148438,0.09243159840145436,7.772749838619109,118.31068706959636,-1.3934553,11.271241,37.16806,27.113451,-9.960536,-10.529588,-12.404264,-22.420357,-21.75559,22.767159,0.267354,6.3983593,-9.499175,4.06307,15.831785,-62.842865,51.309383,-41.7054,14.214375,-51.32212,-4.8219466,-29.487516,-26.546648,-81.54152,23.592062,-16.725554,28.086903,-19.983868,18.330074
195,-3.429689884185791,-150.14698791503906,80.5128402709961,-0.4229155023205209,7.825172238292007,114.14609648422486,-1.6445211,10.560401,35.01271,27.049105,-9.60458,-10.115804,-11.747536,-20.95853,-22.025452,21.999592,0.8940904,6.86835,-9.033382,4.034003,15.8767,-63.325783,50.26929,-42.43784,14.267068,-51.684162,-4.936115,-29.318985,-27.436266,-81.019485,24.946554,-17.153019,28.91041,-20.324348,18.35587
196,-3.9333159923553467,-150.99801635742188,80.70614624023438,-0.9156606413810728,7.867156890687783,109.98766818204214,-1.9863218,9.7390175,32.357918,26.902712,-9.2918005,-9.661219,-11.168756,-19.667305,-22.129845,21.289057,1.494406,7.220595,-8.557613,3.9836328,15.852747,-63.821285,49.299145,-43.19885,14.37891,-52.022144,-5.0257487,-29.167208,-28.396769,-80.55647,26.381348,-17.399952,29.558601,-20.62101,18.361153
197,-4.4252095222473145,-151.8176727294922,80.87751770019531,-1.3854760745880168,7.905356418575384,105.84559307595076,-2.4532082,8.742315,28.923035,26.6816,-9.027886,-9.132834,-10.634971,-18.594006,-22.141277,20.661598,2.0272474,7.4210463,-8.086651,3.908413,15.751687,-64.31723,48.405125,-43.995544,14.546858,-52.3405,-5.079859,-29.045364,-29.431414,-80.163864,27.906366,-17.451988,29.959654,-20.872173,18.327532
198,-4.919931888580322,-152.59361267089844,81.03472137451172,-1.846689014758536,7.930609573172485,101.70199333494152,-3.0149655,7.57473,24.7398,26.446888,-8.792475,-8.523255,-10.098719,-17.683414,-22.014692,20.13116,2.5267944,7.484146,-7.6175714,3.8215964,15.599896,-64.80054,47.590332,-44.801434,14.770927,-52.63065,-5.10747,-28.946064,-30.520336,-79.84485,29.518673,-17.334812,30.193373,-21.101738,18.254078
199,-5.405048847198486,-153.3232879638672,81.16263580322266,-2.2951204591707772,7.9440110494147484,97.52215661369318,-3.5391493,6.343148,20.42789,26.202833,-8.5904875,-7.8980327,-9.652664,-16.894714,-21.649223,19.704126,3.0313787,7.471839,-7.120528,3.730711,15.411587,-65.27167,46.86245,-45.59018,15.007125,-52.882797,-5.126848,-28.840773,-31.673805,-79.59043,31.187834,-17.088821,30.364407,-21.29933,18.169872
200,-5.877643585205078,-154.0255126953125,81.26443481445312,-2.731729795540591,7.946943782307372,93.27052445602222,-3.9352016,5.1868205,16.59313,25.928919,-8.430204,-7.3227863,-9.387689,-16.185532,-20.94492,19.381025,3.5824318,7.4463,-6.566105,3.639543,15.200112,-65.74473,46.23396,-46.34785,15.215829,-53.094955,-5.156097,-28.700949,-32.895184,-79.386246,32.876053,-16.75488,30.574865,-21.453259,18.108109
201,-6.359317302703857,-154.6897430419922,81.34211730957031,-3.1653428611202292,7.950771230682269,88.90075671051673,-4.2081065,4.120673,13.182902,25.544472,-8.319708,-6.824709,-9.329833,-15.522826,-19.76383,19.150282,4.2308087,7.444104,-5.9276285,3.5507386,14.953423,-66.21713,45.71749,-47.084858,15.3737,-53.254997,-5.2084947,-28.486185,-34.202286,-79.2359,34.610043,-16.317778,30.821579,-21.548847,18.060555
202,-6.824695110321045,-155.33279418945312,81.40886688232422,-3.596922876913069,7.9516883148547715,84.43292089500405,-4.4157624,3.1002157,9.931079,25.085358,-8.259341,-6.357904,-9.427162,-14.932022,-18.203703,19.033113,4.9361277,7.423979,-5.230322,3.4598022,14.672113,-66.68015,45.320915,-47.80722,15.488527,-53.37288,-5.2712364,-28.220797,-35.601486,-79.14117,36.409058,-15.768885,31.05707,-21.596172,18.014446
203,-7.284853458404541,-155.9521484375,81.45848846435547,-4.011478916805748,7.930026591836118,79.93069551181932,-4.591585,2.1946626,7.115201,24.680895,-8.250156,-5.885571,-9.657005,-14.450956,-16.519676,19.072649,5.5953097,7.332456,-4.5228314,3.3589084,14.388237,-67.130226,45.04881,-48.49204,15.564531,-53.467545,-5.323575,-27.972496,-37.051624,-79.079315,38.19619,-15.163088,31.316227,-21.618544,18.002928
204,-7.73015022277832,-156.55706787109375,81.48734283447266,-4.389955250799593,7.868778965743099,75.45781070702924,-4.7848163,1.4698606,5.0169725,24.461359,-8.289998,-5.378038,-9.998764,-14.119818,-14.96564,19.301483,6.110979,7.117857,-3.849421,3.2353313,14.13588,-67.584236,44.90416,-49.134327,15.6156025,-53.564415,-5.3439827,-27.808464,-38.470425,-79.019196,39.851875,-14.559801,31.627241,-21.635382,18.066566
205,-8.156594276428223,-157.14456176757812,81.50253295898438,-4.719889334656086,7.7855102050422875,70.98613076062891,-5.0304127,0.95449394,3.7867856,24.408829,-8.379066,-4.817707,-10.510279,-13.918346,-13.423145,19.746391,6.4206433,6.7116847,-3.1945856,3.0759795,13.9100065,-68.068695,44.893967,-49.743557,15.638771,-53.634647,-5.3062134,-27.777159,-39.82644,-78.9467,41.319378,-13.9674635,31.983944,-21.633904,18.251293
206,-8.566676139831543,-157.7103271484375,81.50083923339844,-5.010701418342751,7.6882674286150445,66.4856654909085,-5.32101,0.6144118,3.245944,24.44758,-8.513744,-4.2287536,-11.181128,-13.819911,-11.819632,20.362795,6.600336,6.1610117,-2.5410843,2.8807442,13.700058,-68.59727,45.023243,-50.353527,15.634082,-53.69179,-5.2270985,-27.830448,-41.123867,-78.86685,42.62388,-13.360801,32.36433,-21.603811,18.533241
207,-8.96660041809082,-158.2525177001953,81.49493408203125,-5.2671289461241,7.547129376183804,62.01827799531987,-5.6417847,0.4154915,3.1874301,24.62286,-8.689146,-3.6484227,-11.89653,-13.873305,-10.47114,21.081774,6.755906,5.586746,-1.9308696,2.6577811,13.530915,-69.0993,45.282463,-50.94742,15.591867,-53.768955,-5.1519165,-27.889217,-42.31943,-78.778275,43.75441,-12.753027,32.778797,-21.569052,18.850237
208,-9.355714797973633,-158.77426147460938,81.47813415527344,-5.489189480419033,7.331970094363895,57.64748428435477,-5.96946,0.32170057,3.404692,24.97522,-8.897348,-3.11571,-12.54814,-14.14487,-9.691197,21.845007,6.9839945,5.1067753,-1.4016585,2.4150145,13.4254875,-69.53923,45.652935,-51.52643,15.526831,-53.915318,-5.1259913,-27.876907,-43.359768,-78.680145,44.689995,-12.157749,33.23835,-21.553408,19.142593
209,-9.731424331665039,-159.2764892578125,81.4438247680664,-5.65558975135843,7.036288757885074,53.369619666833806,-6.3140283,0.35985318,4.0249224,25.541172,-9.14261,-2.6251988,-13.121405,-14.713191,-9.597294,22.66863,7.4065228,4.8075953,-0.95028526,2.1459517,13.395297,-69.928795,46.11946,-52.100502,15.466136,-54.17267,-5.16757,-27.76926,-44.205875,-78.56929,45.38201,-11.5747595,33.759373,-21.56058,19.413511
210,-10.089162826538086,-159.76930236816406,81.40084075927734,-5.763017469460323,6.682167256667173,49.14816350499131,-6.675038,0.54301906,5.093744,26.284351,-9.4304285,-2.1610053,-13.660813,-15.541104,-10.006096,23.563696,7.9415092,4.602621,-0.5531669,1.8471364,13.424439,-70.316895,46.673393,-52.690144,15.42515,-54.51067,-5.2516856,-27.610378,-44.87012,-78.452065,45.831944,-10.999317,34.329407,-21.576365,19.693096
211,-10.410806655883789,-160.24081420898438,81.34688568115234,-5.834753110300195,6.2793932549110085,45.000707451395485,-7.0148883,0.8092169,6.2849336,27.142052,-9.7561035,-1.7411807,-14.156868,-16.536493,-10.778831,24.493895,8.367377,4.347947,-0.21266526,1.5377178,13.493733,-70.677055,47.30071,-53.27266,15.376594,-54.837105,-5.360412,-27.426647,-45.37138,-78.34019,46.094288,-10.436707,34.91266,-21.601252,19.956865
212,-10.714011192321777,-160.6922607421875,81.27764892578125,-5.897747007282617,5.83467498143334,40.9472252557058,-7.307344,1.0937259,7.2739906,28.062202,-10.113843,-1.3850542,-14.60188,-17.599228,-11.781309,25.42071,8.459047,3.9005954,0.06400742,1.2408987,13.584559,-71.02237,47.985588,-53.846424,15.318529,-55.088844,-5.4735947,-27.245554,-45.756252,-78.24745,46.251957,-9.889345,35.477303,-21.63756,20.176725
213,-10.996525764465332,-161.12750244140625,81.19297790527344,-5.955342412829397,5.337176160965763,37.00798688523652,-7.5900497,1.4089375,7.998174,29.116522,-10.506515,-1.0864701,-14.956759,-18.769094,-13.113628,26.355427,8.049587,3.1707463,0.259139,0.96736264,13.698741,-71.31812,48.716305,-54.393353,15.250058,-55.20461,-5.603019,-27.06447,-46.027073,-78.17782,46.314495,-9.342797,36.076836,-21.707521,20.332394
214,-11.25031566619873,-161.540283203125,81.10039520263672,-5.989790567851417,4.787798517198282,33.15803816802418,-7.862849,1.7864727,8.619643,30.307976,-10.937195,-0.83378285,-15.214186,-20.078808,-14.802245,27.31198,7.281695,2.2599566,0.3793124,0.7099475,13.845348,-71.639046,49.48471,-54.955517,15.221219,-55.266926,-5.7518053,-26.874695,-46.18964,-78.1316,46.268017,-8.799956,36.71099,-21.80551,20.439133
215,-11.474787712097168,-161.92361450195312,80.99110412597656,-5.998133608769265,4.209006503449753,29.351916117900362,-8.042576,2.1834238,9.15475,31.465265,-11.393652,-0.64360154,-15.432477,-21.410118,-16.602854,28.263182,6.3948846,1.3121606,0.476963,0.45962417,13.992205,-71.89391,50.28086,-55.467377,15.159891,-55.25846,-5.894498,-26.689552,-46.266117,-78.11581,46.150894,-8.272415,37.273575,-21.89398,20.523432
216,-11.665761947631836,-162.28076171875,80.87837982177734,-5.979270884274502,3.6237247418669583,25.544757567551606,-8.047417,2.5513728,9.623847,32.41791,-11.863487,-0.53762865,-15.683736,-22.646202,-18.27692,29.175322,5.641103,0.45923623,0.58397573,0.21489803,14.119152,-72.11703,51.09513,-55.929493,15.072232,-55.24634,-6.000854,-26.525433,-46.33069,-78.14242,46.044743,-7.7789574,37.665623,-21.936827,20.60594
217,-11.81576919555664,-162.6115264892578,80.76141357421875,-5.925214806160355,3.016671861373297,21.724212664558465,-7.839697,2.8385916,9.928136,33.107494,-12.348847,-0.5305147,-15.9803915,-23.803532,-19.797998,30.048552,5.059028,-0.2921811,0.70137393,-0.032073814,14.231121,-72.32581,51.915363,-56.340454,14.994844,-55.22323,-6.058028,-26.39419,-46.429085,-78.2211,46.00918,-7.3144355,37.889416,-21.928335,20.714468
218,-11.935297012329102,-162.92617797851562,80.63568115234375,-5.836027950800317,2.3850021644367376,17.905329273706002,-7.4743147,3.0841024,10.094048,33.633053,-12.853277,-0.613447,-16.292446,-24.928713,-21.282738,30.903698,4.5255795,-1.005184,0.8228338,-0.26984623,14.326391,-72.456696,52.73776,-56.670227,14.90121,-55.139515,-6.085032,-26.286089,-46.53101,-78.34988,46.018215,-6.8615265,37.996284,-21.890915,20.824125
219,-12.016199111938477,-163.23141479492188,80.5101547241211,-5.728951311617261,1.7686487765726806,14.08640175943807,-7.0036583,3.3696666,10.331504,34.054363,-13.362672,-0.7761363,-16.647413,-25.946856,-22.709875,31.746492,4.0578337,-1.6628913,0.94111526,-0.47574544,14.396648,-72.54648,53.56196,-56.94473,14.783504,-55.06192,-6.0947723,-26.1852,-46.62749,-78.52062,46.03531,-6.4349174,37.949707,-21.828184,20.87822
220,-12.057711601257324,-163.5301513671875,80.3927993774414,-5.6258629764444645,1.2048258289807992,10.265904103188806,-6.4766226,3.773286,10.851911,34.431767,-13.863537,-1.0061642,-17.08085,-26.78865,-24.053602,32.590908,3.6704183,-2.2475984,1.0541748,-0.62949514,14.429023,-72.60457,54.389668,-57.177532,14.616372,-55.041813,-6.1017995,-26.074991,-46.69773,-78.72028,46.014717,-6.0443683,37.713295,-21.74297,20.822098
221,-12.069318771362305,-163.81634521484375,80.27649688720703,-5.5524010889300275,0.700052504489288,6.40305413116386,-5.888696,4.324873,11.71804,34.768932,-14.380528,-1.3091474,-17.643068,-27.423525,-25.312042,33.43781,3.3892064,-2.749785,1.1888804,-0.71260697,14.409657,-72.61478,55.222332,-57.359985,14.398502,-55.125168,-6.120656,-25.927965,-46.752064,-78.941154,45.9532,-5.693014,37.140244,-21.609318,20.595257
222,-12.052445411682129,-164.1076202392578,80.16778564453125,-5.497689338631785,0.2298133951735093,2.5039629316976324,-5.211686,4.972241,12.821335,35.038906,-14.9080515,-1.6918093,-18.320179,-27.894648,-26.492714,34.29192,3.1990533,-3.1784227,1.3443438,-0.74338955,14.341411,-72.5522,56.063473,-57.47802,14.124906,-55.265087,-6.14162,-25.7606,-46.78071,-79.18134,45.861614,-5.364902,36.29411,-21.430218,20.247154
223,-12.014174461364746,-164.41278076171875,80.06884002685547,-5.43360969271317,-0.21266080512827976,-1.3618999077875757,-4.4570813,5.6674924,14.115769,35.259064,-15.389301,-2.1411273,-19.051558,-28.231892,-27.58657,35.165043,3.058377,-3.5421066,1.4392569,-0.75648737,14.265282,-72.52433,56.906292,-57.587616,13.849193,-55.41659,-6.137525,-25.62053,-46.769802,-79.4334,45.723576,-5.06928,35.450356,-21.25126,19.885212
224,-11.95168685913086,-164.73329162597656,79.97639465332031,-5.332048739075853,-0.6308645366259396,-5.12483750554744,-3.6356037,6.3622866,15.554152,35.44344,-15.767386,-2.6416414,-19.773146,-28.461744,-28.585888,36.065315,2.926364,-3.8501356,1.4539329,-0.7864377,14.182372,-72.495056,57.75397,-57.68627,13.507302,-55.473976,-6.088981,-25.556147,-46.612503,-79.68583,45.47141,-4.7769923,34.879013,-21.126163,19.615778
225,-11.855337142944336,-165.06492614746094,79.89775848388672,-5.187752804882235,-1.0186041572895628,-8.800083162748535,-2.7317307,7.079294,17.266693,35.601364,-16.04771,-3.1865184,-20.519106,-28.568167,-29.449287,37.017517,2.7578473,-4.083817,1.3816433,-0.8521559,14.108344,-72.55527,58.603294,-57.82368,13.132393,-55.405563,-5.971705,-25.595158,-46.3105,-79.93361,45.08686,-4.502885,34.6884,-21.07522,19.467644
226,-11.735771179199219,-165.4207000732422,79.8359603881836,-5.020301477622485,-1.3740958699995895,-12.422858851318251,-1.7342693,7.813788,19.237423,35.72408,-16.25197,-3.7846844,-21.327038,-28.540995,-30.18762,38.018536,2.5851538,-4.2364254,1.2475501,-0.9372909,14.028295,-72.67571,59.449463,-57.98702,12.72806,-55.25763,-5.8046603,-25.706459,-45.871597,-80.17531,44.57378,-4.2467136,34.717316,-21.06989,19.385181
227,-11.589600563049316,-165.78285217285156,79.78900909423828,-4.838224464608206,-1.7034357770526658,-15.951504229860538,-0.6725992,8.48381,21.19398,35.795944,-16.348486,-4.4417324,-22.12748,-28.414867,-30.87728,39.019604,2.483088,-4.338266,1.0180389,-1.025813,13.940514,-72.79674,60.28725,-58.14707,12.303024,-55.105267,-5.623472,-25.849562,-45.27252,-80.40866,43.924686,-4.0017433,34.82871,-21.088923,19.348515
228,-11.41136646270752,-166.16322326660156,79.75837707519531,-4.650545652472277,-2.0134392399337298,-19.340133657304076,0.40996546,9.021053,22.85773,35.799442,-16.305517,-5.1604586,-22.837336,-28.223444,-31.601818,39.955093,2.5363703,-4.422959,0.64524156,-1.1027286,13.852007,-72.88542,61.106285,-58.28468,11.891972,-55.03169,-5.4614344,-25.983095,-44.504105,-80.63216,43.136063,-3.7703662,34.88361,-21.109493,19.3388
229,-11.208731651306152,-166.55380249023438,79.74263763427734,-4.456686825910158,-2.3083521127900832,-22.565930387287043,1.4991466,9.4107065,24.14647,35.722416,-16.12344,-5.9452925,-23.460627,-27.990938,-32.36763,40.878796,2.7976615,-4.5093956,0.10825412,-1.171023,13.765239,-72.95255,61.901306,-58.41069,11.499247,-55.05306,-5.3164654,-26.107803,-43.554977,-80.84237,42.197495,-3.5539935,34.877823,-21.131258,19.3784
230,-10.988155364990234,-166.96890258789062,79.7448959350586,-4.2572953629717,-2.5838135189938987,-25.662597062937525,2.6060617,9.695399,25.203444,35.573013,-15.815645,-6.7910085,-24.034176,-27.688583,-33.138588,41.786915,3.2195187,-4.569686,-0.5711771,-1.2363132,13.678192,-73.02935,62.665916,-58.539825,11.130926,-55.128532,-5.1732826,-26.241486,-42.434868,-81.03627,41.110558,-3.3548498,34.874146,-21.163969,19.468807
231,-10.731441497802734,-167.42230224609375,79.77325439453125,-4.060936566363574,-2.8354995488770642,-28.66598566183188,3.7186732,9.900902,26.085224,35.370853,-15.375232,-7.6859355,-24.518145,-27.27663,-33.93404,42.528057,3.73403,-4.5772414,-1.3447602,-1.2850645,13.570677,-73.06437,63.393345,-58.64292,10.777537,-55.247738,-5.048125,-26.369993,-41.13537,-81.21326,39.882523,-3.1554692,34.83711,-21.202116,19.55807
232,-10.451287269592285,-167.89797973632812,79.81544494628906,-3.8759718552164326,-3.0592871230434655,-31.608955501577274,4.8298316,10.048652,26.848347,35.129723,-14.792497,-8.618731,-24.869999,-26.72107,-34.771736,42.955185,4.2689247,-4.514743,-2.1763804,-1.3025732,13.431861,-73.01121,64.07401,-58.684605,10.445263,-55.39977,-4.9555955,-26.478792,-39.66096,-81.374306,38.526512,-2.9478753,34.733727,-21.240038,19.59319
233,-10.153343200683594,-168.40414428710938,79.87416076660156,-3.7225777292345077,-3.2459351848198916,-34.48772773545013,5.9628634,10.145774,27.492916,34.789925,-14.086414,-9.624063,-25.0862,-25.972485,-35.62815,43.010387,4.8085947,-4.358805,-3.0727754,-1.2604268,13.251442,-72.8384,64.699554,-58.648346,10.138872,-55.61444,-4.9245358,-26.53739,-37.992252,-81.51481,37.036816,-2.735354,34.517834,-21.273872,19.545368
234,-9.830647468566895,-168.94972229003906,79.95884704589844,-3.593348042456372,-3.404066181334288,-37.29124902488501,7.110254,10.18083,27.985703,34.36168,-13.255646,-10.695147,-25.184795,-25.06299,-36.500614,42.76879,5.392309,-4.1342897,-4.047984,-1.171911,13.03945,-72.57667,65.2657,-58.553883,9.865409,-55.885464,-4.937803,-26.563494,-36.135105,-81.629944,35.412235,-2.5207186,34.220825,-21.307297,19.447208
235,-9.500802040100098,-169.52134704589844,80.05665588378906,-3.4536919960444914,-3.5543033852360475,-40.03930236558781,8.216667,10.147077,28.331385,33.972538,-12.266173,-11.759496,-25.152454,-24.081114,-37.43852,42.28895,6.0271573,-3.902456,-5.070495,-1.0846382,12.810634,-72.26765,65.771545,-58.42176,9.6244955,-56.14895,-4.9416866,-26.615286,-34.131393,-81.723625,33.678288,-2.2886202,33.925976,-21.346321,19.33699
236,-9.160802841186523,-170.13143920898438,80.16735076904297,-3.267567606009198,-3.7136779464823326,-42.75165128636389,9.226451,10.038866,28.534481,33.753815,-11.087879,-12.745991,-24.974514,-23.113943,-38.491623,41.630146,6.7215023,-3.7232666,-6.1114583,-1.0436614,12.579436,-71.94842,66.21793,-58.264366,9.415219,-56.33968,-4.882295,-26.750376,-32.030872,-81.80386,31.868313,-2.0259762,33.719738,-21.39866,19.251247
237,-8.812603950500488,-170.77821350097656,80.29066467285156,-3.041268043318305,-3.8694815955102495,-45.44982595669484,10.2001505,9.874166,28.74606,33.6416,-9.677375,-13.7390785,-24.650908,-22.115765,-39.677235,40.721237,7.478934,-3.6342537,-7.1526713,-1.0306756,12.339064,-71.59211,66.60221,-58.041245,9.227572,-56.41909,-4.745147,-26.988813,-29.829197,-81.87126,29.987762,-1.7230856,33.67389,-21.483007,19.209219
238,-8.46812915802002,-171.45742797851562,80.42430114746094,-2.7897278161556422,-4.015126224587929,-48.12116555860826,11.137903,9.648644,28.9025,33.60336,-8.068886,-14.747245,-24.187433,-21.051199,-40.962765,39.553326,8.297558,-3.5982468,-8.214258,-1.0261765,12.084451,-71.183205,66.92292,-57.75083,9.064948,-56.42729,-4.558671,-27.298769,-27.513878,-81.92117,28.032547,-1.3907572,33.73037,-21.59077,19.186478
239,-8.107599258422852,-172.16200256347656,80.56004333496094,-2.354061257629594,-4.1167386722854085,-50.667354508002184,11.8600025,9.121477,28.754559,33.66993,-6.2659764,-15.000033,-23.7089,-20.254011,-42.2557,38.430317,9.135832,-3.5336215,-9.384874,-1.1991935,11.751558,-70.77935,67.18808,-57.47461,8.936091,-56.418537,-4.33514,-27.66017,-25.118166,-81.955315,26.019964,-1.0417038,33.779503,-21.690071,19.153688
