liuchenxu125/GMR/soma-retargeter/assets/motions/csv/high_jump_R_001__A277.csv
Frame,root_translateX,root_translateY,root_translateZ,root_rotateX,root_rotateY,root_rotateZ,left_hip_pitch_joint_dof,left_hip_roll_joint_dof,left_hip_yaw_joint_dof,left_knee_joint_dof,left_ankle_pitch_joint_dof,left_ankle_roll_joint_dof,right_hip_pitch_joint_dof,right_hip_roll_joint_dof,right_hip_yaw_joint_dof,right_knee_joint_dof,right_ankle_pitch_joint_dof,right_ankle_roll_joint_dof,waist_yaw_joint_dof,waist_roll_joint_dof,waist_pitch_joint_dof,left_shoulder_pitch_joint_dof,left_shoulder_roll_joint_dof,left_shoulder_yaw_joint_dof,left_elbow_joint_dof,left_wrist_roll_joint_dof,left_wrist_pitch_joint_dof,left_wrist_yaw_joint_dof,right_shoulder_pitch_joint_dof,right_shoulder_roll_joint_dof,right_shoulder_yaw_joint_dof,right_elbow_joint_dof,right_wrist_roll_joint_dof,right_wrist_pitch_joint_dof,right_wrist_yaw_joint_dof
0,0.010953241027891636,2.1391427516937256,78.0097885131836,-0.463769932174429,-1.4537348043815204,-88.52860900212264,2.3538487,5.29336,15.366637,10.277516,-12.029843,-3.6611745,2.066085,-5.7896533,-10.30166,12.942167,-13.01116,5.7132344,-4.2285833,0.19810702,7.5960474,-3.4323702,12.464129,-35.722218,62.922016,17.421211,-3.6252017,5.856433,-2.8657491,-11.308545,30.945095,64.28281,1.3580247,-0.4054789,-1.9554923
1,0.013543766923248768,2.1396677494049072,78.0036849975586,-0.4605448358666186,-1.4771885799357354,-88.5277453114235,2.3253465,5.310506,15.35691,10.406721,-12.126596,-3.7407246,2.0482738,-5.7920723,-10.270236,13.041494,-13.111164,5.7736983,-4.203169,0.17835915,7.6506114,-3.5027268,12.493324,-35.717846,62.956314,17.390116,-3.643779,5.775432,-3.0034683,-11.333737,31.131279,64.371445,1.2763138,-0.38026825,-1.8949467
2,0.010100523009896278,2.1419780254364014,77.9974594116211,-0.4577398788197325,-1.4991831250573713,-88.52553081642017,2.300054,5.3270884,15.346265,10.525243,-12.216587,-3.8234794,2.030799,-5.7957172,-10.238888,13.137201,-13.208133,5.832123,-4.211386,0.16060282,7.7093315,-3.5308304,12.540067,-35.663208,62.95003,17.369974,-3.6655378,5.7038217,-3.1355617,-11.37523,31.350857,64.44671,1.2083242,-0.3532372,-1.8410317
3,0.005324909929186106,2.1491494178771973,77.9891357421875,-0.45339107131471773,-1.5241541079826764,-88.52620952147052,2.2661333,5.3473516,15.337327,10.671784,-12.322599,-3.8988695,2.0101542,-5.8001585,-10.206655,13.2459545,-13.313202,5.894644,-4.187114,0.1409218,7.766016,-3.6119192,12.569533,-35.664513,62.98842,17.337595,-3.6835046,5.608438,-3.2865803,-11.402858,31.549967,64.534645,1.1291815,-0.32841235,-1.7720307
4,0.0028489052783697844,2.1523871421813965,77.97815704345703,-0.4505892919940458,-1.5559154885894158,-88.53389859749088,2.2120023,5.3759346,15.332352,10.8832,-12.466311,-3.9561517,1.9834934,-5.80491,-10.1729,13.381501,-13.435444,5.967285,-4.189871,0.122811906,7.840356,-3.6990173,12.63548,-35.677456,62.977047,17.29586,-3.6930008,5.438267,-3.4962833,-11.461801,31.847136,64.59024,1.0784136,-0.30090314,-1.6630157
5,0.00029796158196404576,2.153573513031006,77.96321868896484,-0.44920093062942407,-1.592739948843956,-88.54667394587317,2.1221921,5.4152417,15.327375,11.189329,-12.662405,-3.9857988,1.9449867,-5.8118033,-10.142063,13.555304,-13.583912,6.058672,-4.1745977,0.10286827,7.9323225,-3.819305,12.7271805,-35.732243,62.93573,17.180004,-3.6964657,5.17479,-3.7461886,-11.538027,32.159805,64.624374,1.0703769,-0.26964414,-1.4939762
6,-0.0015928458888083696,2.153545618057251,77.94902038574219,-0.4491865640220272,-1.6334191098350952,-88.56322118186277,2.0061324,5.463839,15.321999,11.5650625,-12.897136,-3.9952924,1.8989618,-5.8201985,-10.113297,13.754828,-13.749695,6.1631436,-4.151096,0.08171272,8.036913,-3.9600654,12.839475,-35.81489,62.869175,17.013584,-3.694558,4.844039,-4.0284944,-11.6260195,32.493057,64.64368,1.0939604,-0.23550288,-1.2828026
7,-0.004936052020639181,2.1580841541290283,77.93315887451172,-0.44938361542588134,-1.6831384334636639,-88.58908030384002,1.8915119,5.5192013,15.324904,11.96546,-13.150793,-3.9994771,1.8506149,-5.827904,-10.076542,13.975262,-13.925879,6.265521,-4.1222453,0.05905754,8.154727,-4.1455684,12.979636,-35.974392,62.795963,16.903322,-3.6792438,4.4716926,-4.359849,-11.734021,32.90269,64.62265,1.0796498,-0.20524566,-1.0554459
8,-0.008214034140110016,2.1649973392486572,77.91568756103516,-0.45087214707660667,-1.7466329034676717,-88.62979436701032,1.8069887,5.5777435,15.345484,12.341889,-13.401768,-4.0137377,1.8054522,-5.8327684,-10.021715,14.210644,-14.10341,6.3508186,-4.087726,0.034923423,8.28845,-4.3997574,13.157443,-36.26378,62.73172,16.954268,-3.6456897,4.082667,-4.752306,-11.874707,33.442333,64.52682,0.95890534,-0.18592107,-0.8365703
9,-0.013266894966363907,2.174414873123169,77.89794158935547,-0.4548490983269414,-1.829357241693088,-88.68743970291113,1.7593313,5.6398535,15.38716,12.695698,-13.654771,-4.039616,1.7701645,-5.8331227,-9.944149,14.458787,-14.284595,6.415842,-4.044303,0.011153737,8.445486,-4.725236,13.376548,-36.706512,62.671375,17.190659,-3.591355,3.6252153,-5.2067146,-12.05394,34.152943,64.36217,0.74811274,-0.1892694,-0.6220176
10,-0.018753763288259506,2.1827471256256104,77.8807601928711,-0.457816374392054,-1.9271461857770966,-88.75887345474398,1.7337635,5.7063675,15.4449215,13.046478,-13.916835,-4.0701613,1.7390623,-5.8302355,-9.849901,14.725023,-14.472298,6.468438,-3.9931772,-0.011275469,8.626954,-5.106111,13.636445,-37.271725,62.595375,17.557598,-3.523197,3.1031425,-5.710324,-12.269815,34.999832,64.12566,0.47464982,-0.20997061,-0.3997924
11,-0.019276894629001617,2.1948630809783936,77.86079406738281,-0.46383930775914617,-2.0308081292834435,-88.841677581302,1.7268623,5.773764,15.515501,13.375944,-14.171716,-4.1080837,1.7098105,-5.8239436,-9.7459755,14.990895,-14.655369,6.5104747,-3.9407194,-0.0357259,8.823103,-5.5362773,13.942145,-37.935627,62.49125,18.038363,-3.4438112,2.623414,-6.2549586,-12.527022,35.923283,63.76738,0.084085636,-0.22341587,-0.18227886
12,-0.01329796202480793,2.1993703842163086,77.84303283691406,-0.4678408750294635,-2.131067821655123,-88.93372180773409,1.7322341,5.839298,15.595346,13.671443,-14.406462,-4.1560087,1.6776478,-5.8150787,-9.639058,15.243957,-14.8255005,6.543603,-3.891573,-0.064804345,9.026121,-6.0086126,14.302168,-38.67866,62.341476,18.613672,-3.3537292,2.292048,-6.828455,-12.833766,36.863,63.234325,-0.47750628,-0.20886232,0.019663503
13,-0.012787953950464725,2.206211805343628,77.82823181152344,-0.4726562331665168,-2.240798672927791,-89.0362787373746,1.7677705,5.902333,15.685658,13.926992,-14.6185,-4.2193265,1.6565154,-5.8030295,-9.531005,15.483459,-14.982149,6.5599895,-3.8455286,-0.10166273,9.257055,-6.554461,14.720652,-39.564056,62.20139,19.317307,-3.2815979,2.1192951,-7.446376,-13.193564,37.85437,62.526424,-1.2152236,-0.16559447,0.23525795
14,-0.009552589617669582,2.22594952583313,77.8105239868164,-0.47592071864260405,-2.3598445337594143,-89.1498975738404,1.8352888,5.9626956,15.788266,14.138858,-14.811638,-4.295337,1.64382,-5.7876525,-9.418134,15.715742,-15.129492,6.5615463,-3.7983816,-0.14451005,9.5153885,-7.163425,15.195702,-40.58837,62.048645,20.142628,-3.2158723,2.0519078,-8.100244,-13.605499,38.915325,61.650505,-2.1033912,-0.104116015,0.46272272
15,-0.014655436389148235,2.2399165630340576,77.7957763671875,-0.4794400735846529,-2.458859546165923,-89.27120257879412,1.8907721,6.021326,15.899476,14.328746,-14.987664,-4.373886,1.612541,-5.770358,-9.299184,15.931149,-15.2620735,6.5645075,-3.7505357,-0.18918438,9.759546,-7.7604027,15.728064,-41.625202,61.7485,21.017195,-3.093498,2.0993888,-8.74282,-14.073921,39.96164,60.56536,-3.1502228,-0.017672772,0.6449425
16,-0.01585559919476509,2.263946533203125,77.78227233886719,-0.4823881292000385,-2.508707293020608,-89.39685096344652,1.8982877,6.0776405,16.016268,14.501075,-15.141931,-4.444962,1.5395992,-5.7512875,-9.173441,16.11264,-15.370653,6.58514,-3.7036045,-0.23099127,9.947231,-8.266619,16.323565,-42.544556,61.163727,21.869652,-2.8508506,2.269765,-9.326685,-14.609656,40.910374,59.22932,-4.3635716,0.10299312,0.72559845
17,-0.0070946416817605495,2.2862753868103027,77.77076721191406,-0.48303596038516383,-2.5044627793518415,-89.52775379274351,1.8479923,6.1309137,16.13891,14.663,-15.275492,-4.5055327,1.4205335,-5.7311997,-9.036919,16.255651,-15.453476,6.6329455,-3.6613219,-0.2698852,10.071462,-8.692645,16.990486,-43.35835,60.289566,22.693521,-2.4496264,2.6057181,-9.862295,-15.222798,41.758102,57.616787,-5.8682704,0.27911615,0.7131887
18,-0.00940470490604639,2.295907497406006,77.76359558105469,-0.4828285122350498,-2.460972016182854,-89.6651031845924,1.7614601,6.1809173,16.269037,14.805638,-15.387694,-4.5609565,1.268546,-5.7092423,-8.8915615,16.366665,-15.514016,6.69761,-3.6228764,-0.30704963,10.153756,-9.0599785,17.733582,-44.120197,59.174244,23.520405,-1.9246069,3.0828722,-10.3581505,-15.918665,42.54798,55.737385,-7.617509,0.5057732,0.6364094
19,-0.010246150195598602,2.316040515899658,77.7583999633789,-0.4840174525618459,-2.378236002599558,-89.80590129749666,1.6402367,6.229872,16.40384,14.929603,-15.482196,-4.6136985,1.082353,-5.684395,-8.744816,16.455124,-15.555612,6.765411,-3.584784,-0.3395874,10.193199,-9.310141,18.557192,-44.761917,57.76227,24.334213,-1.3238823,3.6092417,-10.767144,-16.70452,43.26376,53.604652,-9.365918,0.7561244,0.46750268
20,-0.012007423676550388,2.326212167739868,77.75724792480469,-0.48680171652792653,-2.256305501853013,-89.94719856524942,1.4861907,6.2798896,16.540752,15.034737,-15.562591,-4.666239,0.8608274,-5.656182,-8.604237,16.52984,-15.581222,6.8229685,-3.544503,-0.36350808,10.190314,-9.384646,19.468458,-45.207527,55.99228,25.123684,-0.69804406,4.094618,-11.042983,-17.588524,43.887417,51.222015,-10.866201,1.004333,0.17554481
21,-0.010872894898056984,2.3325693607330322,77.75687408447266,-0.4890959046902535,-2.1004790947183127,-90.09237341855287,1.3207963,6.3253756,16.685413,15.092958,-15.6187105,-4.7191873,0.6100677,-5.625696,-8.468529,16.591738,-15.589324,6.8645926,-3.50111,-0.38001916,10.139259,-9.275547,20.48179,-45.433388,53.77943,25.905727,0.003992618,4.5430956,-11.212342,-18.585682,44.473038,48.541576,-12.088513,1.2800448,-0.29517058
22,-0.009772956371307373,2.3418314456939697,77.75947570800781,-0.492360604756883,-1.908926955559015,-90.24159605264784,1.1363186,6.366489,16.837175,15.11346,-15.652557,-4.771227,0.3345893,-5.5919724,-8.33534,16.62406,-15.575875,6.898424,-3.4606183,-0.38852236,10.04311,-8.994956,21.610157,-45.463493,51.148262,26.682661,0.7903443,4.986617,-11.280963,-19.705118,45.011135,45.549973,-13.1491,1.5940136,-0.9085495
23,-0.007527921814471483,2.338712692260742,77.76432037353516,-0.5006744864125264,-1.672025328534635,-90.38722824103493,0.892488,6.4146976,16.98426,15.148696,-15.682937,-4.821859,0.0130626615,-5.553245,-8.208885,16.647415,-15.5494795,6.9307528,-3.4274654,-0.3851873,9.91583,-8.521521,22.856579,-45.294018,48.20544,27.4216,1.5427724,5.3822865,-11.179243,-20.94462,45.378223,42.310028,-14.023535,1.8862302,-1.5642394
24,-0.004923587199300528,2.3273324966430664,77.77217102050781,-0.5187767803062814,-1.379879912939325,-90.52161868057738,0.5475088,6.481741,17.114573,15.25504,-15.730606,-4.870174,-0.37142566,-5.507118,-8.093852,16.672993,-15.516546,6.968148,-3.402981,-0.36841303,9.772227,-7.8385468,24.21535,-44.918903,45.065403,28.092562,2.1402776,5.693087,-10.838344,-22.295631,45.438553,38.888653,-14.693469,2.0912955,-2.1660435
25,-0.0031475508585572243,2.3248865604400635,77.77582550048828,-0.547843340943133,-1.0205343419988362,-90.64227070626288,0.09097106,6.568733,17.226877,15.423359,-15.790493,-4.923585,-0.81774545,-5.449632,-7.9947753,16.67096,-15.467335,7.0221715,-3.3865952,-0.33918095,9.594361,-6.958363,25.692448,-44.313427,41.692387,28.679047,2.5031755,5.8909926,-10.257464,-23.762709,45.11832,35.22444,-15.118221,2.224056,-2.6337795
26,-0.00024915440008044243,2.335333824157715,77.77597045898438,-0.5851818238887205,-0.6031537797638945,-90.75358641769529,-0.45635912,6.6696653,17.326536,15.636674,-15.856379,-4.979407,-1.31737,-5.383515,-7.9082437,16.645416,-15.401722,7.0860944,-3.3731928,-0.30206335,9.388667,-5.8634615,27.294018,-43.4606,38.019787,29.203617,2.710813,6.003356,-9.448988,-25.356014,44.4677,31.279564,-15.326257,2.3051698,-3.0374916
27,0.004862307570874691,2.3381974697113037,77.7763900756836,-0.6284802975984077,-0.1494367776768524,-90.85844439218542,-1.0801771,6.7835374,17.412195,15.917487,-15.943355,-5.021605,-1.8749993,-5.3158503,-7.827158,16.655716,-15.342306,7.1388617,-3.3572829,-0.26006696,9.210956,-4.5012383,29.002232,-42.362587,34.12899,29.686197,2.8783834,6.0814996,-8.365639,-27.065767,43.530243,27.16702,-15.396982,2.272622,-3.5123858
28,0.008612259291112423,2.3417704105377197,77.77384948730469,-0.6746410888216029,0.3189467382300596,-90.95984106656512,-1.7791317,6.9135423,17.480732,16.315952,-16.071299,-5.0338993,-2.5025678,-5.2544336,-7.7438793,16.775297,-15.314243,7.159174,-3.3306298,-0.21618532,9.114305,-2.8303833,30.777637,-41.02392,30.130665,30.145065,3.1203823,6.18134,-6.961589,-28.866102,42.3434,23.021572,-15.410988,2.0643897,-4.196715
29,0.016655543819069862,2.344583511352539,77.76506805419922,-0.725288010055813,0.8096977476582671,-91.06017147074749,-2.553677,7.0609155,17.533167,16.817682,-16.242327,-5.019148,-3.1953073,-5.1951084,-7.659551,16.978477,-15.307423,7.1542273,-3.284578,-0.16342056,9.084065,-0.8436364,32.585842,-39.4187,26.063547,30.630726,3.4704754,6.3004246,-5.2193832,-30.742147,40.89733,18.871983,-15.324714,1.6119064,-5.182854
30,0.02193363383412361,2.3407962322235107,77.75739288330078,-0.7800076635850175,1.3301386478310562,-91.15739865952474,-3.4113626,7.2259164,17.568647,17.42023,-16.449951,-4.982774,-3.9524624,-5.1354637,-7.5773535,17.246902,-15.316355,7.1306677,-3.2195113,-0.10187682,9.112766,1.4595679,34.404293,-37.507343,21.87369,31.115643,3.863642,6.4215636,-3.1150305,-32.68095,39.11943,14.631038,-15.123078,0.95686924,-6.3820395
31,0.032802827656269073,2.358720541000366,77.73454284667969,-0.8375458236633273,1.859325208199429,-91.2477194075,-4.336626,7.404162,17.583776,18.133179,-16.69431,-4.912717,-4.783951,-5.082226,-7.4935126,17.64615,-15.367155,7.0659533,-3.1381361,-0.041801523,9.261649,4.1031265,36.196487,-35.286003,17.552114,31.491657,4.2649565,6.584228,-0.58225256,-34.63975,36.944107,10.280392,-14.925384,0.20056869,-7.6679406
32,0.04632026329636574,2.3806893825531006,77.7048110961914,-0.8937764685165908,2.376715473515681,-91.32711346756653,-5.3167834,7.592298,17.574778,18.971115,-16.976648,-4.7966805,-5.702479,-5.041657,-7.4039125,18.246752,-15.489065,6.937164,-3.0460536,0.011160154,9.582976,7.1001267,37.90887,-32.769527,13.1187,31.641188,4.638178,6.8330426,2.4375443,-36.543198,34.317097,5.8386602,-14.837239,-0.5513234,-8.922898
33,0.053237948566675186,2.3958475589752197,77.66339111328125,-0.9487325259873571,2.889642903996152,-91.39171459795219,-6.361553,7.788887,17.53262,19.932575,-17.2878,-4.6156535,-6.7192044,-5.013858,-7.3069043,19.054564,-15.679397,6.729184,-2.9484203,0.06757891,10.057249,10.46451,39.48479,-29.978128,8.585675,31.445913,5.051228,7.2483664,5.9614263,-38.307888,31.235426,1.3917046,-14.855783,-1.3433124,-10.270177
34,0.07277171313762665,2.4227895736694336,77.61018371582031,-1.0041316809306386,3.405649632515002,-91.44482108407905,-7.4723263,7.9944644,17.460924,21.006323,-17.628511,-4.3797374,-7.8256416,-4.994865,-7.20427,20.035349,-15.926149,6.4557657,-2.8461134,0.13756308,10.638602,14.174814,40.860474,-26.926311,4.015489,30.96879,5.4933214,7.8065577,9.922012,-39.852013,27.744625,-2.9782853,-14.900975,-2.2064512,-11.744907
35,0.08492311835289001,2.4623868465423584,77.54386138916016,-1.0579393507614525,3.9042236003290656,-91.49298868452894,-8.622106,8.209155,17.37501,22.189322,-18.013285,-4.120527,-8.996669,-4.985068,-7.0972424,21.182716,-16.235172,6.1368113,-2.7505355,0.21745633,11.309743,18.116539,41.945282,-23.689054,-0.40189162,30.348413,5.8131437,8.399445,14.218893,-41.06382,23.930384,-7.206198,-14.957816,-3.0096588,-13.106949
36,0.1025337353348732,2.511110782623291,77.45687103271484,-1.1078466229849349,4.364142889606692,-91.54274273446352,-9.784971,8.433671,17.289814,23.483206,-18.458473,-3.8696072,-10.207536,-4.9858727,-6.9862614,22.492138,-16.613392,5.79237,-2.6706855,0.29815134,12.021074,22.09946,42.62919,-20.418707,-4.3924603,29.751322,5.8684926,8.914369,18.596243,-41.815735,19.990202,-11.083726,-14.992983,-3.6227376,-14.111624
37,0.11761505156755447,2.564699649810791,77.34774017333984,-1.1486656144629803,4.764982016706374,-91.59578980205755,-10.922219,8.659712,17.211597,24.85621,-18.954565,-3.63227,-11.431026,-5.0031967,-6.8713493,23.955103,-17.061533,5.3994613,-2.6300604,0.36146423,12.712964,25.961113,42.818947,-17.266968,-7.703602,29.191786,5.4933596,9.312586,22.775606,-41.98945,16.118502,-14.325834,-15.020772,-3.9621549,-14.544283
38,0.13827162981033325,2.6190614700317383,77.21855163574219,-1.1807377746397127,5.1217034473954755,-91.64850106251589,-12.053911,8.886625,17.130896,26.311798,-19.492435,-3.3907974,-12.678879,-5.036539,-6.7494707,25.560589,-17.571758,4.955029,-2.6340501,0.39729762,13.317967,29.536053,42.48589,-14.382524,-10.222957,28.671125,4.8175244,9.645464,26.481613,-41.542015,12.540708,-16.69091,-15.106675,-4.109788,-14.565835
39,0.15716062486171722,2.69003963470459,77.06449127197266,-1.2112749077269542,5.4656169098125735,-91.6995418975901,-13.232612,9.129326,17.043272,27.88527,-20.085327,-3.1468494,-13.987933,-5.0771937,-6.61829,27.30692,-18.131655,4.509853,-2.6592948,0.40904355,13.815924,32.59031,41.680832,-11.889449,-11.900638,28.32665,4.1395874,9.92104,29.506744,-40.5409,9.439788,-18.112736,-15.304901,-4.190319,-14.476873
40,0.170562282204628,2.775496482849121,76.87728118896484,-1.2495762073551762,5.828802115250963,-91.74789045161418,-14.514703,9.403431,16.942057,29.617996,-20.748331,-2.9018404,-15.39401,-5.114478,-6.477171,29.189543,-18.732391,4.11498,-2.6738489,0.4137735,14.233637,35.03263,40.50237,-9.805479,-12.838335,28.27061,3.7548878,10.155072,31.845732,-39.128166,6.840124,-18.71151,-15.627361,-4.3239474,-14.589811
41,0.18728336691856384,2.8671133518218994,76.65636444091797,-1.2976854891079972,6.1894370132509255,-91.79914015888606,-15.871937,9.710813,16.821714,31.509161,-21.504595,-2.6524713,-16.885517,-5.140397,-6.3123083,31.232992,-19.38213,3.770382,-2.6588454,0.4220319,14.648586,36.991455,39.021053,-8.058469,-13.201609,28.546652,3.789034,10.319148,33.71981,-37.413948,4.624617,-18.62786,-16.064327,-4.5621247,-15.024064
42,0.20471036434173584,2.9691684246063232,76.38905334472656,-1.3524136984993782,6.540996962221192,-91.85201368212303,-17.29159,10.044818,16.683165,33.544754,-22.34205,-2.399227,-18.453321,-5.161483,-6.128731,33.437107,-20.086031,3.4520986,-2.6289468,0.4340757,15.08883,38.605938,37.27886,-6.557061,-13.087523,29.079952,4.0612526,10.404669,35.282333,-35.458454,2.6572049,-18.027428,-16.59103,-4.8336544,-15.59892
43,0.21893146634101868,3.0879340171813965,76.06903076171875,-1.4144426162902368,6.9388403746550615,-91.89518768974364,-18.854622,10.409464,16.528502,35.74915,-23.223988,-2.1502113,-20.1388,-5.188269,-5.9550076,35.765766,-20.830711,3.1742437,-2.6129692,0.46013612,15.510742,39.81991,35.341576,-5.253482,-12.495366,29.763214,4.4068637,10.466497,36.486404,-33.335186,0.89701307,-17.09211,-17.166016,-5.071975,-16.19597
44,0.23005104064941406,3.2093358039855957,75.70164489746094,-1.4853979802421136,7.4382532088445545,-91.91763811175815,-20.643959,10.809934,16.35964,38.150753,-24.11629,-1.9099216,-21.986113,-5.233,-5.81974,38.189617,-21.605692,2.950093,-2.6405747,0.508412,15.861044,40.57603,33.281796,-4.0963907,-11.41377,30.479181,4.6649523,10.569529,37.267845,-31.117094,-0.68555003,-15.982169,-17.739143,-5.211702,-16.701565
45,0.2474622130393982,3.3373045921325684,75.27883911132812,-1.5661034928871642,8.096933060863746,-91.92176541102387,-22.776031,11.262975,16.164492,40.844856,-25.000212,-1.6742604,-24.106112,-5.2944965,-5.6986175,40.781998,-22.37258,2.8136687,-2.7238169,0.5831494,16.077263,40.930195,31.113754,-3.0484974,-9.779011,31.267637,4.8015256,10.706567,37.650394,-28.817228,-2.1779807,-14.681566,-18.332272,-5.21824,-17.089006
46,0.26678603887557983,3.4746527671813965,74.79645538330078,-1.6567814522086683,8.87129404587034,-91.91250066050999,-25.178448,11.76139,15.940961,43.793034,-25.901943,-1.4392531,-26.448454,-5.3697777,-5.58886,43.547398,-23.157475,2.7427006,-2.8445923,0.6825565,16.201563,40.937046,28.84,-2.0880694,-7.641798,32.14707,4.9001055,10.858267,37.708057,-26.438593,-3.5939667,-13.147868,-18.936531,-5.133928,-17.424356
47,0.2848597466945648,3.6215147972106934,74.2503890991211,-1.7556332211197203,9.665298651689463,-91.88220209126938,-27.650928,12.272907,15.705875,46.825424,-26.855104,-1.2088965,-28.812346,-5.472231,-5.547439,46.34598,-24.042778,2.6675663,-2.9901452,0.8028979,16.332047,40.543312,26.52257,-1.187134,-5.167819,32.95669,4.982896,11.083382,37.439938,-24.043175,-4.836955,-11.492699,-19.444462,-5.0090013,-17.742346
48,0.3030780255794525,3.771440029144287,73.64474487304688,-1.8597653470953557,10.38304164466811,-91.82250889770373,-29.996273,12.766374,15.477507,49.777493,-27.894398,-0.98817635,-30.996756,-5.617879,-5.626298,49.03607,-25.109652,2.523097,-3.1521692,0.9382342,16.555096,39.706463,24.245436,-0.3308418,-2.5257618,33.508785,5.0784645,11.448885,36.83497,-21.714607,-5.781026,-9.8121,-19.723932,-4.887088,-18.089808
49,0.3215547800064087,3.9016242027282715,72.99485778808594,-1.9715618788363474,11.046916594070803,-91.72513275183462,-32.24377,13.259469,15.287247,52.66117,-29.030827,-0.7838232,-32.985565,-5.832725,-5.8876295,51.56614,-26.442621,2.275699,-3.3403542,1.0870034,16.809877,38.390984,22.001085,0.5496766,0.5088511,33.47574,5.1494656,12.082306,35.849037,-19.454136,-6.408842,-7.970921,-19.577347,-4.762988,-18.539307
50,0.3460344970226288,4.03108024597168,72.29815673828125,-2.0903018888384133,11.69284576427065,-91.59619301490147,-34.475185,13.761594,15.112657,55.552406,-30.252613,-0.58722633,-34.871624,-6.1072464,-6.277221,54.01567,-27.980745,1.9695494,-3.5656023,1.2482126,17.065874,36.65321,19.772266,1.4603723,3.9321055,33.030075,5.1913223,12.91806,34.48757,-17.248755,-6.7861185,-5.9344287,-19.103415,-4.619623,-19.056303
51,0.365936279296875,4.155900001525879,71.56211853027344,-2.2088451593247944,12.24503651390553,-91.44890707559361,-36.570175,14.232325,14.901235,58.38281,-31.54451,-0.39781055,-36.619797,-6.403835,-6.675255,56.445156,-29.579119,1.6594026,-3.8126972,1.4148402,17.445036,34.59526,17.654213,2.2829115,7.227506,32.703163,5.3012486,13.745301,32.80841,-15.181322,-6.8933744,-3.928084,-18.597412,-4.4775643,-19.535563
52,0.3940582871437073,4.287327289581299,70.79341125488281,-2.320140864559393,12.627853349566482,-91.29620682869573,-38.404804,14.62799,14.607726,61.07653,-32.888416,-0.21906565,-38.194004,-6.6825047,-6.968516,58.90883,-31.09066,1.3989246,-4.0587673,1.5783496,18.04259,32.315823,15.78986,2.8570247,9.908351,32.971897,5.598928,14.361244,30.848839,-13.372912,-6.6818757,-2.122185,-18.316492,-4.346494,-19.882647
53,0.4268755614757538,4.422897815704346,70.01721954345703,-2.427403444524468,12.81279143241484,-91.12736042575413,-39.95397,14.919122,14.185107,63.624146,-34.345432,-0.06901468,-39.59927,-6.935674,-7.1253657,61.4682,-32.505585,1.2274988,-4.3029733,1.7358824,18.868961,29.787062,14.229877,3.1170635,11.948898,33.907887,6.2257752,14.569913,28.513123,-11.860765,-6.044566,-0.29195037,-18.209558,-4.2304835,-19.96162
54,0.4542465806007385,4.540263652801514,69.24674987792969,-2.532717024446749,12.84353861827446,-90.93950828568268,-41.282574,15.127323,13.67749,66.06411,-35.899467,0.052619766,-40.849422,-7.180305,-7.209662,64.0757,-33.889072,1.1096793,-4.548316,1.8828758,19.838268,26.958656,12.946015,3.121854,13.643678,35.213078,7.0854754,14.513699,25.773804,-10.615932,-5.008288,1.6759344,-18.127111,-4.114267,-19.871515
55,0.47838282585144043,4.634729862213135,68.49445343017578,-2.628545487891057,12.752463340820608,-90.75704460510359,-42.40304,15.2849655,13.169926,68.38867,-37.414555,0.17620689,-41.92284,-7.408242,-7.2517915,66.61965,-35.2069,0.983109,-4.772413,2.0147681,20.888433,23.869713,11.969883,2.8677773,15.017938,36.798203,7.955025,14.498913,22.757381,-9.664857,-3.7143319,3.463177,-18.173199,-3.9774354,-19.86997
56,0.4897271692752838,4.685281753540039,67.7808609008789,-2.707155817198731,12.572044216847774,-90.60449745562853,-43.324947,15.433896,12.744916,70.58682,-38.757153,0.33333725,-42.797016,-7.6136875,-7.281176,68.985985,-36.42353,0.78458565,-4.9477243,2.1381056,21.939508,20.524954,11.362557,2.3253608,16.133095,38.5439,8.627589,14.845209,19.569727,-9.05315,-2.3057907,4.7735415,-18.430212,-3.8017514,-20.21502
57,0.5030875205993652,4.722649097442627,67.11137390136719,-2.7691381701053523,12.260875070970528,-90.48962898725196,-44.007103,15.597081,12.414875,72.68902,-39.902584,0.542456,-43.426395,-7.7952304,-7.297104,71.18061,-37.52908,0.49457514,-5.076353,2.2743828,23.009283,16.824633,11.206932,1.181219,17.09353,40.51021,9.05437,15.787473,16.180265,-8.82609,-0.6046652,5.6081905,-18.955034,-3.5913086,-21.075523
58,0.5199653506278992,4.742466926574707,66.5057373046875,-2.817943706364935,11.818524438735516,-90.39869370873035,-44.459026,15.759221,12.1329775,74.69138,-40.92185,0.78886914,-43.837685,-7.9555736,-7.284693,73.25214,-38.541462,0.14615944,-5.1425,2.437554,24.061083,12.6628895,11.464377,-0.564402,18.022411,42.663315,9.3740835,17.105152,12.506894,-8.92428,1.4173708,6.194033,-19.631784,-3.3447134,-22.280195
59,0.5407613515853882,4.754112720489502,65.95622253417969,-2.8497774523477135,11.338169443628939,-90.32423651274176,-44.76637,15.908458,11.893684,76.52885,-41.825916,1.0526173,-44.115612,-8.09503,-7.2523813,75.14984,-39.469578,-0.23964995,-5.103245,2.6138215,24.983696,8.113222,11.981874,-2.439375,18.869995,44.796154,9.655993,18.44179,8.614386,-9.224565,3.3793352,6.4621882,-20.336472,-3.0424368,-23.564938
60,0.5588240027427673,4.745977401733398,65.47258758544922,-2.861363811213488,10.91321385660933,-90.25896372499048,-45.01633,16.027306,11.694943,78.13679,-42.625374,1.312188,-44.348354,-8.213179,-7.209488,76.82669,-40.318775,-0.64294463,-4.9489384,2.7740457,25.70917,3.3436558,12.603679,-3.8907683,19.45279,46.776466,9.940813,19.43948,4.577046,-9.631692,4.8992014,6.2804375,-21.005558,-2.6705136,-24.659306
61,0.5489748120307922,4.7078752517700195,65.05152893066406,-2.8429783410152965,10.564059776808827,-90.20738042976576,-45.22111,16.107756,11.557623,79.49938,-43.30831,1.5734833,-44.55733,-8.305954,-7.150629,78.274,-41.099983,-1.089621,-4.657595,2.9103098,26.199919,-1.670902,13.2810335,-4.7898355,19.68479,48.73702,10.225022,20.029879,0.38305864,-10.155581,5.9531784,5.4605975,-21.707241,-2.1362379,-25.538443
62,0.5389490723609924,4.66395902633667,64.69075775146484,-2.800444320497782,10.24172360326155,-90.17154037828841,-45.339527,16.16083,11.475883,80.653755,-43.874805,1.8448205,-44.698933,-8.373464,-7.0745335,79.51788,-41.80711,-1.5808293,-4.2707515,3.0383677,26.48297,-7.0039697,14.047008,-5.4323435,19.704962,50.773293,10.473475,20.399961,-4.008851,-10.839334,6.7521586,4.1265655,-22.497911,-1.476107,-26.31975
63,0.5273468494415283,4.64238166809082,64.3781967163086,-2.753346695976214,9.934726206353094,-90.14070818541386,-45.372974,16.200262,11.420154,81.61249,-44.34413,2.0977938,-44.758877,-8.425205,-7.003959,80.55999,-42.42211,-2.0516992,-3.8730159,3.156595,26.604425,-12.549112,14.930661,-5.873188,19.631704,52.7125,10.657767,20.580355,-8.581699,-11.688127,7.262715,2.6356125,-23.322906,-0.8867153,-26.953854
64,0.5084362626075745,4.62424898147583,64.12276458740234,-2.720717816058483,9.63183177719987,-90.10391054804477,-45.32257,16.237438,11.362389,82.386444,-44.736156,2.302879,-44.722218,-8.470626,-6.9625506,81.40066,-42.925404,-2.437197,-3.54301,3.2582207,26.623913,-18.19372,15.957482,-6.165945,19.558529,54.38027,10.752544,20.60556,-13.341618,-12.688651,7.4650216,1.3669627,-24.143936,-0.5669428,-27.398895
65,0.4826453924179077,4.595877170562744,63.92729949951172,-2.7048779090769473,9.332091213630024,-90.06614798243858,-45.196056,16.274353,11.304144,82.98889,-45.058792,2.4572997,-44.59985,-8.505913,-6.954344,82.052826,-43.313087,-2.7189314,-3.2875955,3.3245866,26.55189,-23.9904,17.135565,-6.271686,19.427658,55.730965,10.702342,20.416964,-18.435377,-13.826033,7.3516116,0.43022338,-25.034048,-0.6064928,-27.597284
66,0.4666590094566345,4.553395748138428,63.803916931152344,-2.6959533340615205,9.040007732000397,-90.0304992040809,-44.98927,16.303495,11.262447,83.410034,-45.298542,2.5726774,-44.393818,-8.528054,-6.9717016,82.51258,-43.59245,-2.9300547,-3.0662007,3.3497934,26.359644,-29.981062,18.492203,-6.238739,19.219206,56.86043,10.5251,20.036396,-23.847904,-15.126561,7.0142503,-0.3282405,-26.009062,-0.9007873,-27.596651
67,0.4531265199184418,4.493521690368652,63.75511169433594,-2.6946580085279197,8.753304398177294,-89.98304127134965,-44.687523,16.320198,11.232139,83.6294,-45.437813,2.6425004,-44.078186,-8.546884,-7.0222206,82.7581,-43.75848,-3.0830116,-2.887759,3.346419,26.070702,-36.027645,20.070911,-6.264732,19.039593,57.788013,10.311351,19.614767,-29.359106,-16.635468,6.6023602,-0.9382754,-26.925777,-1.3545291,-27.52045
68,0.4394666254520416,4.406373023986816,63.78441619873047,-2.701130757873148,8.46945624849934,-89.90984753379881,-44.27585,16.319386,11.208389,83.626045,-45.458523,2.660627,-43.626007,-8.571674,-7.1132717,82.76569,-43.808743,-3.189174,-2.7809117,3.3102846,25.73,-41.96985,21.872103,-6.533005,18.94301,58.565243,10.153082,19.29293,-34.75852,-18.384363,6.276309,-1.4605241,-27.620966,-1.8676454,-27.486681
69,0.43100854754447937,4.312134265899658,63.883392333984375,-2.7180080460576135,8.162786289460794,-89.80735076899796,-43.734524,16.306383,11.186771,83.41993,-45.3749,2.610794,-43.018074,-8.603913,-7.2435536,82.55802,-43.751648,-3.2418606,-2.716918,3.2750852,25.366022,-48.06447,23.958769,-7.2640142,19.082304,59.058086,10.053119,19.105387,-40.10737,-20.406607,6.054352,-1.9032001,-28.082487,-2.4999623,-27.468725
70,0.4178362488746643,4.191285133361816,64.0715103149414,-2.743308171696503,7.8428368190215325,-89.6828490597112,-43.074688,16.279364,11.174036,83.01219,-45.190964,2.5015314,-42.27206,-8.636885,-7.4124823,82.13647,-43.58696,-3.2374556,-2.749394,3.1922534,25.0186,-54.25247,26.252924,-8.331767,19.219236,59.34452,9.964483,18.968733,-45.580597,-22.66748,5.9879556,-2.2647612,-28.331808,-3.2800736,-27.430418
71,0.4033474326133728,4.044231414794922,64.34268188476562,-2.7761286220668535,7.56138276422875,-89.5386807122896,-42.3338,16.22786,11.175544,82.3604,-44.874184,2.3654704,-41.41962,-8.66526,-7.6319575,81.45183,-43.289394,-3.1966918,-2.8617883,3.086852,24.642773,-60.38484,28.690823,-9.72467,19.302505,59.35255,9.921235,18.883022,-50.990547,-25.12703,6.1527405,-2.5925224,-28.372435,-4.044855,-27.47049
72,0.3797737956047058,3.865262508392334,64.7030258178711,-2.814752651912411,7.37016036660541,-89.37725654628584,-41.548603,16.141962,11.195472,81.42049,-44.39289,2.2334847,-40.490925,-8.684577,-7.9122357,80.45208,-42.83751,-3.1375196,-3.0356963,2.9747527,24.17883,-66.274315,31.222551,-11.391296,19.276329,59.047405,9.962409,18.845375,-56.13861,-27.76162,6.58109,-2.9270165,-28.193346,-4.632921,-27.679691
73,0.36084040999412537,3.644298791885376,65.1589126586914,-2.8680164248103197,7.288429418393764,-89.18736057377815,-40.756203,16.02287,11.21206,80.21134,-43.779552,2.11596,-39.496162,-8.697482,-8.27947,79.13725,-42.27743,-3.076096,-3.269521,2.8689635,23.583097,-72.11327,33.88111,-13.5055485,19.237541,58.25149,10.089191,18.937376,-61.125313,-30.621208,7.31544,-3.2477014,-27.803614,-4.9915924,-28.114042
74,0.33945339918136597,3.402841806411743,65.71002197265625,-2.933595748315931,7.287276808000283,-88.97174687368414,-39.92702,15.875221,11.227996,78.74674,-43.039433,1.9952832,-38.416943,-8.701146,-8.720453,77.52831,-41.60488,-2.9975154,-3.571433,2.7788103,22.899998,-77.97725,36.6488,-16.090548,19.127321,57.026478,10.280147,19.12903,-66.08163,-33.70455,8.384311,-3.5555847,-27.194935,-5.2127132,-28.713646
75,0.3252096176147461,3.12180233001709,66.36054992675781,-2.9921882898740666,7.34674025662491,-88.75369451982571,-38.99795,15.692142,11.282581,76.97325,-42.09899,1.8601477,-37.242966,-8.683357,-9.184393,75.610016,-40.72078,-2.873211,-3.9099581,2.725581,22.15923,-83.459915,39.40845,-18.772127,18.720934,55.753002,10.556217,19.25954,-70.807724,-36.902473,9.729372,-3.900031,-26.379436,-5.34864,-29.389784
76,0.31144121289253235,2.7973477840423584,67.11708068847656,-3.024894139677777,7.446673892253073,-88.55638870095918,-37.906685,15.464999,11.41248,74.83546,-40.888462,1.7004367,-35.96471,-8.632694,-9.617547,73.36445,-39.52546,-2.6776319,-4.2294393,2.7264242,21.351717,-88.13928,42.037617,-21.095695,17.89943,54.8698,10.955795,19.180452,-75.025345,-40.07178,11.218003,-4.318456,-25.434341,-5.4496217,-30.051706
77,0.30329468846321106,2.4288904666900635,67.96971130371094,-3.033202006229585,7.639846559156421,-88.38720109838619,-36.713367,15.195762,11.609077,72.34078,-39.478073,1.5266422,-34.64483,-8.5448475,-10.007944,70.79464,-38.079197,-2.424143,-4.5242033,2.755167,20.375528,-92.14988,44.54046,-22.967087,16.830347,54.671715,11.570448,18.816444,-78.85971,-43.210075,12.796736,-4.6624703,-24.438637,-5.531856,-30.747591
78,0.2995661199092865,2.0090787410736084,68.92767333984375,-3.024458600928871,7.9177873728540655,-88.23318192909024,-35.426285,14.882495,11.849816,69.513245,-37.882744,1.3423322,-33.267113,-8.422889,-10.373809,67.90836,-36.411304,-2.1221275,-4.797445,2.8077302,19.224962,-95.707306,46.965904,-24.589212,15.660494,54.926235,12.362018,18.268158,-82.43856,-46.35506,14.5349455,-4.91208,-23.38153,-5.5730743,-31.500975
79,0.3042632043361664,1.5346390008926392,69.98665618896484,-2.9895489769151045,8.168623880522329,-88.08685362635268,-33.904736,14.514405,12.148923,66.31691,-35.941254,1.1203843,-31.702612,-8.270773,-10.704714,64.69094,-34.381252,-1.7372276,-5.0105524,2.887653,18.00657,-98.54036,49.282146,-25.925407,14.38878,55.299026,13.190865,17.661985,-85.44349,-49.425255,16.358583,-5.2227716,-22.208887,-5.565056,-32.179367
80,0.310712605714798,1.0012191534042358,71.14572143554688,-2.9195237259615676,8.281025967497191,-87.94062632743038,-32.013855,14.078067,12.511216,62.714615,-33.494938,0.83616596,-29.824596,-8.089,-10.983893,61.124424,-31.846134,-1.2330291,-5.152592,2.9766903,16.792513,-100.36023,51.437763,-26.92613,13.089555,55.476646,13.926706,17.135761,-87.53967,-52.305283,18.134356,-5.665166,-20.871645,-5.4996376,-32.647137
81,0.3243134915828705,0.4102393090724945,72.3936996459961,-2.7878520289512885,8.191154307857065,-87.78335631835343,-29.617767,13.525359,12.913459,58.62724,-30.679777,0.5687835,-27.508558,-7.8710837,-11.140143,57.146572,-28.921047,-0.6301625,-5.239499,3.031398,15.555806,-101.10955,53.43181,-27.505646,11.92808,55.358547,14.586758,16.733778,-88.44444,-54.93823,19.627262,-6.276389,-19.304745,-5.4082847,-32.880096
82,0.31997817754745483,-0.23296426236629486,73.72657775878906,-2.6078948156624935,7.970559580979084,-87.62268205733733,-26.832806,12.876867,13.334581,54.10895,-27.543499,0.30850664,-24.85628,-7.6238756,-11.177511,52.798256,-25.654491,0.058039077,-5.329924,3.0243747,14.225825,-101.00358,55.315937,-27.748514,11.017487,55.14157,15.231613,16.382524,-88.38514,-57.375916,20.84313,-6.8625784,-17.559954,-5.2862973,-32.935947
83,0.3241439461708069,-0.9273074865341187,75.1312484741211,-2.429924083949093,7.712325522339453,-87.47816716716859,-23.915071,12.208246,13.750757,49.313744,-23.788273,-0.1004332,-22.089928,-7.3461328,-11.165515,48.20194,-21.78966,0.88629043,-5.403604,2.9886591,12.829473,-100.063896,57.09241,-27.747074,10.270455,54.94151,15.79481,16.044764,-87.347145,-59.611134,21.770351,-7.3966417,-16.004301,-5.0505414,-32.81901
84,0.3298722803592682,-1.6404129266738892,76.59403991699219,-2.302364771103091,7.5108817179368765,-87.36771432455917,-21.12551,11.585759,14.107043,44.38527,-19.094175,-0.828607,-19.442198,-7.0170894,-11.1463585,43.47293,-17.039995,1.9269409,-5.44104,2.9506428,11.38933,-98.343025,58.738155,-27.626724,9.639159,54.861366,16.207876,15.685778,-85.294014,-61.605644,22.38718,-7.84436,-15.006671,-4.623735,-32.530483
85,0.326133131980896,-2.369000196456909,78.1058349609375,-2.2251094361842587,7.357646142188763,-87.28321935920924,-18.32586,10.974072,14.363295,38.990063,-12.869579,-2.1467218,-16.8579,-6.543451,-10.9824,38.39087,-10.928207,3.135503,-5.4570594,2.876671,9.857541,-95.60077,60.229965,-27.399693,9.039951,55.08605,16.3815,15.213832,-81.884415,-63.323883,22.641384,-8.286703,-14.810938,-3.8936315,-31.941832
86,0.3148954510688782,-3.088353157043457,79.64866638183594,-2.1717179832893,7.2218187891472905,-87.21622844806116,-15.492642,10.346098,14.333317,33.210785,-5.5231514,-3.974212,-14.305722,-5.9662013,-10.547682,33.038788,-3.7827742,4.5582004,-5.4790735,2.7664075,8.250053,-91.82174,61.558525,-26.937227,8.537164,55.53128,16.373266,14.67629,-77.12013,-64.75894,22.438854,-8.707049,-15.200732,-2.9417868,-31.082878
87,0.2929351031780243,-3.787045478820801,81.19698333740234,-2.1442696041989913,7.1616999745192835,-87.1841261109303,-13.029388,9.813008,13.847867,27.820345,1.791775,-5.953023,-12.0364275,-5.4320297,-9.90435,27.941225,3.5147462,6.418256,-5.479139,2.6844926,6.6901765,-87.369675,62.717922,-26.157,8.255036,55.867207,16.33846,14.250242,-71.46988,-65.903404,21.714027,-8.949995,-15.842297,-1.9818077,-30.193897
88,0.23852144181728363,-4.407787322998047,82.74962615966797,-2.1430827711694302,7.228896393478856,-87.20595691478832,-11.296196,9.485456,12.95481,23.545328,8.045774,-7.6546516,-10.228875,-5.03446,-9.163828,23.48095,10.19186,8.924524,-5.457019,2.6746497,5.317992,-82.43737,63.656723,-24.856499,8.230187,55.876614,16.4461,14.108783,-65.45172,-66.72095,20.440598,-8.873069,-16.369621,-1.2122684,-29.528847
89,0.19149817526340485,-4.961720943450928,84.3055419921875,-2.199493160828814,7.524910222643131,-87.28541373934837,-10.400946,9.241108,11.417867,20.052214,13.598066,-9.134434,-8.655935,-4.6401124,-8.367906,18.824492,16.955322,12.8812895,-5.4034996,2.8030684,4.0298605,-76.725105,64.28676,-22.939295,8.338567,55.389027,16.861984,14.364818,-58.908215,-67.11731,18.712948,-8.58326,-16.65034,-0.6509832,-29.19459
90,0.104925237596035,-5.443552494049072,85.90339660644531,-2.636309151519805,8.052803672096964,-87.56740043574187,-10.487617,9.614391,9.208613,17.790545,18.498026,-10.763281,-6.869374,-3.880174,-8.572187,12.916306,24.52755,15.000033,-5.193886,3.3109064,2.8033426,-70.19409,64.538925,-20.516045,8.513495,54.57147,17.44966,14.9198,-51.8611,-67.01635,16.75709,-8.155096,-16.890945,-0.19828527,-29.050873
91,0.016079433262348175,-5.820572853088379,87.49050903320312,-2.8533406235278176,8.5696084597144,-87.94868367129918,-10.999936,10.055453,7.398865,16.791851,22.354528,-12.06986,-6.403846,-3.7611954,-9.427688,9.870252,30.000067,15.000033,-4.9398685,3.5495393,1.911522,-63.600464,64.40054,-17.848478,9.00112,53.670662,17.914213,15.615159,-45.1906,-66.4254,14.83189,-7.274921,-17.211657,0.13221109,-28.977243
92,-0.04567694664001465,-6.0432281494140625,88.94515228271484,-2.5335979960102724,8.749736864874052,-88.23247783278848,-11.382405,10.266525,7.0322495,17.102165,24.845026,-12.468737,-8.878157,-4.873676,-9.422131,14.315159,30.000067,15.000033,-4.8222857,3.2156541,1.706941,-57.697884,63.911465,-15.194173,10.110963,52.938866,17.97495,16.272057,-39.676632,-65.42385,13.092742,-5.571419,-17.715656,0.32020727,-28.849352
93,-0.04926902428269386,-6.109729290008545,90.31070709228516,-2.5818740043745834,8.675749329414558,-88.5272254703399,-12.202485,11.59743,8.515325,19.873552,25.107082,-11.418814,-9.870731,-5.317492,-8.65871,16.567486,30.000067,15.000033,-4.7366157,3.2441967,2.1914747,-52.4313,63.03526,-12.356014,11.93079,52.637165,17.534409,16.814915,-35.287117,-64.0652,11.430266,-2.870622,-18.64965,0.3033044,-28.702534
94,-0.015992315486073494,-6.070235729217529,91.68855285644531,-3.0085407122632946,8.48073943596138,-88.93102646457116,-13.258303,14.176388,11.358853,24.236103,23.662579,-9.052267,-10.141171,-5.171555,-7.3973823,17.688055,30.000067,15.000033,-4.5637426,3.6514091,3.187511,-47.599335,61.71445,-9.423446,14.278086,52.57154,16.74421,17.336891,-31.7115,-62.349987,9.865626,0.6039254,-19.856642,0.10565702,-28.590797
95,0.01845186948776245,-5.940587997436523,93.00074768066406,-3.0197295750012665,8.040351458284645,-89.32729872667839,-13.944163,16.874302,14.748324,29.080074,21.423658,-6.0670514,-12.133013,-5.7016973,-5.764232,23.106524,27.29537,15.000033,-4.376785,3.6178164,4.6841207,-43.617382,60.048805,-6.974551,17.146551,52.35917,15.741181,17.914066,-29.106054,-60.330444,8.553438,4.668172,-20.866623,-0.16535918,-28.416975
96,0.016566837206482887,-5.699913501739502,94.22919464111328,-2.6759983192994925,7.34596676948212,-89.64440662446447,-14.417922,19.196358,17.429102,34.12322,19.35246,-3.4636707,-14.776229,-6.7754536,-4.592979,30.478378,24.060535,15.000033,-4.248324,3.1991327,6.637577,-40.724842,58.250187,-5.4259276,20.544538,51.58764,14.71232,18.64141,-27.539944,-58.10779,7.574091,9.123103,-21.239168,-0.40776065,-28.095503
97,0.00487728463485837,-5.337800025939941,95.41743469238281,-2.3903979970580633,6.351136600827338,-89.91337079867215,-14.988578,21.33182,18.955,39.87137,17.817566,-1.6641895,-17.089186,-8.129168,-4.5507827,38.078022,21.807304,15.000033,-4.186196,2.8228085,9.232871,-38.90771,56.483578,-4.6467023,24.755854,49.926178,13.687938,19.622812,-27.064005,-55.70478,6.6845655,14.129075,-20.714956,-0.5155258,-27.510555
98,0.0005305364611558616,-4.8944830894470215,96.51093292236328,-2.0176748401520777,5.07827050745393,-90.11428320814416,-15.671417,23.341425,19.939957,46.632805,16.23615,-0.17795783,-19.349815,-10.017975,-5.0288377,46.51215,19.609331,14.759049,-4.2098293,2.3166573,12.438873,-37.876698,54.810852,-4.2997384,29.662113,47.617603,12.572464,20.74675,-27.381662,-53.11702,5.6407447,19.674253,-19.570114,-0.5508608,-26.735163
99,-0.024015089496970177,-4.389617919921875,97.49356842041016,-1.8136686965740014,3.7678313311699823,-90.33096021964822,-16.748085,25.499084,20.307499,54.110928,14.431709,1.05906,-21.59638,-12.546237,-6.518444,55.021626,17.428007,12.132417,-4.227594,1.8850697,15.845775,-37.26682,53.290665,-4.297425,34.597813,45.08388,11.3934965,21.806992,-28.046661,-50.479164,4.55686,25.253912,-18.156094,-0.6613551,-25.993412
100,-0.055814243853092194,-3.847815752029419,98.34104919433594,-1.663038285263677,2.628395166838557,-90.53196436894495,-18.267256,27.701962,20.21582,61.750828,12.278753,2.3597784,-24.099632,-14.878707,-7.2532105,63.144043,15.168454,9.474065,-4.236353,1.4345374,19.063482,-36.80954,51.953396,-4.635272,38.948555,42.72813,10.189029,22.622112,-28.693747,-47.99089,3.6663113,30.369635,-16.756346,-1.0056785,-25.51618
101,-0.08600916713476181,-3.3092732429504395,99.055419921875,-1.5353324701916677,1.6719951747192279,-90.69635272436976,-20.278755,29.898178,19.543514,69.67338,9.655062,3.7555857,-27.005816,-16.600912,-6.9678154,71.04211,12.836576,7.0574694,-4.235091,0.97637355,22.161398,-36.576954,50.843674,-5.531869,42.769684,40.412247,8.784091,23.078283,-29.455595,-45.812202,3.0941029,35.136524,-15.094598,-1.7671397,-25.342411
102,-0.11020631343126297,-2.7788796424865723,99.63499450683594,-1.432307091517414,0.8048960807322834,-90.82785447892087,-22.76431,31.934855,18.21292,78.07577,6.680484,5.0400734,-30.240818,-17.81712,-6.0824885,79.04321,10.47372,4.8634872,-4.205547,0.54396915,25.307636,-36.655,49.949894,-6.892936,46.349438,37.95458,7.217791,23.270994,-30.385403,-43.946648,2.681542,39.710217,-13.037551,-2.8216612,-25.313154
103,-0.12567918002605438,-2.282158136367798,100.07905578613281,-1.3576309277923897,0.08056071267730257,-90.95952041411117,-25.666935,33.79332,16.419027,86.57535,3.5558107,6.2473483,-33.772453,-18.529589,-4.825251,86.870804,8.198128,3.024801,-4.1055474,0.13454404,28.281061,-36.808765,49.157745,-8.2237,49.390373,35.749817,5.850643,23.377556,-31.18003,-42.335308,2.344061,43.73753,-11.098479,-3.8815856,-25.37689
104,-0.11247142404317856,-1.8140617609024048,100.38059997558594,-1.2932397671142415,-0.21421561166600692,-91.12642694797925,-29.183184,35.485218,14.420238,94.79246,0.5255982,7.471926,-37.874302,-18.86746,-3.3998117,94.26481,6.134115,1.5886842,-3.9867303,-0.27904093,29.793802,-36.591133,48.13831,-9.447135,52.031616,34.191845,5.023109,23.62743,-31.50584,-40.74937,2.5757551,47.403385,-9.786195,-4.666355,-25.546925
105,-0.10912857204675674,-1.3533252477645874,100.56472778320312,-1.2194911344961392,-0.08044358729333136,-91.32483463592565,-33.233074,36.9637,12.302326,102.79062,-2.4002762,8.799045,-42.55936,-18.84779,-1.8407667,101.2687,4.2807336,0.5740193,-3.8898463,-0.6979186,29.793802,-35.85442,46.73293,-10.2601,53.996967,33.500504,4.943779,24.202011,-31.25617,-39.159847,3.4200287,50.465595,-9.471563,-5.069769,-25.849892
106,-0.1035894826054573,-0.9208447337150574,100.67301940917969,-1.1862699119372717,0.13183916157291464,-91.53683259122155,-37.398384,38.162643,10.003101,110.75459,-5.391421,10.121607,-47.364376,-18.292763,-0.1875057,108.02315,2.5498056,0.052805692,-3.7723708,-1.0356852,29.793802,-35.062946,45.11901,-10.365109,55.02843,33.513283,5.438039,25.04091,-30.786633,-37.78258,4.294823,52.565163,-9.850623,-5.2401958,-26.34056
107,-0.09808000177145004,-0.5066539645195007,100.71815490722656,-1.2366920385412215,0.46692135953970704,-91.77250094512912,-41.812057,39.055374,7.383581,118.477646,-8.338906,11.134364,-52.240326,-17.263744,1.288894,114.40191,0.9564976,-0.083336696,-3.5927062,-1.222799,29.793802,-34.2065,43.442745,-9.901227,55.37176,34.029263,6.2071977,25.882998,-30.144669,-36.69156,4.9309015,54.00583,-10.446234,-5.287435,-26.945585
108,-0.10604216903448105,-0.09843874722719193,100.7144775390625,-1.4085854417697559,0.9633603253236663,-92.0341531247648,-46.59106,39.65026,4.4288483,125.723625,-11.1567955,11.644392,-57.18965,-15.861237,2.4265096,120.23599,-0.45854878,0.0973574,-3.3257065,-1.227307,29.793802,-33.28149,41.854122,-9.013831,55.288452,34.886414,6.9523897,26.461143,-29.354147,-35.89422,5.0408716,55.053894,-10.81363,-5.320948,-27.613998
109,-0.12538450956344604,0.27845194935798645,100.67376708984375,-1.7242674305772048,1.7153312454715017,-92.31935689740182,-51.81425,39.844112,1.1816051,132.56642,-14.023563,11.535686,-62.41688,-13.98013,3.2210107,125.51368,-1.7447736,0.64884025,-2.968126,-1.0706301,29.793802,-32.20883,40.430714,-7.516876,54.496273,36.264458,7.6477427,26.627111,-28.324478,-35.37932,4.4761014,55.517094,-10.841635,-5.36845,-28.398434
110,-0.14947879314422607,0.606432318687439,100.60884094238281,-2.1588458999292257,2.706838937477309,-92.57547977974838,-57.26999,39.558506,-2.2037838,139.15894,-17.018332,10.922706,-67.89526,-11.776373,3.6424696,130.33928,-2.9465535,1.5362455,-2.6039197,-0.7828211,29.793802,-30.967007,39.1905,-5.391645,52.84272,38.16324,8.422399,26.50015,-27.037922,-35.141193,3.397772,55.25145,-10.768863,-5.3791137,-29.290459
111,-0.20836691558361053,0.9013029932975769,100.50556945800781,-2.683904173231089,3.7984578551439165,-92.73915528172299,-62.723946,38.940186,-5.591194,145.30382,-19.847073,10.047465,-73.335464,-9.781106,3.6329339,134.66846,-3.9749248,2.5302224,-2.330201,-0.3602485,29.793802,-29.618484,38.181892,-3.077999,50.82477,40.13492,9.2012005,26.230556,-25.607384,-35.162598,1.9808954,54.596413,-10.67866,-5.3468456,-30.16156
112,-0.30816933512687683,1.1345990896224976,100.37863159179688,-3.2693018736466586,4.827580989470959,-92.78778693535548,-68.09206,38.220726,-8.9618,150.74953,-22.099165,9.186467,-78.44745,-8.482415,3.2393768,138.43735,-4.696227,3.3912504,-2.1747034,0.19045947,29.793802,-28.179804,37.446075,-1.0503824,48.95055,41.713734,9.910739,25.987457,-24.108187,-35.402264,0.37294686,53.90427,-10.656329,-5.263586,-30.883263
113,-0.4019419550895691,1.3141613006591797,100.23274230957031,-3.966479072125385,5.737531674475863,-92.78931139854198,-73.9399,37.549538,-12.787339,155.62947,-23.266523,8.355361,-83.3477,-7.9989257,2.5448778,141.69716,-4.955229,4.180281,-2.061364,0.8910343,29.793802,-26.604273,37.031105,0.5635269,47.294777,42.82024,10.55367,25.783377,-22.481695,-35.839085,-1.55237,53.202217,-10.742116,-5.108321,-31.424854
114,-0.48418688774108887,1.4162687063217163,100.08699035644531,-4.79569340592245,6.578612325191239,-92.77659088689396,-80.16869,36.779808,-16.952354,160.01201,-23.632055,7.49138,-88.10343,-8.104855,1.6324782,144.4717,-4.8678374,4.9458117,-1.9454619,1.734944,29.793802,-24.956081,36.912865,1.9146531,45.741783,43.668575,11.14762,25.5402,-20.61571,-36.4229,-3.833182,52.33616,-10.885101,-4.8938713,-31.848429
115,-0.5389812588691711,1.4639933109283447,99.94821166992188,-5.654654427211148,7.269031527620312,-92.76488890100681,-85.94744,35.98434,-20.726995,163.47252,-23.717548,6.8553877,-92.31685,-8.57641,0.6450476,146.65804,-4.6256433,5.4816856,-1.7970278,2.6385033,29.793802,-23.25298,37.004143,2.95306,44.419075,44.212982,11.666902,25.328682,-18.585413,-37.066856,-6.1352735,51.50394,-11.050466,-4.656703,-32.193123
116,-0.5934062600135803,1.4531556367874146,99.89998626708984,-6.005477157968093,7.7405474309943205,-92.83046350044867,-90.31892,35.995678,-22.780603,165.00038,-23.597393,7.1948195,-95.833305,-8.89948,0.18793437,148.13687,-4.2472725,5.678369,-1.6050493,3.0258136,29.793802,-21.63798,37.241398,3.7004766,43.58272,44.441708,12.098686,25.243673,-16.647276,-37.672485,-8.005541,50.941277,-11.218686,-4.427969,-32.536606
117,-0.6386168599128723,1.3768913745880127,99.8761215209961,-6.038493995475793,7.880317191471275,-93.03513136291691,-94.1272,36.946236,-24.003757,165.00038,-23.538172,8.828844,-98.730675,-9.2239275,0.073931485,148.93794,-3.5530806,5.0246353,-1.3321459,3.0490875,29.793802,-20.067842,37.671185,4.1926355,43.341827,44.35638,12.491944,25.332952,-14.832778,-38.2945,-9.34364,50.756344,-11.46425,-4.1816616,-32.987263
118,-0.5988557934761047,1.254703164100647,99.59933471679688,-7.13530406820608,7.427438762387067,-93.3942398537964,-98.84428,36.65557,-27.324919,165.00038,-23.491194,9.899228,-100.33053,-10.043568,-1.1688997,149.11143,-2.7987385,3.6839194,-0.7442656,4.1984115,29.793802,-18.730543,38.262386,3.9749117,43.848877,43.949196,12.856608,25.510357,-12.719054,-39.100418,-10.458604,50.885292,-11.750037,-3.9035478,-33.431812
119,-0.5732566714286804,1.1410250663757324,99.31255340576172,-7.537483703119694,6.871467221485817,-93.7070309753016,-102.5952,36.962013,-28.87599,163.45717,-22.789698,11.449662,-101.49599,-10.279943,-1.6374515,148.60287,-1.8023812,2.8502762,-0.2499906,4.6512885,29.793802,-17.615805,38.9462,3.442983,44.755154,43.257427,13.101891,25.77815,-10.852097,-39.923546,-11.17099,51.212826,-11.9635515,-3.6489878,-33.751366
120,-0.5328361392021179,1.0719605684280396,99.11825561523438,-7.495042860332585,6.437890499186553,-93.73887570901063,-104.995445,36.903812,-28.563934,160.62447,-21.156195,12.156937,-101.98715,-9.705824,-1.6159092,147.31194,-0.84384507,3.4235585,-0.16546555,4.6079993,29.793802,-16.72207,39.60201,2.8000767,45.84672,42.359062,13.140092,26.039658,-9.565119,-40.596355,-11.343629,51.705364,-12.049519,-3.4583447,-33.79735
121,-0.5001166462898254,1.0729717016220093,98.98356628417969,-7.296938820575425,6.132152937131949,-93.32861231651422,-105.32952,35.158012,-26.371363,156.53374,-18.703716,10.375133,-101.30289,-7.9336853,-1.3339018,145.01321,-0.19950952,6.327792,-0.6191958,4.364576,29.793802,-16.131151,40.156208,1.9127519,47.345695,41.08717,12.882611,26.313389,-8.796766,-41.07561,-10.958231,52.34439,-11.914404,-3.3436856,-33.385975
122,-0.4555988013744354,1.106756329536438,98.83045196533203,-7.014684810336105,5.843602971182091,-92.58076519520621,-103.444756,31.988506,-23.021475,151.23787,-16.30438,6.3642764,-99.423485,-5.3295293,-0.7130646,141.83249,0.004888509,10.863724,-1.4530307,4.0142875,29.793802,-15.786715,40.618145,0.76556194,49.241875,39.507057,12.401349,26.61575,-8.380424,-41.398785,-10.133457,53.100094,-11.65088,-3.2742138,-32.65568
123,-0.4270612299442291,1.1321499347686768,98.6329345703125,-6.673618309322439,5.501234875844147,-91.80144796439859,-100.24925,28.578587,-19.83089,145.39888,-14.442593,1.6494193,-96.77995,-3.0751867,0.09839598,138.19489,-0.0694019,15.000033,-2.3098416,3.5811481,29.793802,-15.566714,40.970695,-0.42693195,51.07153,38.028522,11.867298,26.86482,-8.098641,-41.576317,-9.076911,53.722675,-11.374969,-3.2359731,-31.913418
124,-0.4892038106918335,1.0861177444458008,98.43513488769531,-6.3032002095951025,5.232262461439408,-91.20687486780439,-97.1848,26.369026,-17.402708,139.60371,-12.688962,-1.7082092,-94.23425,-3.5647745,0.23974364,134.45529,0.26315814,15.000033,-2.9437158,3.115068,29.793802,-15.335989,41.214714,-1.2985575,52.221733,37.075874,11.461772,27.002707,-7.7079244,-41.61922,-8.137083,53.810997,-11.216255,-3.219578,-31.468786
125,-0.5421236157417297,0.9615510702133179,98.13986206054688,-5.830273590049562,5.189783984779907,-90.77863407718712,-94.71089,26.185884,-15.0897875,133.85634,-10.487906,-2.5322545,-91.956955,-4.0693126,0.7341097,130.62497,0.8291987,15.000033,-3.3232367,2.6026402,29.793802,-15.091032,41.349876,-1.735011,52.42934,36.851017,11.240436,27.037426,-7.053685,-41.529568,-7.413597,53.0846,-11.245005,-3.2285004,-31.443106
126,-0.573539137840271,0.8007561564445496,97.76373291015625,-5.247516463916149,5.322121627002072,-90.39456584872521,-92.15192,27.199635,-12.318459,127.87806,-7.8867507,-1.8811057,-89.59546,-4.7312264,1.3506017,126.53523,1.4579341,15.000033,-3.585728,2.0530457,29.793802,-14.868057,41.386906,-1.911967,51.987556,37.101727,11.113612,27.0119,-6.164997,-41.311993,-6.8201184,51.684597,-11.372425,-3.2650824,-31.670845
127,-0.5930984020233154,0.6006137728691101,97.38674926757812,-4.673792282378622,5.546114920277837,-90.03395107558792,-89.2468,28.426908,-9.303845,121.82809,-5.083509,-0.9475301,-87.080246,-5.7808447,1.680565,122.241844,2.222633,14.6041155,-3.7954023,1.5745394,29.793802,-14.65986,41.36237,-1.8641737,51.09003,37.559685,11.042017,26.9279,-5.1611996,-40.98712,-6.469933,49.84943,-11.515636,-3.3212502,-32.02563
128,-0.6336086392402649,0.3943137228488922,96.96244812011719,-4.23268376887549,5.766601282344562,-89.70167879207762,-85.950325,28.861582,-6.642452,115.82162,-2.186703,-0.9629151,-84.34383,-7.531068,1.2693361,117.779076,3.2416823,13.052555,-4.00581,1.2516265,29.793802,-14.426715,41.310974,-1.6043386,49.919403,37.941315,10.981153,26.776329,-4.1870832,-40.56903,-6.441416,47.839783,-11.579246,-3.3940804,-32.363525
129,-0.6754883527755737,0.13753114640712738,96.47721862792969,-3.941275996691489,6.091476250274336,-89.407917252882,-82.498856,28.159698,-4.7407713,109.77732,0.9526122,-2.3406532,-81.43763,-8.767325,0.744045,113.117485,4.58074,12.137827,-4.2140994,1.1053009,29.793802,-14.1201,41.243896,-0.9965494,48.271774,38.232162,10.954579,26.503826,-3.257317,-40.050518,-6.7828856,45.548977,-11.503518,-3.5037668,-32.705357
130,-0.7443152070045471,-0.22814121842384338,95.95732879638672,-3.724960556261557,6.517351276482919,-89.1615111706702,-78.976395,26.914812,-3.418603,103.63339,4.3672404,-4.3802004,-78.3798,-9.81946,0.0778157,108.24659,6.1919274,11.387407,-4.4111304,1.0390658,29.793802,-13.8903265,41.135647,-0.09436773,46.25365,38.571262,10.965637,26.115726,-2.3773038,-39.404644,-7.34113,42.925247,-11.33929,-3.645671,-33.10221
131,-0.7720626592636108,-0.6481052041053772,95.35722351074219,-3.549697229912018,6.7699530137833195,-88.95896618803968,-75.16778,25.557844,-2.4596367,97.51257,7.793256,-6.584178,-74.92977,-10.688836,-0.69795805,103.22332,7.9425406,10.91596,-4.600297,0.9945168,29.793802,-13.6184635,40.975735,0.8776971,44.156727,38.840347,10.943444,25.70271,-1.6648759,-38.629093,-7.9527936,40.34788,-11.171999,-3.7802422,-33.448063
132,-0.8041042685508728,-1.132918357849121,94.70268249511719,-3.3912859074320756,6.581881573840147,-88.79394186134449,-70.8311,24.532421,-1.4385659,91.54959,10.998465,-8.35156,-70.841545,-11.362688,-1.5579345,98.084625,9.707649,10.843559,-4.8005586,0.90911907,29.793802,-13.432955,40.76057,1.6270533,42.505856,38.961735,10.819502,25.361223,-1.2441944,-37.7328,-8.462101,38.204784,-11.08132,-3.871169,-33.62858
133,-0.8467223644256592,-1.6772087812423706,94.00323486328125,-3.2463205351377,5.833869327837111,-88.67478416437174,-65.723465,23.98761,-0.18664905,85.68333,14.137531,-9.66889,-65.89307,-11.828771,-2.4853537,92.74011,11.595151,11.343042,-5.0252376,0.7648428,29.793802,-13.373507,40.47679,2.025935,41.524666,38.794765,10.55614,25.164217,-1.2119815,-36.689926,-8.833034,36.68739,-11.018596,-3.890489,-33.61279
134,-0.8743178844451904,-2.3077073097229004,93.30304718017578,-3.1237697237182607,4.685320389069997,-88.59698373638359,-60.017334,23.637611,1.163683,79.86989,17.286562,-10.783959,-60.282787,-12.037068,-3.4160225,87.18078,13.647908,12.321303,-5.2563043,0.5941059,29.793802,-13.458221,40.137978,2.1959884,40.973236,38.43254,10.203482,25.051699,-1.4847236,-35.503933,-9.177646,35.57308,-10.972274,-3.8647869,-33.454453
135,-0.8979458212852478,-3.0029873847961426,92.54285430908203,-3.024322166901337,3.285724577300457,-88.53397893945285,-54.1046,23.204254,2.3918004,74.268425,20.148462,-11.712687,-54.37736,-11.923143,-4.1967616,81.550354,15.636538,13.547517,-5.465408,0.42578682,29.793802,-13.693079,39.796974,2.2463408,40.60855,38.130577,9.820648,24.920416,-1.8943784,-34.25314,-9.582579,34.62345,-11.067003,-3.8426497,-33.15838
136,-0.9074348211288452,-3.742924690246582,91.6961898803711,-2.94979057090546,1.7807343748134388,-88.46211815575374,-48.369736,22.498312,3.2454097,69.03558,22.41895,-12.435614,-48.519302,-11.4831085,-4.6809583,75.99081,17.327375,14.772269,-5.6321177,0.2887436,29.793802,-14.0776415,39.508217,2.295298,40.197906,38.1289,9.458435,24.662924,-2.3051538,-33.041553,-10.090321,33.626774,-11.404599,-3.8765984,-32.722786
137,-0.9160922169685364,-4.498043060302734,90.742919921875,-2.9089192691030714,0.1558332628354937,-88.36984277240191,-42.716904,21.492493,3.5999577,63.963337,24.067291,-12.937741,-42.527298,-11.130008,-5.3151803,70.18637,18.784122,15.000033,-5.7952075,0.12968637,28.964827,-14.728855,39.228966,1.912293,40.518997,38.544495,9.063713,24.199976,-2.8214252,-31.901155,-10.273527,33.39712,-12.0365095,-4.028357,-32.04404
138,-0.9289600849151611,-5.269536972045898,89.68331146240234,-3.0434373821703216,-1.7065562674308625,-88.34800298200261,-36.982758,20.546469,3.4950852,59.128407,25.175514,-13.22007,-36.18397,-10.501887,-5.993269,64.06201,20.131397,15.000033,-5.8796544,0.12707052,27.969273,-15.507568,38.935738,1.4313853,41.093697,39.2042,8.614336,23.601698,-3.4689097,-30.822975,-10.451211,33.51743,-12.846955,-4.271756,-31.136057
139,-0.9540307521820068,-6.038447856903076,88.50946044921875,-3.1570278208715465,-3.495053964449359,-88.3330481931079,-31.639706,19.650034,3.3248925,54.880035,25.805365,-13.125448,-30.23295,-9.637567,-6.194258,58.37354,21.16839,15.000033,-5.9446883,0.14810799,26.991016,-16.435272,38.71566,0.9423465,41.53332,39.959057,8.229268,23.013231,-4.20412,-29.8825,-10.693099,33.48574,-13.801639,-4.50349,-30.246077
140,-0.9743988513946533,-6.775320529937744,87.17952728271484,-3.1612862286391317,-4.795600388502745,-88.3494716977967,-27.353277,18.845098,3.3156974,51.572163,26.068249,-12.640007,-25.49685,-8.735312,-5.81017,53.832825,21.769815,15.000033,-5.9715242,0.15122426,25.842222,-17.614143,38.697758,0.3192394,41.744755,40.63222,8.026967,22.571844,-5.0475354,-29.195154,-10.879946,33.1016,-14.853457,-4.613996,-29.614578
141,-0.9964846968650818,-7.492988586425781,85.75955963134766,-3.0070800144143406,-5.434666326054444,-88.43868570338849,-24.352812,17.991951,3.3983243,49.074657,26.801453,-11.684873,-22.26036,-7.786321,-4.5864,50.436413,22.60181,15.000033,-5.952089,0.10279808,24.327896,-19.04815,38.953777,-0.5406622,41.727524,41.169033,8.017525,22.298742,-5.9992843,-28.828724,-10.880731,32.322983,-16.087444,-4.5843773,-29.269264
142,-0.985668420791626,-8.147549629211426,84.28069305419922,-2.7453075371094733,-5.635504308161476,-88.59024994497483,-22.254274,17.099972,3.5149791,47.21155,27.71392,-10.351993,-20.056099,-6.803452,-2.7398093,47.88449,23.487053,15.000033,-5.906947,0.0017853107,22.55937,-20.692583,39.454353,-1.559179,41.547127,41.627438,8.127435,22.103727,-7.132978,-28.760525,-10.722549,31.355055,-17.453587,-4.4740567,-29.072975
143,-0.9539081454277039,-8.663859367370605,82.71228790283203,-2.438850971926904,-5.571620055625246,-88.75660505944366,-20.786951,16.36458,3.8380709,46.18366,27.290194,-8.98159,-18.590162,-6.0025415,-0.95723295,46.40533,23.08362,15.000033,-5.850251,-0.13571995,20.801382,-22.651234,40.173584,-2.6356719,41.26935,41.997334,8.358595,21.956835,-8.55759,-28.96527,-10.534655,30.344025,-18.714579,-4.279744,-29.01727
144,-0.9717557430267334,-9.001280784606934,81.13750457763672,-2.2645084550522445,-5.422091294780695,-88.91083334586759,-19.721302,16.066633,4.3593826,46.23823,23.982573,-8.038976,-17.537342,-5.6628375,-0.28337747,46.092697,20.112505,14.519425,-5.7680097,-0.18009788,19.334635,-25.011515,41.08595,-3.671883,40.940952,42.273136,8.713461,21.830015,-10.367653,-29.416534,-10.454592,29.422441,-19.635195,-3.9973748,-29.096369
145,-1.0337285995483398,-9.30688190460205,79.409912109375,-2.2120456636356125,-5.203997320643699,-89.01112728770454,-19.002127,16.318722,5.202092,47.76973,16.056698,-7.8458805,-16.851143,-6.149726,-1.4200568,47.36039,12.950734,12.547573,-5.6747465,-0.16146137,18.22182,-27.910934,42.207603,-4.7035832,40.513943,42.453876,9.260144,21.75034,-12.6020775,-30.11783,-10.53789,28.53135,-20.137306,-3.5784774,-29.368904
146,-1.069408893585205,-9.590912818908691,77.5176773071289,-2.210148756791221,-4.827125701646543,-89.07018093598816,-18.8268,17.000515,6.209595,50.644608,4.6139164,-8.299879,-16.691608,-6.9120836,-2.9920387,50.0464,2.5144703,10.675981,-5.577693,-0.13013852,17.306273,-31.302082,43.53871,-5.8353705,39.992294,42.545162,9.975803,21.723066,-15.1803255,-31.076588,-10.703101,27.61703,-20.359367,-3.039227,-29.82209
147,-1.0811829566955566,-9.775175094604492,75.65354919433594,-2.280485883637707,-4.330397109469759,-89.11316101302741,-19.277554,17.968542,7.0331893,54.215446,-7.4361477,-9.093001,-17.07724,-7.620102,-4.3291326,53.42446,-8.523331,9.297529,-5.491509,-0.05921695,16.554873,-34.954037,45.023533,-7.047677,39.464466,42.55492,10.731219,21.69328,-18.017256,-32.269836,-10.872441,26.810528,-20.395025,-2.4724715,-30.350555
148,-1.100071907043457,-9.777037620544434,73.8447494506836,-2.435011351312404,-3.766508423039475,-89.16702770108532,-20.277851,18.953806,7.426963,57.63495,-17.192173,-9.723962,-17.978643,-8.077022,-5.1678534,56.7121,-17.450916,8.352374,-5.4537888,0.077266425,15.965194,-38.7674,46.575863,-8.322871,39.13832,42.51817,11.399642,21.60387,-21.072134,-33.65743,-10.934367,26.24411,-20.345325,-1.9687108,-30.852215
149,-1.126419186592102,-9.627217292785645,72.0860595703125,-2.7495305262519376,-3.0485981729938723,-89.23574388526976,-21.93377,19.91188,7.3213835,60.62962,-24.327429,-9.963545,-19.61148,-8.291495,-5.76647,59.866627,-23.771294,7.5595326,-5.453518,0.381647,15.524109,-42.85465,48.196117,-9.722562,39.02877,42.418865,11.996945,21.442305,-24.497694,-35.271385,-10.843912,25.93026,-20.164812,-1.4926242,-31.397285
150,-1.1304059028625488,-9.413359642028809,70.42900085449219,-3.186196528973623,-2.1905575611732058,-89.31132918287678,-24.182684,20.911398,6.915228,63.598545,-30.339685,-9.970861,-21.89387,-8.429778,-6.3685923,63.253017,-28.900978,6.764206,-5.4973626,0.82148796,15.246146,-47.269897,49.882423,-11.2912035,39.046665,42.246906,12.575087,21.245253,-28.343164,-37.115093,-10.559775,25.839104,-19.815535,-1.0219185,-32.019062
151,-1.1095176935195923,-9.218761444091797,68.93968963623047,-3.5906658227368604,-1.4052768607821118,-89.39908991601969,-26.558271,21.786547,6.4147635,66.552574,-35.25852,-9.791783,-24.279997,-8.554728,-6.8456497,66.620285,-33.132465,6.0014715,-5.5913463,1.2461556,15.171048,-51.558342,51.531143,-12.825726,39.022034,42.088432,13.075938,21.038876,-32.343307,-39.07867,-10.05021,25.983068,-19.442469,-0.64954454,-32.55346
152,-1.0667511224746704,-9.062912940979004,67.62687683105469,-3.80987695280765,-0.9016481177687746,-89.49626085337381,-28.598343,22.415455,6.0381274,69.514725,-39.027798,-9.502696,-26.228535,-8.718648,-7.04766,69.71494,-36.703022,5.341934,-5.6873775,1.5163491,15.31627,-55.231174,53.040035,-14.09828,38.784985,42.023376,13.455324,20.86057,-36.073273,-41.02545,-9.407952,26.270912,-19.229504,-0.45372987,-32.836124
153,-1.0143983364105225,-8.931113243103027,66.50594329833984,-3.7510980694983056,-0.7903636195803971,-89.60022687482525,-30.222082,22.739622,5.850931,72.65067,-41.245483,-9.058,-27.612087,-8.997161,-6.87555,72.543465,-39.49475,4.830682,-5.7291975,1.5123361,15.782036,-58.29911,54.36623,-15.026122,38.38286,42.233364,13.697597,20.729086,-39.442608,-42.896835,-8.788602,26.690369,-19.382088,-0.5176919,-32.741566
154,-0.9806575179100037,-8.787606239318848,65.584228515625,-3.516051183887146,-0.94109260762011,-89.71176035463287,-31.62461,22.887983,5.7527366,75.87762,-42.10201,-8.386557,-28.705784,-9.359567,-6.4569283,75.19411,-41.441593,4.4087377,-5.6915073,1.3379296,16.503067,-61.04633,55.546745,-15.790512,37.94992,42.61594,13.842223,20.63689,-42.515892,-44.71781,-8.195746,27.157324,-19.793095,-0.7725145,-32.38798
155,-0.96827232837677,-8.702204704284668,64.84761047363281,-3.242359035929598,-1.1987982590689081,-89.8304343240743,-32.77,23.020924,5.723706,78.84695,-42.362816,-7.5671015,-29.581564,-9.694709,-5.964617,77.543106,-42.8264,4.0110106,-5.599974,1.1483059,17.288965,-63.406193,56.562874,-16.396458,37.49552,42.980293,13.92223,20.564993,-45.38664,-46.463963,-7.4587464,27.710442,-20.214,-1.063858,-31.964075
156,-0.9752361178398132,-8.66114616394043,64.2668685913086,-3.060707666084875,-1.409022879921955,-89.9516087178913,-33.631035,23.240843,5.7491074,81.19412,-42.757668,-6.7497177,-30.307505,-9.886514,-5.571876,79.471176,-43.925327,3.5822911,-5.5089025,1.0950918,17.93855,-65.22523,57.3738,-16.762575,36.99932,43.185974,13.973373,20.49676,-48.076283,-48.08853,-6.42902,28.335524,-20.391113,-1.2269241,-31.6619
157,-0.9761592149734497,-8.621091842651367,63.8170166015625,-3.0277957952154284,-1.5685677718785356,-90.08559962559441,-34.170254,23.60069,5.875706,82.83382,-43.358936,-5.9234543,-30.871876,-9.854273,-5.3423386,80.95423,-44.682465,3.060201,-5.416876,1.236089,18.416533,-66.46373,57.967068,-16.91788,36.55351,43.100662,13.989672,20.480646,-50.57368,-49.576546,-5.0293093,29.093376,-20.259857,-1.1814282,-31.52644
158,-0.975493311882019,-8.595778465270996,63.501983642578125,-3.0649342447330024,-1.7489491671414537,-90.2305327590732,-34.411667,24.019178,6.1193147,83.95231,-43.79272,-5.0498085,-31.246447,-9.687412,-5.189637,82.05899,-44.99302,2.484921,-5.309749,1.4701619,18.80734,-67.193634,58.351757,-16.857582,36.183067,42.860115,13.961891,20.51376,-52.824608,-50.93423,-3.3968651,29.94996,-19.950754,-1.0211698,-31.464884
159,-0.9712486267089844,-8.597306251525879,63.32338333129883,-3.098219889257712,-1.9061550854189313,-90.36015672706056,-34.428196,24.355558,6.4164686,84.58909,-44.10567,-4.2836723,-31.469437,-9.513249,-5.0650415,82.7957,-45.060623,1.9717643,-5.1916466,1.7296301,19.090887,-67.509285,58.546745,-16.567734,35.78727,42.624744,13.922644,20.505552,-54.82083,-52.143326,-1.7408822,30.81245,-19.568842,-0.8376645,-31.455547
160,-0.9708415865898132,-8.609386444091797,63.274173736572266,-3.0524465495122985,-1.995745007615721,-90.44876296909075,-34.29552,24.472378,6.69739,84.78244,-44.346302,-3.77626,-31.581041,-9.4509945,-4.9187646,83.17137,-45.079678,1.6453025,-5.0735345,1.9405177,19.247047,-67.506676,58.580883,-16.042194,35.261955,42.553417,13.904949,20.364365,-56.53375,-53.174072,-0.27954394,31.58423,-19.23107,-0.72194487,-31.477093
161,-0.9644513726234436,-8.63682746887207,63.3389892578125,-2.8861437698738595,-1.9785354481752297,-90.50788438300296,-33.994026,24.289415,6.9580994,84.433784,-44.559002,-3.6393876,-31.616175,-9.536572,-4.7117004,83.15387,-45.06861,1.5784957,-4.959548,2.0509179,19.227774,-67.15627,58.46544,-15.244477,34.578884,42.6696,13.896068,20.030561,-57.886425,-53.996677,0.9110505,32.245712,-18.931063,-0.70041513,-31.565756
162,-0.9446220397949219,-8.6748046875,63.503665924072266,-2.6482079867953687,-1.8877666753098026,-90.54506831307846,-33.498413,23.895533,7.233275,83.55723,-44.701935,-3.7706988,-31.543905,-9.701618,-4.486039,82.74805,-44.925377,1.7002058,-4.864867,2.0842803,19.056593,-66.43299,58.20995,-14.210354,33.792927,42.89002,13.882965,19.560722,-58.84858,-54.615738,1.8812863,32.826145,-18.645283,-0.7223462,-31.720486
163,-0.9259442090988159,-8.735346794128418,63.76478576660156,-2.3955488079639276,-1.7863069556418913,-90.52830125347185,-32.88203,23.40202,7.5003505,82.36234,-44.699974,-3.9941669,-31.310398,-9.903234,-4.309163,82.020935,-44.66528,1.916787,-4.821055,2.0814424,18.82185,-65.43346,57.845573,-13.037347,32.919037,43.213253,13.897053,19.037872,-59.46396,-55.067696,2.625211,33.308468,-18.438686,-0.76725006,-31.86544
164,-0.9005923867225647,-8.80537223815918,64.11489868164062,-2.1869703454150713,-1.7380470990828978,-90.42631568011488,-32.211605,22.91989,7.7441106,81.05786,-44.474705,-4.1408386,-30.86012,-10.10184,-4.249436,81.03818,-44.30326,2.13698,-4.848553,2.0834353,18.621904,-64.24926,57.403557,-11.806904,31.957975,43.647907,13.968847,18.541471,-59.768852,-55.39706,3.1159713,33.661396,-18.373453,-0.8170934,-31.915775
165,-0.8838779926300049,-8.871639251708984,64.54681396484375,-2.035723842757404,-1.7748051512754974,-90.21744085687122,-31.478825,22.460625,7.961566,79.67891,-43.985676,-4.1705546,-30.130424,-10.297088,-4.3280067,79.7742,-43.852146,2.3710382,-4.959609,2.1078753,18.493893,-62.86895,56.90171,-10.525863,30.859571,44.207386,14.113164,18.069246,-59.744366,-55.62332,3.2877598,33.8652,-18.499956,-0.8746752,-31.837934
166,-0.8812829852104187,-8.948092460632324,65.0475082397461,-1.912606226043969,-1.857906533055508,-89.92313392009373,-30.65297,21.969564,8.160125,78.11968,-43.28351,-4.1740427,-29.163816,-10.5060215,-4.5090866,78.20673,-43.30439,2.6556158,-5.139489,2.132306,18.393679,-61.256,56.33305,-9.157043,29.614855,44.87069,14.3065815,17.577896,-59.370445,-55.744255,3.1513891,33.932354,-18.761236,-0.9506783,-31.67244
167,-0.8809662461280823,-9.0281982421875,65.61392211914062,-1.8097214176432717,-1.9449749927517033,-89.57658199666064,-29.770325,21.455435,8.341809,76.38368,-42.423325,-4.18016,-28.066395,-10.712221,-4.7751184,76.41331,-42.64183,2.940704,-5.3627357,2.1466951,18.290073,-59.48009,55.691853,-7.734717,28.309885,45.58109,14.524501,17.091534,-58.691696,-55.777412,2.8200457,33.88858,-19.048275,-1.0371813,-31.449379
168,-0.8827681541442871,-9.106783866882324,66.24079132080078,-1.7227907449606712,-1.9934881685139587,-89.21094609388759,-28.866396,20.927742,8.507648,74.47138,-41.459633,-4.216789,-26.942057,-10.899085,-5.108171,74.46527,-41.847374,3.1772892,-5.5982966,2.1467273,18.15011,-57.625813,54.972904,-6.30977,27.039623,46.268833,14.746901,16.635107,-57.75678,-55.752052,2.4184504,33.765423,-19.241325,-1.1251944,-31.198803
169,-0.8853161931037903,-9.190929412841797,66.91631317138672,-1.6711057428867149,-1.989426600392008,-88.79735940022304,-27.980074,20.387913,8.60907,72.378975,-40.394688,-4.28707,-25.798094,-11.058472,-5.544616,72.35458,-40.90464,3.3253112,-5.861924,2.1597319,17.964096,-55.696354,54.17202,-4.90909,25.801483,46.913204,15.049642,16.256054,-56.55412,-55.69316,1.982337,33.566235,-19.303783,-1.2226353,-30.924763
170,-0.8850688934326172,-9.269120216369629,67.62773895263672,-1.6499402588233023,-1.955948828531175,-88.33056338703535,-27.07963,19.832247,8.658267,70.10772,-39.20557,-4.376156,-24.585314,-11.195197,-6.080336,70.05296,-39.829964,3.4207766,-6.172309,2.175788,17.765436,-53.664436,53.237244,-3.4649591,24.553246,47.627483,15.414706,15.919842,-55.09423,-55.58512,1.4627928,33.27844,-19.281239,-1.3321583,-30.606575
171,-0.8856650590896606,-9.346260070800781,68.374267578125,-1.6185967861857045,-1.9061817137563768,-87.87902953946437,-26.098803,19.263733,8.743652,67.66235,-37.915375,-4.4852266,-23.324348,-11.313788,-6.6348934,67.59903,-38.650974,3.5277696,-6.434797,2.189783,17.529747,-51.591293,52.19415,-2.0592594,23.351175,48.304607,15.691286,15.559923,-53.432476,-55.44125,0.88493377,32.95118,-19.202038,-1.4310762,-30.253126
172,-0.8800001740455627,-9.424272537231445,69.13977813720703,-1.533989097380961,-1.853954703728827,-87.51112860664591,-24.976557,18.683361,8.951776,65.047264,-36.545013,-4.614654,-22.037704,-11.424494,-7.123653,65.03301,-37.397556,3.705076,-6.5832977,2.1690319,17.258295,-49.512386,51.072212,-0.71050364,22.22877,48.885654,15.720395,15.105098,-51.63589,-55.26409,0.2618934,32.61237,-19.077915,-1.4970222,-29.864447
173,-0.8692029118537903,-9.506271362304688,69.92529296875,-1.368325488867319,-1.8067745874133812,-87.23917737832245,-23.664223,18.075497,9.335428,62.19802,-35.07964,-4.7425623,-20.716389,-11.562224,-7.5137987,62.33632,-36.0612,3.958838,-6.615671,2.071809,16.96508,-47.419193,49.871174,0.62741226,21.176308,49.32678,15.408535,14.501812,-49.683826,-55.037968,-0.41933528,32.245117,-18.884861,-1.5257995,-29.426329
174,-0.8591527938842773,-9.620443344116211,70.71743774414062,-1.1492067674007744,-1.7560114810779743,-87.02863550157103,-22.212608,17.44108,9.828581,59.131958,-33.516815,-4.8724494,-19.354189,-11.717801,-7.8460307,59.498745,-34.638924,4.2547355,-6.566084,1.9216311,16.647509,-45.256454,48.590603,1.9562535,20.137194,49.643345,14.855574,13.805057,-47.56029,-54.753975,-1.1510226,31.838655,-18.623476,-1.5272455,-28.943296
175,-0.8353601098060608,-9.736358642578125,71.49850463867188,-0.9205405788370067,-1.6916849631478343,-86.87725452949681,-20.707804,16.806263,10.339846,55.968693,-31.89659,-5.041375,-17.979643,-11.838814,-8.140942,56.57019,-33.16341,4.5881405,-6.452872,1.7714518,16.303701,-43.106136,47.24892,3.183419,19.182728,49.921864,14.1847105,13.100548,-45.381294,-54.414993,-1.8735887,31.435278,-18.3408,-1.50471,-28.441294
176,-0.815805971622467,-9.8676118850708,72.26179504394531,-0.731303267000109,-1.6035934834017032,-86.78298733288005,-19.233068,16.20256,10.779163,52.826153,-30.259836,-5.2851224,-16.62042,-11.872568,-8.41681,53.594944,-31.668255,4.95534,-6.284406,1.676266,15.9237175,-41.00191,45.886723,4.2288527,18.354431,50.23218,13.522282,12.474952,-43.24928,-54.036263,-2.5363073,31.082714,-18.082582,-1.4624804,-27.947578
177,-0.7984959483146667,-9.99606990814209,72.99333190917969,-0.5926775993610152,-1.5067554420028046,-86.75668844106023,-17.729822,15.6590395,11.170209,49.6431,-28.61671,-5.608336,-15.215345,-11.798665,-8.673926,50.477104,-30.155,5.373796,-6.0496635,1.6486436,15.519864,-38.923035,44.53854,5.09021,17.671587,50.61816,12.84164,11.9195595,-41.171684,-53.626877,-3.1396387,30.79367,-17.861032,-1.373811,-27.444557
178,-0.7782372832298279,-10.118288040161133,73.68470001220703,-0.4812274868305209,-1.4002749626092672,-86.79559468456458,-16.181246,15.159242,11.537852,46.383312,-26.951365,-5.9850917,-13.774593,-11.660591,-8.887911,47.228165,-28.614748,5.827362,-5.7557673,1.6514753,15.097422,-36.86934,43.213844,5.807031,17.132622,51.019142,12.093876,11.397918,-39.10843,-53.180744,-3.7000546,30.542702,-17.64504,-1.2469754,-26.924936
179,-0.7665449976921082,-10.246353149414062,74.33271026611328,-0.383263224910326,-1.2506624707340217,-86.87729344603585,-14.731625,14.6725855,11.796192,43.208885,-25.259926,-6.408695,-12.426263,-11.496251,-9.045659,44.036205,-27.060392,6.268313,-5.433541,1.6643685,14.633772,-34.846027,41.9142,6.39292,16.70003,51.35915,11.375858,10.952393,-37.095905,-52.692585,-4.1978664,30.3306,-17.42348,-1.1391813,-26.431433
180,-0.7601526379585266,-10.372854232788086,74.9308090209961,-0.284820896553381,-1.0248219881567042,-86.97908505051113,-13.522392,14.16942,11.859933,40.28141,-23.534897,-6.8794107,-11.299234,-11.336867,-9.141346,41.092617,-25.497839,6.660179,-5.117963,1.6703929,14.105516,-32.88352,40.637028,6.855169,16.361696,51.56919,10.785604,10.6228075,-35.16729,-52.15922,-4.608272,30.155048,-17.177368,-1.1072025,-26.008038
181,-0.749141275882721,-10.487552642822266,75.47615814208984,-0.18103791343265788,-0.6919899918349196,-87.10783956325942,-12.6091795,13.619158,11.6338,37.61751,-21.711946,-7.437733,-10.434949,-11.174419,-9.163918,38.394768,-23.877283,7.013699,-4.808015,1.6644727,13.479479,-30.980791,39.382656,7.1920204,16.141651,51.61651,10.372352,10.429112,-33.338383,-51.582634,-4.9068627,30.041325,-16.877045,-1.1977785,-25.692982
182,-0.7434965968132019,-10.586738586425781,75.96665954589844,-0.0821119428694393,-0.2770549431463935,-87.27081796203363,-11.899617,13.056003,11.182436,35.130074,-19.81624,-8.077708,-9.760531,-11.001713,-9.119552,35.852028,-22.206654,7.3502793,-4.4920745,1.6550853,12.775165,-29.105408,38.158115,7.42294,16.037392,51.550503,10.078968,10.343702,-31.5896,-50.967243,-5.107983,29.98498,-16.539345,-1.3697381,-25.45533
183,-0.7383431792259216,-10.673344612121582,76.4074478149414,0.006277671246382145,0.16921667615215422,-87.44600489081192,-11.315742,12.539453,10.669877,32.82364,-17.966108,-8.73539,-9.231649,-10.839263,-9.039333,33.52014,-20.570517,7.658052,-4.1846642,1.6464101,12.051971,-27.257832,36.969097,7.575418,16.002258,51.423653,9.843916,10.333428,-29.930273,-50.313164,-5.240789,29.959988,-16.228895,-1.5486567,-25.23344
184,-0.7349042892456055,-10.74571418762207,76.79869842529297,0.08112160699738565,0.5958376814477233,-87.61175613274582,-10.7868395,12.12077,10.268856,30.708395,-16.274248,-9.344047,-8.805954,-10.70093,-8.959383,31.459799,-19.052761,7.925312,-3.904462,1.6420479,11.367473,-25.446363,35.8213,7.669077,15.995795,51.28726,9.604913,10.365932,-28.344484,-49.618397,-5.3397064,29.91749,-16.002598,-1.6599171,-24.967281
185,-0.7306117415428162,-10.808248519897461,77.14019775390625,0.13767348103506172,1.0151062125181116,-87.76619781917476,-10.346263,11.803507,10.004905,28.817547,-14.751654,-9.890974,-8.5398245,-10.577796,-8.894612,29.750553,-17.646002,8.132136,-3.6516383,1.6451408,10.708753,-23.683794,34.71785,7.6948805,16.028706,51.124363,9.344056,10.437649,-26.837858,-48.87699,-5.4132276,29.851347,-15.86668,-1.6948404,-24.622894
186,-0.7275052666664124,-10.864648818969727,77.43597412109375,0.1800744511350491,1.4450945732120344,-87.920026306885,-10.015453,11.551018,9.80519,27.13037,-13.333058,-10.4163475,-8.432121,-10.454346,-8.834708,28.330912,-16.305313,8.2997675,-3.4163778,1.6502461,10.056511,-21.969608,33.660927,7.642147,16.122623,50.916916,9.094634,10.563869,-25.426779,-48.087177,-5.444441,29.79572,-15.80044,-1.6905942,-24.237608
187,-0.7199388742446899,-10.91015338897705,77.6978988647461,0.21283675339804256,1.843286692824479,-88.0706519813607,-9.715506,11.354062,9.700993,25.593142,-12.023596,-10.930029,-8.35763,-10.33507,-8.779605,27.059458,-15.064384,8.474938,-3.2092276,1.6500378,9.45317,-20.282677,32.65205,7.529542,16.249315,50.71523,8.869648,10.740629,-24.042938,-47.251575,-5.44707,29.702335,-15.805125,-1.6404963,-23.860512
188,-0.7119962573051453,-10.956066131591797,77.91912078857422,0.24134843233349476,2.1674115092963784,-88.21552351525045,-9.367458,11.206194,9.720922,24.152018,-10.829211,-11.43915,-8.188755,-10.2270775,-8.725977,25.792263,-13.956086,8.700179,-3.024771,1.6408478,8.951346,-18.620575,31.689331,7.363015,16.380724,50.567875,8.682479,10.963991,-22.722664,-46.372635,-5.4096274,29.61352,-15.903788,-1.5394781,-23.53642
189,-0.7026045322418213,-10.994677543640137,78.10587310791016,0.2697772007956989,2.400852788643864,-88.35488055060283,-8.942707,11.117629,9.9432125,22.79443,-9.733834,-11.977226,-7.8813496,-10.132388,-8.67826,24.484016,-12.986805,9.015211,-2.8635483,1.622648,8.564033,-16.984106,30.774734,7.134377,16.52434,50.50913,8.540439,11.250831,-21.461273,-45.453804,-5.317983,29.534897,-16.180504,-1.360374,-23.317364
190,-0.6976084113121033,-11.033160209655762,78.26416778564453,0.29607605949927857,2.567756757313364,-88.48989634426243,-8.48891,11.079643,10.333955,21.550276,-8.73919,-12.530573,-7.505137,-10.044702,-8.637804,23.209145,-12.136716,9.38613,-2.727398,1.5989332,8.261624,-15.379993,29.910149,6.840789,16.699759,50.506374,8.434924,11.598621,-20.23513,-44.494877,-5.1796727,29.439548,-16.596092,-1.1154444,-23.164497
191,-0.6945660710334778,-11.063910484313965,78.39102935791016,0.31690709468737926,2.687408226202032,-88.61866876054545,-8.036423,11.061248,10.755304,20.422672,-7.8829103,-13.032976,-7.1003456,-9.961465,-8.597076,22.000273,-11.4076805,9.743513,-2.6161013,1.5682383,8.031186,-13.811922,29.093794,6.4993906,16.89419,50.51056,8.355973,11.9734955,-19.05119,-43.499435,-5.010953,29.31924,-16.98318,-0.85801625,-22.98914
192,-0.6884146928787231,-11.08670711517334,78.48855590820312,0.32842784205761516,2.7790742187677315,-88.73944080413979,-7.614609,11.03607,11.070705,19.41487,-7.2010894,-13.416732,-6.7102733,-9.8794775,-8.5496,20.895815,-10.80259,10.018394,-2.5313134,1.5324055,7.8582954,-12.278372,28.318983,6.131473,17.092182,50.47273,8.292652,12.341587,-17.88761,-42.468906,-4.8377624,29.140017,-17.168833,-0.64134,-22.705126
193,-0.6829782724380493,-11.103083610534668,78.55656433105469,0.332016736539297,2.838876617708804,-88.85514781136321,-7.2267914,10.995899,11.247102,18.544424,-6.7093263,-13.6666155,-6.3366404,-9.795307,-8.483205,19.903385,-10.326245,10.195207,-2.4754663,1.4914254,7.752878,-10.763311,27.58195,5.742312,17.259483,50.4038,8.25798,12.697555,-16.747524,-41.40134,-4.677372,28.87966,-17.113138,-0.4795571,-22.256845
194,-0.6754797101020813,-11.113648414611816,78.59354400634766,0.33010529313360243,2.859618122128749,-88.96563437962152,-6.8614516,10.9546175,11.361641,17.811495,-6.3862185,-13.815176,-5.963016,-9.710185,-8.407618,19.008865,-9.9762745,10.309767,-2.4436078,1.4455208,7.7167916,-9.280856,26.882639,5.31767,17.420876,50.323982,8.252565,13.059033,-15.635414,-40.29736,-4.5143504,28.558035,-16.907341,-0.34216422,-21.701902
195,-0.6668258309364319,-11.113664627075195,78.6027603149414,0.31998754738849067,2.8551346486606377,-89.06476494570241,-6.5267816,10.921082,11.442379,17.197119,-6.212032,-13.8665,-5.604399,-9.628332,-8.349962,18.215797,-9.7425165,10.371601,-2.4247544,1.3974774,7.7245584,-7.8744965,26.21832,4.8507366,17.647436,50.197296,8.245593,13.426561,-14.542916,-39.164486,-4.3223367,28.216063,-16.574465,-0.21423419,-21.125221
196,-0.655905544757843,-11.10859203338623,78.5857925415039,0.29890777733620044,2.8392179078590902,-89.1464726317407,-6.2321596,10.904061,11.516694,16.684233,-6.1681333,-13.826822,-5.275814,-9.55314,-8.33717,17.527914,-9.614953,10.391035,-2.4086328,1.3516088,7.7498302,-6.581228,25.584648,4.3388658,18.00641,49.989006,8.205953,13.799774,-13.455319,-38.015755,-4.0766096,27.890112,-16.137033,-0.08199771,-20.611174
197,-0.644332230091095,-11.094045639038086,78.55779266357422,0.2675931025844669,2.8127288999909745,-89.20246965413011,-5.9920073,10.896926,11.565241,16.292349,-6.2712674,-13.673865,-4.981608,-9.488516,-8.388374,16.959532,-9.612359,10.366878,-2.3999217,1.3111811,7.7955823,-5.3994594,24.979172,3.7791464,18.482239,49.67434,8.139938,14.183633,-12.368335,-36.85912,-3.771991,27.56415,-15.545163,0.06310007,-20.173512
198,-0.6265866756439209,-11.07446002960205,78.51251983642578,0.22766964853649085,2.7691298303432728,-89.23823250125713,-5.8014693,10.895246,11.5823,16.030422,-6.5255713,-13.414807,-4.714905,-9.429042,-8.486008,16.506033,-9.732637,10.296959,-2.3997157,1.2772781,7.870337,-4.3138666,24.400162,3.176721,19.052479,49.27739,8.057967,14.576371,-11.292731,-35.696144,-3.4180229,27.234655,-14.801573,0.21393481,-19.770134
199,-0.6099949479103088,-11.05329418182373,78.4461441040039,0.17623496230531238,2.7110360575644106,-89.26822342785911,-5.6279044,10.90946,11.616455,15.8367605,-6.885112,-13.101459,-4.4706373,-9.364308,-8.601917,16.134872,-9.934076,10.190929,-2.3914568,1.2514777,7.958286,-3.336052,23.8425,2.54425,19.76735,48.837387,7.9353013,14.966351,-10.246437,-34.53262,-3.0110028,26.966745,-14.005982,0.35786426,-19.400713
200,-0.586675226688385,-11.018117904663086,78.36235046386719,0.11049023787534172,2.6414396777855704,-89.30675665611717,-5.44758,10.9522085,11.714996,15.669655,-7.308656,-12.784675,-4.24919,-9.284556,-8.7071495,15.825363,-10.175823,10.057407,-2.3596132,1.2372156,8.04415,-2.4709623,23.298615,1.8981847,20.671783,48.394016,7.747883,15.341273,-9.248079,-33.376324,-2.546802,26.825487,-13.25649,0.48161572,-19.064335
201,-0.5677527785301208,-10.980696678161621,78.27533721923828,0.026818466796123066,2.556712686570507,-89.35479997068686,-5.244436,11.029226,11.898602,15.51554,-7.824439,-12.476347,-4.0422697,-9.187475,-8.817651,15.576459,-10.486819,9.8756275,-2.294846,1.2403117,8.120458,-1.717047,22.761158,1.2354189,21.788307,47.945637,7.477022,15.707361,-8.287701,-32.234726,-2.0125966,26.825888,-12.561216,0.58929026,-18.786373
202,-0.5485965609550476,-10.94140625,78.17821502685547,-0.07296219455146041,2.4565804110095204,-89.40553472879618,-5.0318737,11.131992,12.138417,15.391899,-8.441746,-12.154619,-3.852792,-9.076949,-8.940138,15.398548,-10.875618,9.649736,-2.2083879,1.2626923,8.196406,-1.0609848,22.226933,0.5592096,23.081377,47.47852,7.1388564,16.06658,-7.36315,-31.110062,-1.4146082,26.939037,-11.869932,0.6841544,-18.557846
203,-0.5259039402008057,-10.898127555847168,78.0806655883789,-0.18267286543805783,2.3493503944185568,-89.46152237308391,-4.834432,11.252919,12.408123,15.311876,-9.091095,-11.817082,-3.6931412,-8.954175,-9.033239,15.279242,-11.270754,9.425937,-2.115854,1.2991045,8.282245,-0.48278892,21.695257,-0.10376773,24.496405,47.01322,6.766076,16.397554,-6.5031357,-30.001266,-0.77984565,27.161722,-11.19385,0.7518076,-18.325224
204,-0.5011661648750305,-10.839856147766113,77.99055480957031,-0.29594722087157005,2.2430730585308587,-89.52554233318274,-4.6727095,11.384009,12.682738,15.280492,-9.700606,-11.458161,-3.5742352,-8.820971,-9.056718,15.203195,-11.59868,9.2498255,-2.0333843,1.3420516,8.389027,0.034073375,21.167864,-0.7270293,25.985281,46.56982,6.3897657,16.681831,-5.7349324,-28.906258,-0.13702962,27.488781,-10.545938,0.77896065,-18.03448
205,-0.48525795340538025,-10.78315544128418,77.91136932373047,-0.42313991394668155,2.1341685989791435,-89.60682970276058,-4.5438333,11.542454,12.998748,15.305951,-10.285781,-11.044377,-3.5003364,-8.662288,-8.977929,15.173007,-11.838691,9.134518,-1.9559305,1.4051192,8.529734,0.48673388,20.641088,-1.2964574,27.55415,46.173195,6.0269814,16.878807,-5.05253,-27.818312,0.50003874,27.893646,-9.892898,0.7622447,-17.654795
206,-0.4560390114784241,-10.713398933410645,77.83865356445312,-0.5635287744792788,2.0199495306705013,-89.70104912913726,-4.439949,11.726865,13.354413,15.385804,-10.875398,-10.588102,-3.463722,-8.482991,-8.826495,15.194418,-12.030141,9.0550995,-1.8792686,1.4855384,8.696435,0.87611204,20.114649,-1.8237101,29.215422,45.80615,5.660035,17.010221,-4.4418283,-26.737398,1.1436548,28.382517,-9.241922,0.71154875,-17.219389
207,-0.43531981110572815,-10.628130912780762,77.77632904052734,-0.6954485724889885,1.9103900966305676,-89.79060280397687,-4.372764,11.9021,13.66918,15.504785,-11.412852,-10.150214,-3.4602208,-8.314907,-8.656026,15.260038,-12.190721,8.999318,-1.819564,1.5540843,8.869198,1.2264447,19.59647,-2.3228886,30.925896,45.424374,5.2676735,17.148804,-3.9146361,-25.669357,1.8020962,29.00049,-8.662387,0.6295993,-16.770638
208,-0.41124242544174194,-10.547203063964844,77.72686767578125,-0.7973830369317516,1.8156518958663976,-89.8581641516972,-4.356914,12.033283,13.86309,15.650842,-11.843133,-9.791605,-3.48539,-8.189024,-8.520136,15.360155,-12.337355,8.954874,-1.7925961,1.5802869,9.028102,1.5594097,19.098536,-2.8093386,32.645847,44.981747,4.826791,17.366371,-3.4815316,-24.622416,2.4814744,29.79185,-8.221321,0.5177453,-16.350983
209,-0.3925999701023102,-10.46096420288086,77.68754577636719,-0.8567152538419944,1.7358703280404113,-89.90144112919884,-4.4023604,12.101525,13.896223,15.827342,-12.131017,-9.53057,-3.5557044,-8.123416,-8.42463,15.524292,-12.478546,8.929373,-1.8056712,1.5491436,9.18383,1.8889647,18.624018,-3.2588134,34.346275,44.491207,4.3078537,17.667038,-3.154795,-23.594503,3.1731174,30.79634,-7.990293,0.34672332,-15.957573
210,-0.38263556361198425,-10.36726188659668,77.66046142578125,-0.8875615277698335,1.6667979822499943,-89.9290760537792,-4.501433,12.129711,13.818703,16.041481,-12.313643,-9.332138,-3.668851,-8.098028,-8.343821,15.748013,-12.604226,8.924684,-1.8502334,1.4776447,9.342922,2.205894,18.171001,-3.6705618,36.049564,43.968567,3.7283995,18.014215,-2.918157,-22.580898,3.8705208,31.974077,-7.911876,0.12351916,-15.572761
211,-0.3752323389053345,-10.28012752532959,77.64012145996094,-0.9083183831169493,1.6115445049414134,-89.9401032326071,-4.634614,12.144282,13.686812,16.269571,-12.434572,-9.1778345,-3.7917047,-8.086205,-8.284255,15.967516,-12.70175,8.92055,-1.9157977,1.38415,9.478561,2.4960725,17.74486,-4.0980115,37.796284,43.370144,3.1337163,18.418339,-2.7350235,-21.587658,4.579795,33.24807,-7.8599772,-0.09644588,-15.21617
212,-0.37179890275001526,-10.175200462341309,77.62467956542969,-0.9370905423163722,1.5735187123207248,-89.93346365144646,-4.783667,12.171288,13.556062,16.490377,-12.538556,-9.049748,-3.890438,-8.061127,-8.252614,16.11864,-12.758175,8.897552,-1.9892167,1.2885942,9.564474,2.7439768,17.353521,-4.597879,39.629013,42.64834,2.5674334,18.889725,-2.568724,-20.625187,5.30673,34.54186,-7.705575,-0.25676692,-14.90548
213,-0.3700855076313019,-10.09949016571045,77.61968231201172,-0.9819449574834227,1.5587058806407064,-89.90229962734534,-4.969574,12.223795,13.42179,16.730692,-12.635828,-8.957701,-3.9622822,-8.012036,-8.260624,16.187826,-12.764037,8.844434,-2.0710325,1.197095,9.589025,2.939947,17.002028,-5.190644,41.604298,41.784763,2.0294387,19.508501,-2.4176393,-19.698265,6.0705295,35.867348,-7.4068155,-0.33719733,-14.676795
214,-0.3711566925048828,-10.02943229675293,77.62171936035156,-1.031962109494281,1.5638075074882054,-89.8493992974761,-5.1945286,12.2856245,13.260805,16.992723,-12.70323,-8.905322,-4.0234065,-7.954314,-8.301528,16.208435,-12.728644,8.773755,-2.164132,1.0999901,9.568639,3.1013224,16.688147,-5.847006,43.680763,40.805622,1.4921683,20.24047,-2.291342,-18.803719,6.857049,37.24733,-7.032299,-0.36961594,-14.508903
215,-0.3786963224411011,-9.959151268005371,77.62960052490234,-1.0769416239538003,1.577752547338088,-89.78824248244084,-5.4104886,12.338122,13.101048,17.21531,-12.734293,-8.866891,-4.067853,-7.899688,-8.354696,16.184538,-12.665514,8.702326,-2.2581265,0.9934072,9.5191345,3.2498107,16.408314,-6.5494742,45.757114,39.727444,0.9611191,20.925756,-2.1760118,-17.9429,7.623148,38.628674,-6.6188183,-0.37471548,-14.332612
216,-0.37958669662475586,-9.892634391784668,77.63784790039062,-1.1062704098637477,1.589745790331376,-89.73215895871026,-5.5709934,12.363374,12.970383,17.341614,-12.723658,-8.81777,-4.0905323,-7.8604803,-8.399194,16.122684,-12.58983,8.646917,-2.3408244,0.8741105,9.456829,3.400101,16.158075,-7.282953,47.736744,38.56263,0.44800135,21.405678,-2.0558407,-17.120533,8.323923,39.95555,-6.202555,-0.37259668,-14.077483
217,-0.3827291429042816,-9.84469223022461,77.65479278564453,-1.1125521791647701,1.6002461476265604,-89.68199077294415,-5.6541624,12.347851,12.877584,17.328945,-12.654503,-8.752197,-4.086481,-7.8438315,-8.42981,16.012032,-12.500283,8.610423,-2.4080594,0.7383151,9.376125,3.5367587,15.936548,-8.073693,49.654037,37.241707,-0.039710246,21.644714,-1.9215741,-16.338953,8.933596,41.219917,-5.7681932,-0.36066616,-13.696458
218,-0.3894638419151306,-9.79442310333252,77.67194366455078,-1.1025613360768671,1.6138837213821282,-89.63146589348236,-5.692558,12.305379,12.806659,17.22749,-12.536516,-8.68356,-4.0598726,-7.8420205,-8.457559,15.853339,-12.390564,8.584628,-2.4634862,0.59152204,9.272905,3.654651,15.743647,-8.924903,51.54609,35.777252,-0.5032777,21.725193,-1.778653,-15.597663,9.476713,42.44371,-5.3049045,-0.329234,-13.235756
219,-0.3952522277832031,-9.737239837646484,77.6884994506836,-1.0884407643014096,1.6259768900641745,-89.58348342006936,-5.700039,12.253884,12.753025,17.074062,-12.396665,-8.616936,-4.0188966,-7.844052,-8.485819,15.670113,-12.267812,8.569433,-2.5101097,0.44404963,9.165823,3.780686,15.574748,-9.78053,53.32053,34.304913,-0.9382034,21.667936,-1.6392602,-14.900132,9.988085,43.620514,-4.8555326,-0.28856137,-12.765917
220,-0.4005318880081177,-9.687071800231934,77.7042236328125,-1.0820285594424,1.631658733661835,-89.54102531550063,-5.693505,12.212517,12.711328,16.91199,-12.263769,-8.557095,-3.9708729,-7.839155,-8.51812,15.483635,-12.137817,8.564578,-2.5543168,0.30853322,9.074466,3.9389272,15.421745,-10.579545,54.88313,32.96196,-1.341085,21.494995,-1.5182085,-14.249412,10.5068865,44.74377,-4.460362,-0.25049534,-12.357461
221,-0.40122660994529724,-9.635847091674805,77.71903228759766,-1.0861538339399495,1.6320363351585168,-89.50882022433218,-5.6698194,12.185075,12.688682,16.73334,-12.137493,-8.499217,-3.9240613,-7.8248796,-8.551548,15.302495,-11.997591,8.57004,-2.599765,0.18951572,9.004668,4.134073,15.277706,-11.29248,56.20051,31.802803,-1.7114736,21.1771,-1.4268234,-13.647149,11.023528,45.808823,-4.1501627,-0.21558319,-12.030809
222,-0.4011205732822418,-9.58402156829834,77.73160552978516,-1.0943033340881803,1.62907578044711,-89.48387655565284,-5.624483,12.162705,12.684508,16.526115,-12.00726,-8.442506,-3.872361,-7.8071446,-8.5853615,15.113905,-11.845184,8.585934,-2.6469927,0.082220346,8.94693,4.3463936,15.141245,-11.949503,57.330772,30.748753,-2.0443397,20.718258,-1.3598952,-13.094097,11.528746,46.8218,-3.8956645,-0.17991826,-11.748343
223,-0.40052729845046997,-9.524547576904297,77.74468994140625,-1.1055215743186304,1.6186007303272223,-89.45789915873179,-5.5658464,12.143981,12.683056,16.311525,-11.878625,-8.398108,-3.802152,-7.7873664,-8.626294,14.9091425,-11.689705,8.612085,-2.6972363,-0.015006442,8.897563,4.5625067,15.013426,-12.578121,58.31553,29.739328,-2.3327909,20.190756,-1.3091897,-12.59261,12.062689,47.79504,-3.6453366,-0.14883907,-11.493386
224,-0.40208446979522705,-9.477826118469238,77.75542449951172,-1.1190290731367944,1.5967977089403549,-89.42238386611017,-5.5046163,12.128128,12.66809,16.115643,-11.759366,-8.377412,-3.6999693,-7.766594,-8.681154,14.679599,-11.539891,8.648348,-2.7538974,-0.10374741,8.852977,4.7726994,14.895964,-13.204181,59.193394,28.714796,-2.572236,19.665756,-1.2671651,-12.144941,12.667638,48.74132,-3.3470023,-0.12710465,-11.249122
225,-0.4068136215209961,-9.433670043945312,77.76533508300781,-1.138936398868493,1.560151536103589,-89.36953096540688,-5.437927,12.117534,12.629837,15.93565,-11.647664,-8.396488,-3.5488448,-7.7403526,-8.761573,14.407264,-11.393914,8.696445,-2.8255954,-0.18359604,8.813071,4.983038,14.789942,-13.822397,59.946163,27.602293,-2.7759292,19.141308,-1.2364186,-11.757925,13.391239,49.65524,-2.9400992,-0.12088418,-11.041423
226,-0.40585631132125854,-9.394315719604492,77.77486419677734,-1.1643039846700824,1.5117200562974613,-89.30564412750843,-5.3636765,12.112458,12.578363,15.764571,-11.542783,-8.444872,-3.3607566,-7.7095942,-8.860465,14.102393,-11.248412,8.755759,-2.9103158,-0.25251904,8.780771,5.194958,14.693153,-14.420064,60.56079,26.45313,-2.9406157,18.586412,-1.2212678,-11.431408,14.201641,50.531086,-2.4650078,-0.12600777,-10.867754
227,-0.39636632800102234,-9.343186378479004,77.7828598022461,-1.1863677223072768,1.4568583808050048,-89.24375807502102,-5.285914,12.105284,12.528928,15.606245,-11.4464245,-8.494266,-3.1645048,-7.6832886,-8.956751,13.796603,-11.110133,8.822652,-2.992267,-0.31220034,8.755894,5.3892026,14.602706,-15.016112,61.0869,25.39416,-3.0395672,18.031599,-1.2167102,-11.154719,15.017808,51.38478,-2.023907,-0.13129547,-10.669745
228,-0.38729405403137207,-9.291861534118652,77.78858184814453,-1.1964924520373184,1.4010757540344572,-89.19661748376288,-5.211829,12.08974,12.495972,15.4709425,-11.36314,-8.516608,-2.9893656,-7.6704874,-9.029489,13.52253,-10.985971,8.893525,-3.0522604,-0.36631992,8.737486,5.5449576,14.516883,-15.632386,61.575115,24.553652,-3.0475981,17.509682,-1.2161946,-10.912652,15.754309,52.23274,-1.7227969,-0.12547013,-10.390096
229,-0.37843701243400574,-9.240303039550781,77.7933578491211,-1.1881431794095305,1.3468635431359368,-89.1660244758664,-5.1468453,12.058208,12.482002,15.363816,-11.295203,-8.497638,-2.8413439,-7.6795397,-9.074039,13.282652,-10.879712,8.978581,-3.086685,-0.42218268,8.725608,5.644991,14.43829,-16.297808,62.041748,24.018553,-2.933139,17.050873,-1.2222784,-10.695051,16.377104,53.08469,-1.63216,-0.11878004,-9.990561
230,-0.3748439848423004,-9.190713882446289,77.79861450195312,-1.1671970065048212,1.2909787350645527,-89.14553152947953,-5.0856366,12.015975,12.479887,15.2779665,-11.2392,-8.454747,-2.704989,-7.7038026,-9.101397,13.060788,-10.786562,9.076043,-3.0997808,-0.48026958,8.719304,5.6991086,14.369269,-16.999298,62.461494,23.703638,-2.7209284,16.63325,-1.2395941,-10.502222,16.928492,53.936028,-1.6866766,-0.114841685,-9.511045
231,-0.3642526865005493,-9.149138450622559,77.80182647705078,-1.1437422100298293,1.2298560871455602,-89.13654417077237,-5.0198236,11.974802,12.490148,15.2056875,-11.1918955,-8.407203,-2.5765123,-7.729974,-9.114191,12.860465,-10.701874,9.164147,-3.0877361,-0.5329155,8.717774,5.725355,14.30623,-17.690468,62.83437,23.478724,-2.4798574,16.214733,-1.2615045,-10.334354,17.44051,54.77681,-1.7892052,-0.09164705,-9.011661
232,-0.35773274302482605,-9.106412887573242,77.80303192138672,-1.1279497701825247,1.1600167283692007,-89.14034546700283,-4.939118,11.946908,12.513647,15.135627,-11.148034,-8.3742895,-2.458569,-7.74494,-9.114156,12.69794,-10.622367,9.221074,-3.0480852,-0.57011986,8.720233,5.7409263,14.242199,-18.324696,63.16424,23.21375,-2.2779768,15.754546,-1.2829432,-10.190795,17.947922,55.598465,-1.8414258,-0.025656208,-8.552873
233,-0.3542841076850891,-9.071035385131836,77.80872344970703,-1.1226009725795019,1.0760035160031725,-89.16038017149623,-4.833373,11.936625,12.556313,15.06356,-11.108316,-8.363396,-2.3499303,-7.7444158,-9.096817,12.582001,-10.549497,9.231764,-2.9791818,-0.58632404,8.727758,5.748958,14.172405,-18.899317,63.45997,22.89703,-2.1317112,15.249266,-1.3055842,-10.072008,18.44444,56.408234,-1.8478055,0.099296615,-8.152316
234,-0.34748733043670654,-9.034223556518555,77.8139877319336,-1.1224095611656273,0.9811836352993335,-89.1948564212298,-4.7120185,11.937489,12.615361,14.999188,-11.0765505,-8.36346,-2.2508707,-7.735526,-9.062809,12.5047865,-10.484344,9.2109585,-2.8853161,-0.5853315,8.740305,5.740503,14.096333,-19.433323,63.72029,22.591503,-2.0056856,14.719139,-1.3330485,-9.977914,18.920069,57.208958,-1.8504918,0.26739985,-7.777832
235,-0.3402566611766815,-8.993228912353516,77.81683349609375,-1.124922469169381,0.8851702018183253,-89.23723826284653,-4.589096,11.944175,12.680014,14.941514,-11.047175,-8.366163,-2.1597474,-7.7216473,-9.022709,12.443528,-10.4212475,9.181838,-2.7742705,-0.57301915,8.753615,5.7192106,14.014839,-19.90876,63.927444,22.28254,-1.8843093,14.158442,-1.3673369,-9.909583,19.404076,57.99195,-1.8082888,0.4562576,-7.4164023
236,-0.33450210094451904,-8.951706886291504,77.81585693359375,-1.1285818063894748,0.7977633530938814,-89.2809434754154,-4.4836154,11.952213,12.738199,14.898998,-11.019391,-8.363202,-2.074787,-7.707289,-8.986806,12.374703,-10.354223,9.167744,-2.6565487,-0.555655,8.763968,5.691387,13.929222,-20.30425,64.06073,21.95602,-1.752107,13.560982,-1.4112887,-9.867545,19.928848,58.74756,-1.679307,0.6441983,-7.0554657
237,-0.3348791301250458,-8.915480613708496,77.82035827636719,-1.133698418011222,0.7205575040413496,-89.32832587689165,-4.398717,11.964372,12.789794,14.874913,-10.991915,-8.353677,-1.9963712,-7.690155,-8.957775,12.293969,-10.279147,9.17211,-2.5283134,-0.5302185,8.771608,5.6599097,13.83925,-20.597755,64.101395,21.613941,-1.5927854,12.887041,-1.4678442,-9.853957,20.495674,59.47964,-1.4281621,0.83536714,-6.7034774
238,-0.32966580986976624,-8.88143539428711,77.82360076904297,-1.1419777076022977,0.6486590609996044,-89.38148493567235,-4.3258495,11.981825,12.840087,14.8664,-10.966407,-8.341657,-1.9249333,-7.6689563,-8.930108,12.211978,-10.199361,9.183502,-2.3883135,-0.49430525,8.778992,5.6237707,13.744331,-20.802917,64.06165,21.264078,-1.4177574,12.152596,-1.5355445,-9.868494,21.092937,60.189735,-1.0838921,1.0394472,-6.3637795
