liuchenxu125/GMR/soma-retargeter/assets/motions/csv/item_pick_up_standing_R_001__A410.csv
Frame,root_translateX,root_translateY,root_translateZ,root_rotateX,root_rotateY,root_rotateZ,left_hip_pitch_joint_dof,left_hip_roll_joint_dof,left_hip_yaw_joint_dof,left_knee_joint_dof,left_ankle_pitch_joint_dof,left_ankle_roll_joint_dof,right_hip_pitch_joint_dof,right_hip_roll_joint_dof,right_hip_yaw_joint_dof,right_knee_joint_dof,right_ankle_pitch_joint_dof,right_ankle_roll_joint_dof,waist_yaw_joint_dof,waist_roll_joint_dof,waist_pitch_joint_dof,left_shoulder_pitch_joint_dof,left_shoulder_roll_joint_dof,left_shoulder_yaw_joint_dof,left_elbow_joint_dof,left_wrist_roll_joint_dof,left_wrist_pitch_joint_dof,left_wrist_yaw_joint_dof,right_shoulder_pitch_joint_dof,right_shoulder_roll_joint_dof,right_shoulder_yaw_joint_dof,right_elbow_joint_dof,right_wrist_roll_joint_dof,right_wrist_pitch_joint_dof,right_wrist_yaw_joint_dof
0,-0.22718016803264618,2.562957525253296,78.41712951660156,0.49096118257557214,-1.9624511080284326,-91.94010058683347,7.1724186,3.7105424,14.200551,6.9713616,-9.229329,-4.820673,6.1871867,-7.7819533,-22.326597,10.546674,-14.21612,6.2717066,-1.2434052,-0.115147,6.4989476,-9.249856,9.627567,-53.20418,59.459698,9.2727,3.7178571,-4.9152617,-9.573945,-9.644616,46.388134,58.522404,19.161531,9.576538,-10.333986
1,-0.23817354440689087,2.5854992866516113,78.4222183227539,0.48716603158259386,-1.9058447992517764,-91.88830847742982,7.0719504,3.7205136,14.147313,6.97425,-9.19451,-4.8191476,6.1468854,-7.760901,-22.381895,10.477259,-14.160996,6.269142,-1.2365249,-0.12233022,6.50416,-9.2973175,9.622156,-53.201847,59.45626,9.253892,3.7116835,-4.905771,-9.582325,-9.642216,46.39971,58.528584,19.152136,9.564081,-10.350908
2,-0.25197890400886536,2.6078076362609863,78.42741394042969,0.4858309816185936,-1.8565068481195741,-91.84100010485372,6.9880805,3.7265296,14.099355,6.963134,-9.154773,-4.8175244,6.109908,-7.7441072,-22.4322,10.418257,-14.11196,6.2688665,-1.2262826,-0.12888224,6.5057416,-9.326788,9.620886,-53.20075,59.443077,9.237342,3.7056575,-4.897098,-9.582086,-9.641639,46.406277,58.533966,19.140461,9.553495,-10.365558
3,-0.2632337510585785,2.6324462890625,78.4338607788086,0.4784980148712157,-1.793267092343151,-91.7838858540397,6.8684397,3.7425046,14.03955,6.9856586,-9.1273365,-4.81651,6.0700164,-7.715959,-22.493956,10.331255,-14.046986,6.2637935,-1.236212,-0.13443482,6.5188603,-9.393886,9.611565,-53.184193,59.449997,9.215019,3.6982548,-4.8867793,-9.607727,-9.637267,46.443207,58.54167,19.144726,9.538474,-10.388011
4,-0.2735361158847809,2.6616504192352295,78.44233703613281,0.47558142761475986,-1.736082559576305,-91.72947874838268,6.7625384,3.7528894,13.982981,6.9878907,-9.08867,-4.816693,6.0191193,-7.695792,-22.549198,10.275348,-13.997487,6.2513638,-1.2295918,-0.14427862,6.5359387,-9.441724,9.604782,-53.168507,59.4415,9.215555,3.6909862,-4.8698926,-9.620009,-9.634095,46.467144,58.54162,19.1291,9.536029,-10.395996
5,-0.28829288482666016,2.6928207874298096,78.44926452636719,0.47005969466952213,-1.6814207989860235,-91.67127117728093,6.653302,3.765627,13.921868,6.99312,-9.048818,-4.8197374,5.962056,-7.675165,-22.605217,10.232726,-13.954977,6.227514,-1.238834,-0.15554696,6.569566,-9.487906,9.595728,-53.116356,59.43263,9.253884,3.6790774,-4.847338,-9.650736,-9.62936,46.51699,58.54488,19.110106,9.545394,-10.390801
6,-0.3054121136665344,2.73122501373291,78.4555892944336,0.46391071740104717,-1.6281214112849307,-91.61156995107982,6.5425625,3.7793252,13.858726,6.99824,-9.007019,-4.8248005,5.8989563,-7.654897,-22.660442,10.201833,-13.918633,6.1954193,-1.2289187,-0.1720594,6.613218,-9.535174,9.591983,-53.076385,59.412807,9.307486,3.6684299,-4.8190947,-9.6732235,-9.627184,46.548817,58.534096,19.07442,9.564535,-10.374122
7,-0.3166998624801636,2.770573377609253,78.46295928955078,0.4592724613423571,-1.5706143391018748,-91.55041068302575,6.4245005,3.791263,13.793977,7.0008125,-8.960716,-4.829116,5.823102,-7.6377273,-22.715826,10.182061,-13.885369,6.160036,-1.2361988,-0.18693063,6.661949,-9.580706,9.587639,-53.007477,59.38964,9.366586,3.6550436,-4.788735,-9.706498,-9.623814,46.60883,58.526337,19.044382,9.585481,-10.357528
8,-0.32712358236312866,2.8128631114959717,78.47083282470703,0.457094205064712,-1.5028410043648615,-91.48832018305065,6.292067,3.799851,13.728201,7.0006504,-8.907791,-4.83024,5.72936,-7.6251845,-22.772013,10.169425,-13.850799,6.126042,-1.2138281,-0.20451348,6.7076426,-9.643696,9.587032,-52.98362,59.369114,9.383098,3.641389,-4.7524776,-9.725874,-9.622938,46.644287,58.511818,19.014986,9.600639,-10.347423
9,-0.34691688418388367,2.863081693649292,78.48021697998047,0.45938985250427866,-1.4218349079823085,-91.42492148714096,6.141594,3.80371,13.661167,6.9968123,-8.847504,-4.82692,5.6123,-7.6192985,-22.829292,10.166902,-13.815312,6.094675,-1.19424,-0.21852708,6.7495303,-9.720655,9.587831,-52.970325,59.34835,9.358836,3.6213233,-4.7129126,-9.748932,-9.622962,46.694553,58.499897,18.997,9.610362,-10.349905
10,-0.3575124442577362,2.910459518432617,78.48812866210938,0.46314453460955624,-1.331003593712275,-91.36036744552945,5.977984,3.8042521,13.5929575,6.988329,-8.780102,-4.8208084,5.477526,-7.6176286,-22.887108,10.171604,-13.778933,6.063311,-1.1981937,-0.22800931,6.7868347,-9.794746,9.594076,-52.945942,59.318436,9.304666,3.5966463,-4.666307,-9.781162,-9.624865,46.801453,58.492836,19.006538,9.615613,-10.366837
11,-0.36924901604652405,2.9620132446289062,78.49667358398438,0.46850182759222747,-1.2351976670831166,-91.29499496053384,5.804486,3.8031278,13.523724,6.981194,-8.709148,-4.813197,5.3308105,-7.6190653,-22.945276,10.184015,-13.743002,6.031317,-1.1757166,-0.24212657,6.8300576,-9.881191,9.601871,-52.939667,59.294262,9.238651,3.5757086,-4.6187057,-9.802387,-9.62802,46.87351,58.476818,19.008883,9.617343,-10.380289
12,-0.39062273502349854,3.022012710571289,78.50520324707031,0.4747569727686907,-1.1384782894169956,-91.22856326542149,5.628553,3.8008296,13.453773,6.970922,-8.632654,-4.805411,5.1794558,-7.621974,-23.00405,10.199228,-13.705462,5.998289,-1.1530302,-0.25998718,6.8828583,-9.958289,9.613331,-52.906773,59.27068,9.184913,3.5655377,-4.571405,-9.82249,-9.634093,46.945583,58.455612,19.025589,9.612631,-10.390105
13,-0.4043113589286804,3.0789144039154053,78.51399230957031,0.48166958485262557,-1.0435938094849262,-91.1615769791642,5.4528084,3.7978892,13.383103,6.960259,-8.552241,-4.798372,5.028227,-7.6252213,-23.063643,10.21496,-13.666243,5.9640603,-1.128595,-0.28417778,6.9473543,-10.027998,9.627041,-52.846104,59.252453,9.1533985,3.5736332,-4.526401,-9.83896,-9.642465,47.01264,58.42419,19.055763,9.59993,-10.389812
14,-0.418656587600708,3.1435186862945557,78.52392578125,0.48833271873407796,-0.9476741958078904,-91.09340595139427,5.272746,3.793848,13.311235,6.950278,-8.468011,-4.7911572,4.8729043,-7.6298885,-23.124512,10.232174,-13.624883,5.928908,-1.1231129,-0.30895972,7.0221877,-10.080304,9.6511965,-52.740055,59.22051,9.140243,3.5946536,-4.483323,-9.861027,-9.657678,47.10465,58.38452,19.106392,9.581543,-10.385736
15,-0.4383928179740906,3.2057087421417236,78.53376007080078,0.49679946481626336,-0.8473812692785309,-91.02450517942984,5.085969,3.7878237,13.239101,6.935971,-8.377863,-4.7822657,4.705951,-7.637039,-23.184635,10.256554,-13.583194,5.8927636,-1.110406,-0.33540437,7.1073337,-10.131933,9.681535,-52.614574,59.188114,9.124595,3.6144197,-4.440835,-9.880024,-9.677818,47.187275,58.338036,19.161148,9.559519,-10.382997
16,-0.45591503381729126,3.2816317081451416,78.54554748535156,0.5060789130326288,-0.7394532310596563,-90.95453397688965,4.885558,3.7805333,13.166509,6.9203753,-8.283002,-4.770333,4.5192695,-7.6479445,-23.242853,10.294361,-13.542693,5.855583,-1.0932426,-0.35803905,7.2051516,-10.183191,9.719938,-52.45996,59.150085,9.097113,3.6195173,-4.3989305,-9.898696,-9.705568,47.2625,58.28565,19.215918,9.537637,-10.38938
17,-0.47655123472213745,3.3646345138549805,78.5570297241211,0.5160632884014439,-0.6232825537729784,-90.88456206446287,4.670919,3.7715867,13.095256,6.903006,-8.184054,-4.7549095,4.3096485,-7.6634436,-23.297075,10.349411,-13.504023,5.818379,-1.0653919,-0.37495038,7.3141,-10.239966,9.762492,-52.286686,59.109116,9.055103,3.6061356,-4.36288,-9.914007,-9.740301,47.322666,58.227413,19.273859,9.515714,-10.414
18,-0.4905050992965698,3.457275867462158,78.56879425048828,0.5277551145090544,-0.5005686092860248,-90.81424973213812,4.4469047,3.7602801,13.024838,6.8795896,-8.078878,-4.736696,4.0820003,-7.6826954,-23.348593,10.417588,-13.466306,5.7807355,-1.0271608,-0.38851202,7.4327564,-10.303387,9.803109,-52.09719,59.07425,9.003005,3.581384,-4.330181,-9.927397,-9.778179,47.36955,58.167,19.336634,9.492219,-10.450618
19,-0.5038391351699829,3.542578935623169,78.58155059814453,0.5384293559799391,-0.3716463644726582,-90.74158722042313,4.2069426,3.7488365,12.951648,6.8637195,-7.9723783,-4.7161455,3.8409486,-7.7037706,-23.40126,10.490621,-13.427122,5.7407217,-0.99362415,-0.4000082,7.565543,-10.358807,9.8525095,-51.861217,59.033985,8.9470215,3.548291,-4.2911296,-9.9415455,-9.828446,47.42032,58.096077,19.395119,9.468567,-10.483304
20,-0.5199005007743835,3.6254777908325195,78.59451293945312,0.5500240472206619,-0.23652291145606993,-90.6644070242174,3.949706,3.7381973,12.872368,6.8579726,-7.863985,-4.6936674,3.5920548,-7.723832,-23.45927,10.5585375,-13.383575,5.696147,-0.9643788,-0.41295356,7.7130957,-10.404527,9.907948,-51.57159,58.99754,8.885149,3.5099823,-4.2336836,-9.959094,-9.887198,47.472546,58.020145,19.434319,9.445456,-10.49552
21,-0.5412669777870178,3.723233222961426,78.60699462890625,0.5618887526936535,-0.09469177339112521,-90.57997190185007,3.6768794,3.7272725,12.783513,6.853375,-7.747123,-4.668408,3.338275,-7.7417502,-23.526653,10.614823,-13.333387,5.6459527,-0.9401744,-0.4305311,7.8741326,-10.443503,9.964699,-51.22208,58.97547,8.807515,3.4691794,-4.1554956,-9.981426,-9.947831,47.520206,57.945908,19.44244,9.42196,-10.477728
22,-0.5569412112236023,3.81624174118042,78.62040710449219,0.5747843018844856,0.05371670521028911,-90.49008528591753,3.3911674,3.7156854,12.687985,6.8476095,-7.622606,-4.6405244,3.0758924,-7.7587194,-23.600292,10.666759,-13.279198,5.591261,-0.9046143,-0.45257422,8.043308,-10.49027,10.00685,-50.839954,58.98739,8.712386,3.4234483,-4.0599284,-10.008374,-9.993764,47.545357,57.889423,19.423119,9.396237,-10.439889
23,-0.5740270614624023,3.929412841796875,78.63359069824219,0.586833521193874,0.20725237571257496,-90.39972609326797,3.0952547,3.7034009,12.5918665,6.84147,-7.4922714,-4.6116867,2.8024757,-7.776552,-23.67351,10.721248,-13.222931,5.533573,-0.90328425,-0.46931934,8.231172,-10.507128,10.070528,-50.37128,58.971966,8.63759,3.3673017,-3.9538853,-10.050554,-10.060708,47.618637,57.822964,19.412453,9.372315,-10.398069
24,-0.5952303409576416,4.046636581420898,78.64754486083984,0.5998459465320668,0.3643173945300218,-90.3137811244606,2.7928576,3.6909635,12.501379,6.8354006,-7.357954,-4.5836105,2.514761,-7.796657,-23.739628,10.786778,-13.167013,5.474226,-0.89219433,-0.48277017,8.431571,-10.516416,10.136134,-49.88413,58.95651,8.584869,3.2970152,-3.8319108,-10.101305,-10.129235,47.695663,57.767128,19.410656,9.348297,-10.36318
25,-0.6172507405281067,4.16523551940918,78.66260528564453,0.6114055947300139,0.5227618986654907,-90.23165865987315,2.4878836,3.6790018,12.416433,6.8285146,-7.220751,-4.5580716,2.2183495,-7.817309,-23.798853,10.858953,-13.11053,5.4128776,-0.88841575,-0.49120504,8.644676,-10.506749,10.204083,-49.35856,58.937775,8.575892,3.2012126,-3.6819255,-10.16697,-10.200624,47.80369,57.725334,19.428158,9.330031,-10.333505
26,-0.6320695877075195,4.275365352630615,78.6761474609375,0.621639418550015,0.6839166568675383,-90.15143847141589,2.1769676,3.667139,12.334202,6.8219643,-7.079858,-4.5336084,1.912915,-7.838848,-23.853989,10.935421,-13.052548,5.349029,-0.8921514,-0.496447,8.87092,-10.481184,10.274938,-48.789585,58.917446,8.59728,3.085692,-3.5085495,-10.246062,-10.27509,47.936695,57.69408,19.456701,9.315452,-10.304018
27,-0.6442816257476807,4.402857303619385,78.68964385986328,0.6365626427822243,0.8516467106283607,-90.07594725411212,1.85504,3.6523333,12.25712,6.814423,-6.9324565,-4.5066924,1.5883517,-7.8653245,-23.902342,11.023129,-12.993875,5.2840195,-0.8937981,-0.49914166,9.111148,-10.4518,10.34836,-48.186493,58.894592,8.622406,2.9706566,-3.3383858,-10.336287,-10.35349,48.073627,57.669914,19.488571,9.294012,-10.284164
28,-0.666718065738678,4.5360107421875,78.70431518554688,0.653943112635124,1.0295766282882117,-90.00819389629248,1.516235,3.6326196,12.187617,6.8062825,-6.7764316,-4.473924,1.2333252,-7.9010363,-23.940807,11.131683,-12.936562,5.219049,-0.88198864,-0.4990779,9.366472,-10.431087,10.422925,-47.558388,58.86891,8.626184,2.8758895,-3.198041,-10.435454,-10.437063,48.19351,57.64757,19.51788,9.255369,-10.28335
29,-0.6814089417457581,4.674164295196533,78.72026062011719,0.6777745825775617,1.2221993081871545,-89.95042097602273,1.154673,3.6047618,12.128226,6.797412,-6.6098924,-4.432418,0.8401792,-7.949111,-23.9665,11.263511,-12.88051,5.155228,-0.8467662,-0.49511313,9.631977,-10.426875,10.496197,-46.9108,58.84364,8.609997,2.8134856,-3.1089938,-10.537089,-10.527867,48.28621,57.625504,19.53935,9.191698,-10.314074
30,-0.6996473073959351,4.820589542388916,78.7362060546875,0.7061746045497569,1.4262383797078972,-89.90060643925517,0.77549714,3.5706427,12.077139,6.7879252,-6.435017,-4.3843355,0.41613185,-8.006356,-23.981483,11.414259,-12.825326,5.091442,-0.79424375,-0.486997,9.908966,-10.433386,10.566765,-46.239197,58.821415,8.584817,2.7704463,-3.052042,-10.642417,-10.627201,48.36279,57.60345,19.557571,9.110527,-10.367862
31,-0.7098124623298645,4.986536502838135,78.7510986328125,0.7360840914395325,1.633916932938646,-89.8548503132431,0.38772702,3.5352364,12.030098,6.778008,-6.253777,-4.334043,-0.025147188,-8.067274,-23.990612,11.578858,-12.770287,5.0257745,-0.73865217,-0.4769398,10.207608,-10.443209,10.635613,-45.5404,58.800797,8.536305,2.7291327,-2.9926977,-10.760005,-10.734305,48.433136,57.57944,19.578537,9.024043,-10.422365
32,-0.7211006283760071,5.141597747802734,78.7659683227539,0.7644384410804312,1.837590895609492,-89.80941139555846,0.0006670615,3.5029428,11.983307,6.7677703,-6.0683956,-4.285825,-0.4702623,-8.127101,-23.99905,11.752569,-12.7150345,4.9563146,-0.69496906,-0.46815175,10.5376835,-10.448113,10.705737,-44.810493,58.779224,8.44964,2.6718698,-2.896718,-10.90102,-10.847535,48.508675,57.55537,19.609037,8.944498,-10.455311
33,-0.7347891330718994,5.298914909362793,78.78104400634766,0.789314536341566,2.0352622788264365,-89.7606001961628,-0.38337064,3.4766357,11.932624,6.757982,-5.880783,-4.2430353,-0.91219026,-8.182065,-24.011467,11.930814,-12.659417,4.8823595,-0.67252374,-0.46124777,10.901445,-10.437662,10.779666,-44.02429,58.750572,8.295383,2.5928915,-2.7501266,-11.067743,-10.964236,48.598167,57.53199,19.655851,8.873958,-10.455775
34,-0.7509111166000366,5.471964359283447,78.79637908935547,0.8126757211756335,2.2309336838879954,-89.71135668687782,-0.76606894,3.4525225,11.881479,6.7415733,-5.6857705,-4.2025223,-1.3582793,-8.235506,-24.024164,12.1149845,-12.6023035,4.804887,-0.66414136,-0.4556446,11.294057,-10.415658,10.858542,-43.188213,58.712986,8.091356,2.50175,-2.5736375,-11.256085,-11.082428,48.69564,57.51011,19.713242,8.80613,-10.437431
35,-0.7757092714309692,5.649196147918701,78.81050872802734,0.8380242617339293,2.426161751408702,-89.66766655867805,-1.1590081,3.4284673,11.835441,6.7368007,-5.4902086,-4.159044,-1.8218259,-8.294294,-24.028723,12.321022,-12.548851,4.724612,-0.6586756,-0.4523004,11.714659,-10.39942,10.944031,-42.35178,58.671997,7.889413,2.4039857,-2.384508,-11.469902,-11.202632,48.7912,57.494007,19.772337,8.740588,-10.414628
36,-0.7917109131813049,5.830874443054199,78.82408905029297,0.868270259101598,2.6222872025971853,-89.63554014407264,-1.556227,3.3988354,11.801218,6.7253685,-5.281271,-4.1069,-2.310329,-8.36253,-24.017002,12.551876,-12.49665,4.6420455,-0.6424353,-0.4511075,12.163262,-10.405995,11.037425,-41.565147,58.63183,7.743108,2.3059282,-2.1996639,-11.708059,-11.326248,48.871544,57.4808,19.823692,8.676922,-10.401698
37,-0.8101357221603394,6.01514196395874,78.83680725097656,0.9027851862534305,2.8231842631160524,-89.62009710812876,-1.9711617,3.367014,11.783437,6.7270265,-5.0689216,-4.042063,-2.8379493,-8.441518,-23.981524,12.822205,-12.450618,4.556174,-0.60668683,-0.45114464,12.63691,-10.444775,11.139704,-40.84689,58.597404,7.6727753,2.2064168,-2.0142062,-11.972059,-11.454751,48.940647,57.4711,19.862848,8.622416,-10.400433
38,-0.8210213780403137,6.2202534675598145,78.83992767333984,0.9232969991572254,3.0272629101824786,-89.61648479770567,-2.4131408,3.3538368,11.77267,6.76652,-4.867624,-3.9686506,-3.417398,-8.521314,-23.929314,13.173943,-12.434071,4.466775,-0.55866194,-0.43561465,13.136855,-10.50636,11.250967,-40.17086,58.564796,7.647504,2.1035438,-1.8219936,-12.25954,-11.588801,49.00099,57.462475,19.895136,8.574976,-10.403578
39,-0.8352201581001282,6.434298992156982,78.84153747558594,0.9443967336286341,3.2271235989820575,-89.61663358987285,-2.9784675,3.3655179,11.757135,7.070068,-4.7975836,-3.8915262,-4.006533,-8.604394,-23.872417,13.541054,-12.42088,4.376143,-0.50819594,-0.41694826,13.669028,-10.580188,11.370882,-39.52233,58.526325,7.642072,2.0022357,-1.6378748,-12.565611,-11.729521,49.037235,57.450405,19.923445,8.520753,-10.411699
40,-0.8443625569343567,6.670742988586426,78.83749389648438,0.963288364347827,3.416204612204965,-89.6117049144641,-3.6534898,3.4023912,11.727453,7.6245995,-4.8512177,-3.8159351,-4.5921965,-8.689651,-23.823141,13.923997,-12.4146805,4.2862935,-0.46514237,-0.39102536,14.239137,-10.656761,11.498638,-38.886887,58.4756,7.6309447,1.9071295,-1.4765394,-12.885844,-11.878855,49.03406,57.430473,19.951595,8.445785,-10.425114
41,-0.8502092957496643,6.895914077758789,78.83207702636719,0.9808237285364558,3.596517071997986,-89.59683803365135,-4.3393173,3.4408202,11.684584,8.2108965,-4.914016,-3.7409103,-5.1711698,-8.778,-23.788288,14.317119,-12.415078,4.1982527,-0.43278396,-0.35695478,14.843231,-10.733084,11.63244,-38.25486,58.413235,7.6324873,1.8215442,-1.3473808,-13.215463,-12.039139,48.985638,57.402985,19.98131,8.340582,-10.441922
42,-0.8639655113220215,7.124320983886719,78.8245849609375,0.9982787129339831,3.7703884909931182,-89.57758031420784,-5.0456724,3.4818676,11.634069,8.844443,-4.993038,-3.6627839,-5.7525992,-8.871291,-23.75961,14.726927,-12.4222765,4.110715,-0.4052689,-0.31664366,15.480086,-10.816895,11.771621,-37.636898,58.34404,7.6509786,1.7423047,-1.2405378,-13.557641,-12.211308,48.90152,57.367058,20.011076,8.214828,-10.462444
43,-0.8754276037216187,7.351852893829346,78.8157730102539,1.013112549983249,3.9319627987503756,-89.56067115430866,-5.760983,3.5289435,11.583068,9.515897,-5.086276,-3.582256,-6.335266,-8.965505,-23.728226,15.156894,-12.434842,4.021935,-0.37947777,-0.2700289,16.159264,-10.910081,11.916988,-37.046715,58.264015,7.6437163,1.6642678,-1.1421695,-13.919658,-12.395001,48.78756,57.318604,20.036232,8.083483,-10.490089
44,-0.8804662823677063,7.601653575897217,78.80020904541016,1.0229491803701918,4.075232283211527,-89.55287295113192,-6.4751196,3.5860035,11.538549,10.219425,-5.194089,-3.5007167,-6.917852,-9.056734,-23.685741,15.610735,-12.4516,3.9301546,-0.35255033,-0.21732318,16.890316,-11.014533,12.070787,-36.49878,58.16896,7.5669312,1.5821341,-1.0386517,-14.309047,-12.58878,48.649345,57.253998,20.051716,7.9616694,-10.528429
45,-0.8902651071548462,7.8543381690979,78.78201293945312,1.0250593397885333,4.194720070480932,-89.55569455520629,-7.1840363,3.6569438,11.500267,10.959243,-5.3192067,-3.418793,-7.4926734,-9.140844,-23.631205,16.08303,-12.468866,3.8356273,-0.32469085,-0.1553262,17.677307,-11.131646,12.235669,-36.004738,58.059555,7.3877234,1.4934261,-0.9229127,-14.724583,-12.790508,48.482506,57.174637,20.048544,7.8537292,-10.584434
46,-0.8941404819488525,8.113516807556152,78.7605972290039,1.021339745537337,4.295105979518703,-89.56557427256958,-7.893678,3.7392676,11.464704,11.735105,-5.459819,-3.3354099,-8.063237,-9.220901,-23.568933,16.574692,-12.488836,3.7389216,-0.29801565,-0.085481524,18.514093,-11.258217,12.412322,-35.554382,57.935036,7.1365905,1.4010239,-0.80393356,-15.165627,-12.999479,48.286064,57.08483,20.030418,7.751408,-10.653924
47,-0.9015386700630188,8.384190559387207,78.73335266113281,1.0155059984296686,4.385851748968518,-89.58152081519063,-8.607202,3.827821,11.433892,12.531811,-5.6075163,-3.2504785,-8.644644,-9.302819,-23.498203,17.09646,-12.516858,3.6387968,-0.2729439,-0.01337045,19.39539,-11.389716,12.600084,-35.131226,57.788452,6.862389,1.3082299,-0.69188446,-15.64078,-13.216217,48.074352,56.983635,20.016489,7.651168,-10.72419
48,-0.9097281694412231,8.652456283569336,78.7034683227539,1.0116137290732683,4.476193335814425,-89.60263491230766,-9.325972,3.9165356,11.410253,13.331472,-5.7514052,-3.1643782,-9.2447405,-9.38957,-23.419271,17.642487,-12.553603,3.534219,-0.2501135,0.05499631,20.316286,-11.520513,12.797301,-34.71503,57.612602,6.617365,1.2182994,-0.59684795,-16.157146,-13.441912,47.860596,56.867924,20.023932,7.549387,-10.782261
49,-0.9152361154556274,8.928115844726562,78.6696548461914,1.0110947293655639,4.556532046919643,-89.62499694670966,-10.031982,4.000619,11.39151,14.115357,-5.884661,-3.0770044,-9.856855,-9.485874,-23.333567,18.22447,-12.603452,3.4258015,-0.23318785,0.11868423,21.286541,-11.6512375,13.0027,-34.305145,57.410995,6.4008155,1.1297356,-0.52483815,-16.718145,-13.677739,47.65333,56.74138,20.064854,7.449768,-10.815697
50,-0.9200633764266968,9.220279693603516,78.6274642944336,1.0115559709024875,4.626078384601901,-89.65029861148945,-10.731487,4.084572,11.377064,14.899485,-6.0132437,-2.9893584,-10.476947,-9.587324,-23.241362,18.834236,-12.662237,3.3139646,-0.22157083,0.18126668,22.304888,-11.783532,13.215934,-33.90833,57.18563,6.1916156,1.0416714,-0.46939102,-17.317692,-13.923118,47.4445,56.601353,20.126383,7.3530335,-10.83428
51,-0.9260544776916504,9.520406723022461,78.57837677001953,1.011574731196287,4.706834627283752,-89.68609057414808,-11.455739,4.1753683,11.373468,15.702436,-6.146517,-2.9024928,-11.13346,-9.6904545,-23.135883,19.474771,-12.729414,3.1962435,-0.20985943,0.24276273,23.348759,-11.916112,13.437108,-33.52098,56.93101,6.0043507,0.9586358,-0.42142,-17.956562,-14.178067,47.22936,56.444992,20.195381,7.2503924,-10.858321
52,-0.9351922869682312,9.815370559692383,78.5255355834961,1.0092911938183105,4.82090304434103,-89.73994249018108,-12.238615,4.28015,11.385295,16.547245,-6.294862,-2.8193629,-11.855272,-9.791062,-23.010504,20.150454,-12.805244,3.0702424,-0.19294886,0.30377212,24.396118,-12.045415,13.666729,-33.137226,56.6394,5.8556933,0.8852397,-0.37189063,-18.633272,-14.442655,47.000793,56.267487,20.25552,7.1334004,-10.908396
53,-0.948911726474762,10.123207092285156,78.46157836914062,1.0071310248718408,4.96034473336461,-89.81678762775209,-13.072908,4.397765,11.41812,17.439213,-6.4619575,-2.7417462,-12.642702,-9.892536,-22.858294,20.875027,-12.895776,2.9333794,-0.16996425,0.361658,25.456821,-12.167279,13.90627,-32.749256,56.300514,5.7761397,0.829948,-0.31798878,-19.345978,-14.716418,46.748833,56.061428,20.296947,7.0025835,-10.986864
54,-0.9494009613990784,10.429550170898438,78.38896179199219,1.0050412340132524,5.118132201668074,-89.91162558265444,-13.947828,4.5259686,11.467269,18.369577,-6.6429276,-2.6689067,-13.483547,-9.995088,-22.684397,21.643633,-12.999879,2.7875316,-0.1437875,0.41701427,26.537325,-12.28189,14.156386,-32.360703,55.91869,5.7489424,0.78814477,-0.26472914,-20.097137,-14.999299,46.480606,55.832355,20.329298,6.8614645,-11.083631
55,-0.9463542103767395,10.7484712600708,78.30256652832031,0.9975389869998039,5.316560998152838,-90.01704747546822,-14.883429,4.6689477,11.523236,19.327135,-6.831,-2.5987597,-14.385715,-10.088679,-22.500093,22.427061,-13.10326,2.6376002,-0.11463989,0.47597548,27.611212,-12.394151,14.415902,-31.986084,55.508934,5.71648,0.7444218,-0.21484414,-20.88967,-15.2915,46.21543,55.59149,20.368889,6.7060285,-11.200995
56,-0.945310115814209,11.068163871765137,78.20903015136719,0.9791090019583285,5.578253406250274,-90.12570736651153,-15.902803,4.8311234,11.576071,20.304996,-7.021294,-2.5293398,-15.358744,-10.164309,-22.317207,23.199413,-13.193032,2.4885173,-0.08287023,0.5445597,28.651382,-12.509688,14.682333,-31.639467,55.088913,5.622034,0.6832185,-0.17086862,-21.725885,-15.593824,45.970753,55.3507,20.43023,6.532059,-11.340976
57,-0.9466055035591125,11.38323974609375,78.11033630371094,0.9435469377582661,5.917795549935178,-90.24255193461606,-17.027203,5.02335,11.626049,21.313187,-7.2161345,-2.462652,-16.414898,-10.210162,-22.135056,23.947426,-13.260008,2.3403099,-0.045071814,0.6286022,29.643476,-12.628527,14.954526,-31.325994,54.66228,5.439752,0.5927704,-0.13522798,-22.60298,-15.907076,45.749294,55.10778,20.521465,6.3258553,-11.513853
58,-0.9486966133117676,11.700218200683594,77.99324035644531,0.8943877002803395,6.502938127803851,-90.36686404956593,-18.444796,5.2404556,11.676114,22.341763,-7.384713,-2.39486,-17.752628,-10.231072,-21.949478,24.679522,-13.28383,2.1801136,0.056961305,0.72772884,29.793802,-12.523957,15.143355,-31.241953,54.545647,5.137443,0.48962608,-0.21934086,-23.086744,-16.16172,45.62541,54.97057,20.679409,6.1373954,-11.609153
59,-0.9516268968582153,12.019502639770508,77.86553192138672,0.8408963023813686,7.152699062704736,-90.48906073845201,-19.94063,5.4630065,11.719751,23.372011,-7.545384,-2.3286896,-19.166014,-10.246787,-21.7682,25.410881,-13.3005085,2.0201137,0.17626324,0.84519476,29.793802,-12.458568,15.2465315,-31.229368,54.57812,4.811257,0.3833557,-0.30835015,-23.578106,-16.358137,45.522324,54.940205,20.84862,5.946612,-11.70327
60,-0.950330376625061,12.339982986450195,77.72880554199219,0.7932118069730513,7.816689812601604,-90.59730434919041,-21.447203,5.67049,11.752109,24.380959,-7.695535,-2.2621946,-20.604761,-10.279694,-21.59579,26.168835,-13.329497,1.8644385,0.29099998,0.9685546,29.793802,-12.45802,15.289219,-31.241175,54.691185,4.5062523,0.2912128,-0.38389876,-24.147842,-16.517206,45.433903,54.991653,21.010973,5.773362,-11.79184
61,-0.9459422826766968,12.66221809387207,77.57980346679688,0.7518226309264617,8.500383275308424,-90.68596801482171,-22.969967,5.859152,11.769322,25.360565,-7.832811,-2.1959217,-22.074127,-10.332898,-21.436441,26.952404,-13.373945,1.715646,0.39719218,1.0946922,29.793802,-12.509261,15.286987,-31.27359,54.855022,4.2364254,0.22146875,-0.44966036,-24.793062,-16.653133,45.36228,55.098057,21.165974,5.639179,-11.860032
62,-0.9336617588996887,12.981501579284668,77.42005920410156,0.7123927755697472,9.211287372835178,-90.76232585293123,-24.524847,6.0393705,11.774627,26.329245,-7.961189,-2.1318266,-23.582027,-10.396818,-21.285652,27.754604,-13.427427,1.5720401,0.49922934,1.226292,29.793802,-12.601804,15.252372,-31.327808,55.051567,3.9805183,0.16419044,-0.5084785,-25.501442,-16.776785,45.303677,55.237312,21.31807,5.526621,-11.922085
63,-0.925125002861023,13.297555923461914,77.25299835205078,0.6776989575105761,9.93631209824908,-90.83326889035284,-26.095385,6.2119164,11.775493,27.293615,-8.086777,-2.068058,-25.116268,-10.471478,-21.135342,28.580063,-13.489506,1.4287812,0.60277045,1.3596976,29.793802,-12.720373,15.191686,-31.405512,55.28602,3.7187023,0.110785596,-0.56014967,-26.252178,-16.895275,45.26192,55.413242,21.470425,5.404982,-11.997964
64,-0.9160506725311279,13.614967346191406,77.07621002197266,0.6503553861635881,10.661755119642192,-90.90560572995346,-27.665306,6.3779263,11.7794075,28.260284,-8.213789,-2.0021555,-26.666023,-10.557121,-20.977314,29.435682,-13.560621,1.2806836,0.7134501,1.4922068,29.793802,-12.854202,15.107111,-31.509031,55.569656,3.4308176,0.05246172,-0.60389894,-27.030758,-17.013302,45.245594,55.63602,21.632002,5.2430263,-12.107585
65,-0.9052662253379822,13.92623519897461,76.88800811767578,0.629032108397102,11.37977559735914,-90.98121165493363,-29.226658,6.5393023,11.787346,29.23247,-8.344949,-1.934114,-28.223207,-10.65047,-20.810978,30.322384,-13.640614,1.1222363,0.8355128,1.6260787,29.793802,-12.997185,14.997441,-31.641317,55.905346,3.101587,-0.011796078,-0.6353609,-27.8191,-17.1314,45.246357,55.893543,21.808712,5.0310583,-12.258399
66,-0.8965181112289429,14.236865997314453,76.68649291992188,0.6128162552171503,12.099690715634122,-91.05623447914826,-30.790352,6.6951704,11.79579,30.205889,-8.477212,-1.8647579,-29.796736,-10.751976,-20.639732,31.237213,-13.729522,0.9569927,0.96672785,1.7626572,29.793802,-13.153026,14.863368,-31.800991,56.282475,2.7449327,-0.07753388,-0.6571382,-28.624577,-17.251875,45.26375,56.175655,21.99659,4.7862496,-12.439143
67,-0.8832781314849854,14.54581069946289,76.4734115600586,0.6048032143654647,12.83390106371905,-91.12854002729154,-32.371445,6.842665,11.805624,31.182896,-8.610017,-1.7914612,-31.399338,-10.865673,-20.462473,32.178486,-13.827442,0.792302,1.1029762,1.8986657,29.793802,-13.327711,14.709462,-31.983776,56.692856,2.384193,-0.1451296,-0.6792541,-29.4633,-17.380611,45.308872,56.489674,22.176762,4.518066,-12.642044
68,-0.8615745902061462,14.845463752746582,76.25016784667969,0.6081635807468821,13.595466609019867,-91.19598090592503,-33.98541,6.9786615,11.817895,32.165794,-8.7435255,-1.7112592,-33.046078,-10.996159,-20.277864,33.1481,-13.93635,0.6354352,1.2399421,2.030428,29.793802,-13.524313,14.542894,-32.184917,57.124878,2.0426626,-0.21471822,-0.7119953,-30.346832,-17.525005,45.391304,56.83708,22.329784,4.2368655,-12.859111
69,-0.8443764448165894,15.149575233459473,76.01179504394531,0.6254996868655032,14.399951618527218,-91.26141175540624,-35.646233,7.101584,11.838314,33.146206,-8.8710785,-1.6198677,-34.75575,-11.142244,-20.080992,34.141655,-14.051397,0.4873681,1.3782674,2.1488824,29.793802,-13.742248,14.370071,-32.39508,57.573097,1.7145965,-0.29093835,-0.75878876,-31.28391,-17.690235,45.513603,57.207417,22.459232,3.9387488,-13.086881
70,-0.8181610107421875,15.445833206176758,75.75841522216797,0.6545967322804997,15.237481069448602,-91.32432974909135,-37.344418,7.2136245,11.865078,34.128452,-8.996619,-1.5183636,-36.51818,-11.301211,-19.87319,35.16219,-14.174817,0.34339464,1.5201749,2.257508,29.793802,-13.972579,14.192916,-32.618446,58.032658,1.3904191,-0.37148207,-0.8155148,-32.26014,-17.877972,45.672855,57.58843,22.576286,3.6215532,-13.329807
71,-0.8033744096755981,15.729310035705566,75.49406433105469,0.6915597656666985,16.082600750875265,-91.37742939584395,-39.059917,7.3160243,11.888431,35.131588,-9.134245,-1.4111948,-38.302795,-11.474246,-19.661657,36.217712,-14.317061,0.20198454,1.6644003,2.371765,29.793802,-14.206634,14.01034,-32.8719,58.49457,1.0877272,-0.44623473,-0.8811509,-33.248676,-18.089033,45.860146,57.979443,22.658197,3.2984753,-13.591994
72,-0.7834512591362,16.008193969726562,75.21485137939453,0.7326447570008895,16.909902378871983,-91.41347933344659,-40.770256,7.4102774,11.899228,36.170155,-9.295489,-1.3032124,-40.078533,-11.663912,-19.454796,37.315895,-14.488613,0.06184149,1.8104308,2.5073283,29.793802,-14.43655,13.819069,-33.172455,58.95147,0.82544065,-0.505256,-0.95419896,-34.227184,-18.32535,46.070488,58.384087,22.68545,2.9825847,-13.877913
73,-0.7576196789741516,16.281784057617188,74.91344451904297,0.7757475103970046,17.719918795720353,-91.43256269871368,-42.48108,7.4977374,11.893315,37.251076,-9.483365,-1.1939299,-41.84916,-11.8689785,-19.25136,38.45974,-14.690131,-0.07766433,1.960848,2.6696525,29.793802,-14.667848,13.616112,-33.534225,59.408417,0.59831226,-0.54621476,-1.0402122,-35.187958,-18.586292,46.288452,58.797783,22.639122,2.6910841,-14.18537
74,-0.7193198204040527,16.545272827148438,74.60298156738281,0.823741809834858,18.523890458560636,-91.43739114235485,-44.200985,7.5766397,11.876876,38.36643,-9.692267,-1.080286,-43.627323,-12.089244,-19.047894,39.644173,-14.916681,-0.21695921,2.1174674,2.851016,29.793802,-14.903252,13.400243,-33.94717,59.869152,0.39992216,-0.57453984,-1.1375833,-36.149376,-18.874174,46.529068,59.22265,22.543427,2.4129815,-14.513996
75,-0.7072809338569641,16.80370330810547,74.2777099609375,0.8798208455118534,19.312164323123415,-91.42510211400135,-45.91499,7.6443706,11.853753,39.511784,-9.922398,-0.965217,-45.40125,-12.327746,-18.84451,40.872444,-15.174064,-0.35668337,2.2809336,3.0522764,29.793802,-15.133663,13.170398,-34.39436,60.32312,0.24597447,-0.59219265,-1.2354598,-37.08719,-19.190132,46.776073,59.64754,22.382524,2.1203117,-14.872719
76,-0.6790438890457153,17.053335189819336,73.93299102783203,0.9475350031439497,20.075242730992215,-91.39268660486339,-47.607193,7.698665,11.828136,40.6817,-10.173416,-0.85241693,-47.15752,-12.587977,-18.641317,42.14422,-15.465287,-0.4970181,2.4510317,3.2723475,29.793802,-15.350404,12.9261055,-34.859245,60.761467,0.15140036,-0.60143054,-1.3224629,-38.001083,-19.53975,47.049053,60.07371,22.181036,1.7848281,-15.269999
77,-0.6548303365707397,17.286413192749023,73.57215118408203,1.0295057346666012,20.812306218921737,-91.33790759829547,-49.279427,7.737291,11.799569,41.879555,-10.446778,-0.74361736,-48.900967,-12.875174,-18.437534,43.47084,-15.795208,-0.64110327,2.6266518,3.509436,29.793802,-15.552406,12.667273,-35.35023,61.182995,0.1475974,-0.59741825,-1.3953599,-38.898373,-19.927992,47.347164,60.492523,21.977482,1.3939648,-15.712794
78,-0.6284021139144897,17.506093978881836,73.19900512695312,1.1236974861895441,21.527619538923258,-91.26206026632299,-50.938725,7.762244,11.766484,43.106937,-10.741779,-0.63726956,-50.635845,-13.18639,-18.23214,44.846,-16.159788,-0.78815806,2.8116262,3.7678225,29.793802,-15.743817,12.392998,-35.87555,61.590523,0.2167425,-0.58118165,-1.4612876,-39.762455,-20.35385,47.641163,60.89523,21.725674,0.9661572,-16.197052
79,-0.6070647239685059,17.726184844970703,72.80721282958984,1.2269826145890261,22.219187954375236,-91.16772286002137,-52.577595,7.7773943,11.731222,44.35643,-11.055396,-0.5334242,-52.35136,-13.5140505,-18.02381,46.25306,-16.553389,-0.93264544,3.0106232,4.0516067,29.793802,-15.924534,12.102605,-36.411427,61.983547,0.30336425,-0.5636473,-1.5222839,-40.60047,-20.820873,47.97543,61.302063,21.396927,0.51982206,-16.713713
80,-0.5882196426391602,17.930334091186523,72.41564178466797,1.3360261028871316,22.884803914566678,-91.05754835917554,-54.188267,7.786283,11.6961,45.6198,-11.383856,-0.43232858,-54.035145,-13.850375,-17.812416,47.671883,-16.968626,-1.0686791,3.2270682,4.365064,29.793802,-16.095438,11.796031,-36.934143,62.362213,0.35105464,-0.55549437,-1.5807872,-41.416515,-21.333334,48.392628,61.729435,20.960192,0.074430585,-17.254503
81,-0.5667493343353271,18.12374496459961,72.00458526611328,1.4536620122391948,23.52105396916074,-90.9294676418393,-55.76666,7.78693,11.664056,46.89653,-11.726915,-0.3347353,-55.686134,-14.198576,-17.594154,49.1083,-17.410152,-1.1922597,3.4611251,4.707372,29.793802,-16.255823,11.472399,-37.434475,62.732273,0.34460416,-0.5604335,-1.6404452,-42.209877,-21.892553,48.898685,62.17333,20.32941,-0.35290134,-17.852934
82,-0.546256959438324,18.304716110229492,71.58435821533203,1.5804875777978407,24.12936768061695,-90.78258894965882,-57.319626,7.7786083,11.632491,48.19284,-12.085373,-0.24213308,-57.30887,-14.5606985,-17.369726,50.565395,-17.880077,-1.3072392,3.7128274,5.078492,29.793802,-16.408075,11.131421,-37.927513,63.093876,0.313748,-0.5723027,-1.6989756,-42.982914,-22.498268,49.47534,62.626617,19.550379,-0.7713213,-18.50494
83,-0.5247783064842224,18.469831466674805,71.1539535522461,1.7088549872672827,24.715129205003024,-90.62199807255507,-58.849377,7.7663713,11.596028,49.500572,-12.457816,-0.15542962,-58.90382,-14.930248,-17.147335,52.033596,-18.36725,-1.4188129,3.98713,5.485158,29.793802,-16.553684,10.774032,-38.42366,63.436172,0.2740163,-0.58698213,-1.7503488,-43.734745,-23.151226,50.1094,63.094704,18.76892,-1.2035172,-19.145317
84,-0.5143824815750122,18.62841033935547,70.71680450439453,1.831401080760307,25.283960765090356,-90.45311038538917,-60.362934,7.755501,11.547828,50.819828,-12.841904,-0.07611891,-60.473076,-15.2986765,-16.931246,53.50331,-18.859894,-1.5311489,4.2883797,5.9342036,29.793802,-16.692905,10.401981,-38.932,63.746494,0.24236976,-0.6002605,-1.7887762,-44.462345,-23.852612,50.786163,63.581837,18.131681,-1.6767048,-19.706905
85,-0.49913883209228516,18.77414321899414,70.26917266845703,1.949052325569132,25.836631007228696,-90.27081279720481,-61.8622,7.740623,11.485163,52.15124,-13.238197,-0.006195886,-62.01703,-15.673151,-16.72476,54.97894,-19.3589,-1.6432657,4.6147776,6.430655,29.793802,-16.825598,10.016111,-39.45747,64.0185,0.24270576,-0.6059595,-1.804096,-45.177124,-24.60671,51.523903,64.1054,17.66314,-2.217385,-20.16664
86,-0.49031293392181396,18.91084098815918,69.81281280517578,2.0644069376166083,26.36987140505673,-90.07457174356483,-63.343464,7.720373,11.411552,53.49442,-13.646519,0.05437593,-63.534225,-16.055227,-16.524357,56.463566,-19.868576,-1.7524407,4.967513,6.9717383,29.793802,-16.951984,9.616408,-39.995575,64.25878,0.2607157,-0.6079128,-1.8025852,-45.880337,-25.415302,52.321598,64.65563,17.290585,-2.8077037,-20.560736
87,-0.4695952832698822,19.045028686523438,69.34280395507812,2.1721255149454137,26.882568895580366,-89.87697494775419,-64.80555,7.7053246,11.329401,54.84972,-14.065769,0.10899408,-65.02172,-16.430206,-16.32827,57.94621,-20.385008,-1.860836,5.3538375,7.5515165,29.793802,-17.07535,9.204441,-40.544758,64.4756,0.24921584,-0.6171122,-1.8024678,-46.558887,-26.27464,53.139343,65.20207,17.015251,-3.4119937,-20.908833
88,-0.45968079566955566,19.16426658630371,68.86917877197266,2.266851182620799,27.37393226867894,-89.69069500330059,-66.24733,7.708313,11.240603,56.2182,-14.495894,0.16156866,-66.47701,-16.783957,-16.135218,59.417286,-20.90515,-1.971138,5.779404,8.163186,29.793802,-17.197277,8.782872,-41.10127,64.6752,0.16278124,-0.64420843,-1.8220837,-47.197647,-27.177517,53.93384,65.717445,16.837679,-3.9947302,-21.229782
89,-0.4566904306411743,19.28070068359375,68.38706970214844,2.3509436010447495,27.847794095232782,-89.51420638315058,-67.671394,7.72635,11.148588,57.595493,-14.933789,0.21527883,-67.905014,-17.117996,-15.943407,60.876484,-21.429632,-2.0830371,6.2401576,8.803008,29.793802,-17.317593,8.354948,-41.657337,64.856514,-0.037882026,-0.7000277,-1.8625566,-47.809628,-28.121439,54.726204,66.21763,16.764263,-4.5449705,-21.507963
90,-0.46155425906181335,19.390485763549805,67.90015411376953,2.425563724238453,28.302747257278345,-89.34305716578875,-69.07633,7.7553678,11.050729,58.982048,-15.380445,0.267529,-69.30476,-17.439135,-15.7547865,62.3292,-21.960129,-2.1953852,6.732212,9.473381,29.793802,-17.433691,7.922467,-42.214783,65.01428,-0.31955028,-0.7756226,-1.9154494,-48.404545,-29.105114,55.52964,66.716125,16.793839,-5.0843353,-21.737078
91,-0.459731787443161,19.485830307006836,67.40412902832031,2.482828961464083,28.730019815107585,-89.18617726707318,-70.45477,7.800079,10.940058,60.383835,-15.839804,0.31467777,-70.66353,-17.740301,-15.5743265,63.773434,-22.494802,-2.3103433,7.2609577,10.175416,29.793802,-17.545788,7.486448,-42.784935,65.15213,-0.6216576,-0.85238206,-1.9839065,-48.968437,-30.122799,56.296783,67.190155,16.913372,-5.626763,-21.949274
92,-0.4584941864013672,19.576807022094727,66.91361999511719,2.5145154489433716,29.12019616200604,-89.05280165555902,-71.79804,7.8653193,10.809444,61.80489,-16.315172,0.35335037,-71.967224,-18.01419,-15.407238,65.20514,-23.029749,-2.4274223,7.8317666,10.910991,29.793802,-17.652174,7.046945,-43.37782,65.272385,-0.8816006,-0.91195285,-2.0706177,-49.484306,-31.167353,56.9775,67.6195,17.10825,-6.186388,-22.177103
93,-0.465983510017395,19.65899085998535,66.4159927368164,2.511066769117777,29.47107374806035,-88.95418761170036,-73.106544,7.9623437,10.652328,63.254517,-16.810942,0.38178393,-73.20961,-18.250051,-15.257721,66.62057,-23.562925,-2.5471296,8.453934,11.686987,29.793802,-17.753155,6.604318,-43.992393,65.368004,-1.0762542,-0.94668657,-2.1846025,-49.949814,-32.2371,57.574593,68.02468,17.417969,-6.7707195,-22.427277
94,-0.46603748202323914,19.732088088989258,65.91184997558594,2.4783441374899873,29.78632195629067,-88.88376768657537,-74.38259,8.083109,10.473408,64.7269,-17.324074,0.40317854,-74.39763,-18.455864,-15.123196,68.0242,-24.097113,-2.6685658,9.119253,12.500141,29.793802,-17.84924,6.1597056,-44.62161,65.439674,-1.2403703,-0.9674401,-2.3207293,-50.375656,-33.3328,58.10973,68.41602,17.83502,-7.37321,-22.679504
95,-0.46565526723861694,19.799901962280273,65.40133666992188,2.431784250320246,30.066746225424176,-88.82372346131983,-75.620926,8.208395,10.282106,66.20608,-17.847416,0.42168579,-75.5368,-18.653055,-14.999022,69.42336,-24.635912,-2.7919126,9.805867,13.335992,29.793802,-17.940071,5.7149158,-45.267662,65.503105,-1.4010386,-0.98392916,-2.460094,-50.76577,-34.450615,58.564407,68.76219,18.274197,-7.9864116,-22.92755
96,-0.4782598912715912,19.861347198486328,64.8892593383789,2.387467241993929,30.312808446029596,-88.75591083208697,-76.8169,8.321643,10.088704,67.6777,-18.374819,0.44145793,-76.63356,-18.862825,-14.878892,70.82685,-25.18394,-2.917001,10.490695,14.17809,29.793802,-18.023785,5.2723937,-45.931843,65.57356,-1.5851189,-1.0059296,-2.5837357,-51.121235,-35.58372,58.91849,69.032265,18.649385,-8.601409,-23.166723
97,-0.4872036576271057,19.910869598388672,64.36935424804688,2.3598948276863934,30.5216393216568,-88.67147923462944,-77.962074,8.415429,9.90599,69.13897,-18.90981,0.4663228,-77.693474,-19.097754,-14.7520895,72.244965,-25.743288,-3.0471728,11.162983,15.015545,29.793802,-18.093897,4.8339853,-46.617233,65.64905,-1.8005788,-1.0343881,-2.6873522,-51.439888,-36.727238,59.16437,69.24249,18.902885,-9.214766,-23.38064
98,-0.5072840452194214,19.956666946411133,63.851749420166016,2.3415402247935284,30.694651947477336,-88.5812528577161,-79.060745,8.498619,9.7302475,70.59699,-19.452776,0.49461666,-78.715416,-19.345102,-14.619331,73.67264,-26.311302,-3.180683,11.814222,15.828612,29.793802,-18.148195,4.4064765,-47.29825,65.73544,-2.0312154,-1.0653768,-2.7755384,-51.83025,-37.906487,59.629837,69.41828,19.383379,-9.834553,-23.566692
99,-0.5010951161384583,20.00383186340332,63.33075714111328,2.300988402357499,30.8370145137513,-88.49692833178466,-80.12907,8.58407,9.531042,72.05349,-19.998478,0.5213259,-79.68332,-19.58482,-14.509471,75.08468,-26.882778,-3.3106427,12.499573,16.703989,29.793802,-18.197445,3.980769,-48.017963,65.79355,-2.2738132,-1.0973605,-2.866723,-51.97695,-39.052715,59.415684,69.49294,19.330658,-10.454376,-23.785759
100,-0.5202060341835022,20.03473472595215,62.81516647338867,2.2259835096851615,30.95709862431979,-88.42934679800517,-81.179924,8.678384,9.298462,73.50897,-20.534418,0.5417586,-80.59703,-19.800999,-14.42907,76.46623,-27.452766,-3.4295492,13.179368,17.571194,29.793802,-18.251701,3.5688226,-48.716343,65.88357,-2.5231426,-1.1329458,-2.9464655,-52.199196,-40.21176,59.41763,69.49159,19.65189,-11.093802,-24.037958
101,-0.5387673377990723,20.063793182373047,62.30256652832031,2.1210411478804647,31.057568947019192,-88.37080034350709,-82.21868,8.773439,9.034056,74.96027,-21.056164,0.5566433,-81.46171,-19.998978,-14.373756,77.81911,-28.025747,-3.530115,13.854514,18.453104,29.793802,-18.308361,3.173243,-49.39523,65.97591,-2.7510767,-1.1659936,-3.0219002,-52.40624,-41.371628,59.376156,69.38911,20.165112,-11.765401,-24.322424
102,-0.538199245929718,20.10272216796875,61.777286529541016,1.9931903763872825,31.134627027207202,-88.31911400045871,-83.23839,8.868772,8.744954,76.41003,-21.568787,0.56825423,-82.278824,-20.185553,-14.338665,79.15241,-28.602772,-3.6179464,14.52753,19.349052,29.793802,-18.362383,2.7948608,-50.066193,66.06392,-2.969972,-1.1977234,-3.0920405,-52.563087,-42.523277,59.19817,69.19942,20.73355,-12.4619875,-24.627302
103,-0.549839198589325,20.125324249267578,61.26369857788086,1.8239612437553592,31.18716861988514,-88.29425848955677,-84.23404,8.97925,8.419908,77.85737,-22.081923,0.5738351,-83.03458,-20.345549,-14.34218,80.45264,-29.172522,-3.7055602,15.202154,20.244669,29.793802,-18.411728,2.437109,-50.722378,66.171036,-3.229672,-1.2393749,-3.1543145,-52.72956,-43.673588,59.060497,68.93223,21.412094,-13.15707,-24.968384
104,-0.5622334480285645,20.149986267089844,60.754554748535156,1.5901531474490238,31.213299967678427,-88.31663609459069,-85.20302,9.120292,8.042203,79.30442,-22.60495,0.5700276,-83.71186,-20.464123,-14.407944,81.70621,-29.72365,-3.8058157,15.902684,21.164297,29.793802,-18.455082,2.097967,-51.38054,66.29675,-3.5810788,-1.3011221,-3.213312,-52.821175,-44.799294,58.726585,68.581894,21.880903,-13.816706,-25.377724
105,-0.5761415958404541,20.166696548461914,60.25283432006836,1.2644476342245041,31.207461100133536,-88.40741513394225,-86.14794,9.311722,7.5901327,80.76401,-23.146286,0.5529851,-84.291306,-20.5217,-14.561303,82.90342,-30.2504,-3.9307647,16.637287,22.10703,29.793802,-18.495535,1.7805157,-52.025967,66.45911,-4.0558987,-1.3972043,-3.2673903,-52.906513,-45.905743,58.383976,68.159775,22.30571,-14.445307,-25.883228
106,-0.5891945362091064,20.17453384399414,59.76251983642578,0.8659737333153879,31.171876980623768,-88.55035211189129,-87.0703,9.538356,7.0767384,82.23041,-23.698624,0.5251108,-84.78721,-20.532728,-14.783759,84.05477,-30.75829,-4.070818,17.393408,23.070686,29.793802,-18.533072,1.4857833,-52.657234,66.64449,-4.6206336,-1.5178652,-3.3170357,-52.967117,-46.98701,57.968994,67.66679,22.672619,-15.054848,-26.466736
107,-0.588357150554657,20.18552017211914,59.273223876953125,0.44697926476388633,31.11590319249939,-88.70950253589324,-87.96219,9.762316,6.54437,83.675514,-24.247793,0.49240693,-85.2338,-20.532084,-15.027011,85.174194,-31.25922,-4.2059064,18.139158,24.022827,29.793802,-18.564732,1.2134225,-53.283546,66.845604,-5.2288637,-1.6386373,-3.3588655,-52.97729,-48.03386,57.427334,67.10983,22.910585,-15.631561,-27.076748
108,-0.594813346862793,20.194725036621094,58.79082107543945,0.06058107535205753,31.05067994517153,-88.84872187000272,-88.81668,9.950278,6.0368357,85.07292,-24.780445,0.4612163,-85.67031,-20.555067,-15.241554,86.282036,-31.757854,-4.3155136,18.838934,24.923351,29.793802,-18.584702,0.96307284,-53.909904,67.06137,-5.833303,-1.735315,-3.3883414,-52.938347,-49.040115,56.781116,66.50116,23.014494,-16.16113,-27.660479
109,-0.6033930778503418,20.19915008544922,58.3162841796875,-0.2912935210566663,30.9809746898522,-88.96642816683338,-89.63798,10.097901,5.5547285,86.42099,-25.295147,0.42847672,-86.10149,-20.604027,-15.426509,87.37634,-32.255665,-4.38868,19.47814,25.750635,29.793802,-18.588018,0.73736495,-54.517216,67.3041,-6.44717,-1.8037434,-3.3896103,-52.909943,-50.009796,56.167904,65.84925,23.056347,-16.62844,-28.215538
110,-0.608352780342102,20.190715789794922,57.85345458984375,-0.6330351953814446,30.901501464211364,-89.07883040494589,-90.429405,10.223323,5.0786858,87.73314,-25.798256,0.39254323,-86.51054,-20.661848,-15.604877,88.45028,-32.748333,-4.437955,20.078562,26.535988,29.793802,-18.575706,0.53555334,-55.112026,67.56369,-7.0864406,-1.8562188,-3.3714404,-52.839302,-50.928352,55.445625,65.14846,22.937101,-17.038776,-28.770344
111,-0.604371190071106,20.180160522460938,57.393882751464844,-0.9501272110042801,30.80963239847652,-89.1768336412159,-91.180565,10.324329,4.6257234,89.00476,-26.288319,0.36194345,-86.900276,-20.733908,-15.76313,89.507324,-33.23591,-4.477559,20.653408,27.30221,29.793802,-18.552576,0.35233957,-55.734226,67.81969,-7.7102866,-1.8934991,-3.364004,-52.608807,-51.767494,54.361355,64.39775,22.525696,-17.412102,-29.312328
112,-0.5919626355171204,20.178672790527344,56.9437141418457,-1.2194807656413147,30.7047296610361,-89.25069750502784,-91.879,10.402406,4.221358,90.22863,-26.763977,0.3456383,-87.28206,-20.825117,-15.877069,90.553955,-33.718376,-4.521475,21.176538,27.994814,29.793802,-18.52079,0.19090955,-56.37578,68.10324,-8.273621,-1.917441,-3.3868687,-52.398476,-52.56082,53.41449,63.63889,22.333704,-17.788113,-29.815641
113,-0.5950999855995178,20.167234420776367,56.50719451904297,-1.4395190874330726,30.585506587401476,-89.2938492723719,-92.52153,10.452738,3.8654037,91.39967,-27.223808,0.34905478,-87.65053,-20.940546,-15.949986,91.58769,-34.19755,-4.57465,21.65224,28.638035,29.793802,-18.476812,0.04832782,-57.053627,68.40183,-8.765715,-1.9262648,-3.45283,-52.1283,-53.295345,52.397,62.855885,22.243895,-18.1705,-30.268635
114,-0.5976241827011108,20.151750564575195,56.07951736450195,-1.613976254169153,30.45593238749248,-89.31233333137617,-93.11427,10.479048,3.55538,92.522026,-27.668926,0.36787215,-88.01082,-21.075361,-15.982947,92.608696,-34.671734,-4.628921,22.058405,29.177572,29.793802,-18.41818,-0.068745054,-57.727425,68.75476,-9.20721,-1.9205042,-3.5403516,-52.01499,-54.017296,51.806427,62.082367,22.61562,-18.557386,-30.678875
115,-0.5950940847396851,20.126108169555664,55.66094970703125,-1.7601172271406518,30.31557162205735,-89.31781424471083,-93.66621,10.490764,3.2773583,93.60843,-28.10085,0.39304805,-88.35936,-21.220407,-15.987989,93.615005,-35.13736,-4.6805954,22.465982,29.767977,29.793802,-18.344488,-0.17785183,-58.4752,69.03643,-9.611486,-1.8992279,-3.6614687,-51.523743,-54.61807,50.39098,61.23476,22.294788,-18.906384,-31.076752
116,-0.5960192680358887,20.110157012939453,55.252830505371094,-1.7530490606068951,30.232721373147534,-89.31179929658373,-94.18249,10.514059,3.184969,94.61341,-28.509035,0.43748868,-88.866875,-21.372406,-15.805363,94.62905,-35.563118,-4.720178,22.711252,29.793802,29.793802,-18.299826,-0.23957159,-59.036854,69.63401,-9.957562,-1.8771161,-3.736904,-50.863617,-55.074883,49.033333,60.06483,22.109959,-19.210491,-31.454044
117,-0.599476158618927,20.07489013671875,54.850399017333984,-1.7149089692201926,30.143670928971364,-89.30505593463263,-94.66374,10.537134,3.1337934,95.593895,-28.903494,0.47931442,-89.38228,-21.523407,-15.580384,95.63422,-35.97362,-4.751707,22.889639,29.793802,29.793802,-18.194912,-0.2598586,-59.61063,70.16382,-10.278549,-1.8351634,-3.838686,-50.304157,-55.394802,47.872692,59.01361,21.884619,-19.498661,-31.846735
118,-0.5849246382713318,20.03816795349121,54.44297790527344,-1.6486442674619268,30.044506282568562,-89.29263271696111,-95.10652,10.556835,3.1174464,96.54727,-29.285158,0.5219514,-89.894875,-21.676268,-15.321452,96.62844,-36.37122,-4.7777905,23.014265,29.793802,29.793802,-18.037567,-0.25092176,-60.217888,70.627426,-10.574731,-1.775043,-3.96771,-49.80691,-55.598804,46.81187,58.061203,21.591074,-19.770796,-32.24407
119,-0.570659339427948,20.001649856567383,54.050193786621094,-1.5659477447506969,29.932370435921612,-89.27412039432635,-95.51124,10.5749,3.1223433,97.476006,-29.662598,0.5653069,-90.389885,-21.82961,-15.045977,97.607994,-36.763798,-4.7994757,23.104996,29.793802,29.793802,-17.851374,-0.21975729,-60.83212,71.039764,-10.822228,-1.7091569,-4.1150885,-49.354904,-55.710274,45.85643,57.19715,21.26153,-20.025862,-32.63995
120,-0.5583566427230835,19.992286682128906,53.68411636352539,-1.479854474878822,29.803469143154025,-89.24934326420933,-95.878456,10.5918045,3.1338668,98.382965,-30.044535,0.609135,-90.85086,-21.98195,-14.772494,98.56941,-37.156372,-4.8190513,23.17751,29.793802,29.793802,-17.656174,-0.17126514,-61.424133,71.412506,-10.997604,-1.6500418,-4.2722116,-48.981594,-55.76514,45.10698,56.427654,20.997276,-20.265135,-33.028194
121,-0.5479482412338257,19.95269012451172,53.31569290161133,-1.3960256479165158,29.662752304566638,-89.22790322062127,-96.2134,10.617997,3.1454647,99.27072,-30.438917,0.64915943,-91.280914,-22.12557,-14.5085535,99.510925,-37.55248,-4.8375816,23.250427,29.793802,29.793802,-17.462255,-0.108530425,-62.005875,71.75263,-11.065517,-1.6002283,-4.4497757,-48.600296,-55.761124,44.410816,55.70242,20.69556,-20.479889,-33.403774
122,-0.5516576766967773,19.9088077545166,52.94795608520508,-1.308462615067319,29.50860483652094,-89.20697208648377,-96.51311,10.6479435,3.1641965,100.13839,-30.839552,0.6861733,-91.68346,-22.262163,-14.244725,100.436005,-37.94839,-4.8545384,23.317062,29.793802,29.793802,-17.265373,-0.034824383,-62.591496,72.06366,-11.049298,-1.5544354,-4.646982,-48.261105,-55.72569,43.866367,55.027092,20.433886,-20.674366,-33.772533
123,-0.5356164574623108,19.86768913269043,52.588687896728516,-1.2007352617991218,29.336512923147783,-89.1665747716271,-96.76881,10.6652,3.2104023,100.97564,-31.231203,0.7295039,-92.06165,-22.41329,-13.960447,101.344734,-38.338985,-4.8671956,23.359976,29.793802,29.793802,-17.063475,0.044745054,-63.153027,72.33851,-11.005851,-1.5133303,-4.8408804,-47.916878,-55.66163,43.399815,54.388977,20.158754,-20.851048,-34.133507
124,-0.5198066830635071,19.833669662475586,52.25232696533203,-1.05994828616186,29.139541134005533,-89.0873086339543,-96.97149,10.654261,3.2997463,101.77465,-31.598957,0.78776747,-92.41336,-22.60026,-13.638478,102.24325,-38.72226,-4.8726783,23.359213,29.793802,29.793802,-16.855337,0.11980204,-63.66073,72.57971,-10.993111,-1.4773234,-5.0078073,-47.598736,-55.590115,43.08304,53.80744,19.92703,-21.017424,-34.488777
125,-0.5035346746444702,19.812328338623047,51.928375244140625,-0.864930756062573,28.90241580055166,-88.9419558299655,-97.10026,10.587897,3.4573328,102.530174,-31.934742,0.87100375,-92.73346,-22.847712,-13.254095,103.14184,-39.100513,-4.8662596,23.294233,29.793802,29.793802,-16.634634,0.18318541,-64.13208,72.79744,-11.018558,-1.4471319,-5.137777,-47.244026,-55.51006,42.858868,53.260895,19.718758,-21.170067,-34.819595
126,-0.48746728897094727,19.77169418334961,51.60205841064453,-0.629886653381857,28.63216520942343,-88.74918639722549,-97.16641,10.484785,3.6663868,103.24652,-32.247635,0.971659,-93.02341,-23.137957,-12.824202,104.0325,-39.472855,-4.8499117,23.184841,29.793802,29.793802,-16.409367,0.23156253,-64.576515,72.999916,-11.053415,-1.4229532,-5.2440877,-46.85528,-55.425014,42.719868,52.73955,19.530243,-21.306961,-35.13012
127,-0.43232977390289307,19.726194381713867,51.30467224121094,-0.3912845039852962,28.357969329647727,-88.5571348241494,-97.20852,10.384023,3.8857734,103.93458,-32.548283,1.0733234,-93.297264,-23.424755,-12.390339,104.8986,-39.8307,-4.830917,23.0748,29.793802,29.793802,-16.196592,0.27292344,-64.960434,73.169685,-11.105015,-1.4031298,-5.33889,-46.4982,-55.33567,42.68176,52.264446,19.334515,-21.434242,-35.456562
128,-0.39126741886138916,19.678232192993164,51.01767349243164,-0.1797131049171662,28.114037388556397,-88.41306090910416,-97.2663,10.3268,4.0810795,104.5995,-32.845573,1.1604767,-93.575195,-23.657917,-11.989519,105.711136,-40.166733,-4.8161435,23.007017,29.793802,29.793802,-16.025427,0.29248497,-65.23671,73.310684,-11.171992,-1.3870898,-5.4365716,-46.178993,-55.272232,42.689198,51.797962,19.07084,-21.549746,-35.82915
129,-0.34538981318473816,19.63751220703125,50.74037170410156,-0.009134101499245205,27.909606013745048,-88.34029768768775,-97.352905,10.33408,4.2359133,105.25096,-33.144024,1.2244292,-93.86072,-23.819468,-11.640028,106.46471,-40.47748,-4.812786,23.019543,29.793802,29.793802,-15.9135,0.3006459,-65.39683,73.41824,-11.265568,-1.3702428,-5.553653,-45.91323,-55.239,42.769093,51.34634,18.72625,-21.665201,-36.261364
130,-0.3379294276237488,19.59490203857422,50.46843719482422,0.14243333832672042,27.727372617016382,-88.30940399388976,-97.44421,10.381069,4.375622,105.879555,-33.44053,1.2753451,-94.14648,-23.936314,-11.316003,107.17455,-40.767437,-4.8154254,23.079582,29.793802,29.793802,-15.837719,0.30566296,-65.47641,73.48292,-11.39269,-1.3542533,-5.6741734,-45.678577,-55.211494,42.908176,50.92269,18.305733,-21.774837,-36.73567
131,-0.3435691297054291,19.54880714416504,50.21479034423828,0.28455065066386637,27.555327535529596,-88.28929506032289,-97.52624,10.437279,4.5112524,106.477615,-33.72607,1.3229418,-94.41876,-24.036003,-11.005434,107.84437,-41.039288,-4.81304,23.149044,29.793802,29.793802,-15.780181,0.30467236,-65.484856,73.50708,-11.525264,-1.3455038,-5.7702823,-45.443092,-55.19728,43.03387,50.50526,17.844507,-21.857471,-37.23868
132,-0.3267342746257782,19.50364875793457,49.96805953979492,0.4284754889154946,27.379455751520833,-88.24884137268252,-97.58275,10.470461,4.655582,107.036705,-33.99328,1.3772299,-94.66411,-24.149267,-10.692305,108.48308,-41.297024,-4.7945457,23.179625,29.793802,29.793802,-15.710973,0.29790562,-65.44914,73.48446,-11.654746,-1.3517066,-5.806613,-45.241802,-55.18589,43.16082,50.12449,17.421513,-21.897793,-37.759583
133,-0.29481470584869385,19.457998275756836,49.736061096191406,0.5785180176448212,27.192418406736717,-88.17534294501299,-97.60623,10.470103,4.815365,107.55611,-34.242085,1.4447134,-94.87924,-24.288221,-10.366687,109.09708,-41.53956,-4.7543807,23.153824,29.793802,29.793802,-15.625242,0.28087682,-65.352135,73.41924,-11.763076,-1.3795292,-5.775949,-45.07489,-55.175133,43.30303,49.788513,17.03857,-21.87671,-38.31688
134,-0.2656688690185547,19.41423797607422,49.527801513671875,0.7301936924170899,27.0044295648741,-88.08661656353799,-97.60786,10.454024,4.984855,108.04004,-34.475212,1.519285,-95.07492,-24.436337,-10.035911,109.67862,-41.76602,-4.698218,23.095234,29.793802,29.793802,-15.539363,0.24686594,-65.18294,73.31847,-11.858544,-1.4244431,-5.6965566,-44.90499,-55.1549,43.40375,49.47831,16.618208,-21.805351,-38.90521
135,-0.23391424119472504,19.37091064453125,49.33969497680664,0.8719054113848735,26.820122404331332,-87.99869558855455,-97.595184,10.433268,5.1474895,108.4888,-34.691525,1.5901415,-95.244,-24.578,-9.722768,110.22098,-41.978226,-4.6365204,23.026445,29.793802,29.793802,-15.468864,0.17548397,-64.974,73.21447,-11.9656,-1.4777477,-5.573712,-44.778503,-55.121193,43.49768,49.20983,16.22372,-21.720621,-39.49203
136,-0.2115662395954132,19.328981399536133,49.16362762451172,0.9952947775329009,26.647563560297357,-87.92696301395387,-97.57659,10.422217,5.2898273,108.90366,-34.890266,1.6471952,-95.38427,-24.701912,-9.445949,110.71362,-42.178047,-4.5781574,22.973997,29.793802,29.793802,-15.413706,0.09165429,-64.77215,73.0831,-12.115363,-1.5277452,-5.412395,-44.708767,-55.098755,43.585064,48.961544,15.912402,-21.656534,-40.041885
137,-0.25069600343704224,19.286705017089844,48.98629379272461,1.0981752281703965,26.48753802538209,-87.87915046425381,-97.55374,10.429577,5.4074717,109.28441,-35.07023,1.6837136,-95.49499,-24.800095,-9.211731,111.15724,-42.36729,-4.52397,22.94316,29.793802,29.793802,-15.375204,-0.009805128,-64.57281,72.91567,-12.320528,-1.5610286,-5.189027,-44.647064,-55.073772,43.581364,48.713398,15.644981,-21.6325,-40.546833
138,-0.22713877260684967,19.244251251220703,48.84648132324219,1.1866587531759778,26.3376700826253,-87.8453978338187,-97.52299,10.445983,5.5098352,109.6325,-35.233566,1.7067134,-95.57991,-24.882517,-9.007816,111.555695,-42.543182,-4.4700336,22.927599,29.793802,29.793802,-15.3483,-0.114777215,-64.36882,72.698364,-12.5676,-1.5860114,-4.9089723,-44.543503,-55.0332,43.422276,48.45442,15.348662,-21.625286,-41.02335
139,-0.17338739335536957,19.197420120239258,48.73563003540039,1.263431455038691,26.20068555519542,-87.81504910194808,-97.48601,10.46009,5.602824,109.940544,-35.37723,1.7265991,-95.64407,-24.95661,-8.826549,111.90718,-42.702984,-4.4182453,22.909685,29.793802,29.793802,-15.333154,-0.23139228,-64.15747,72.467606,-12.828961,-1.6284666,-4.624573,-44.53646,-55.00871,43.327465,48.233833,15.136975,-21.609549,-41.476803
140,-0.13306130468845367,19.16274642944336,48.64070510864258,1.3400273077233833,26.086762905192835,-87.77616515925853,-97.449,10.464614,5.7027216,110.198906,-35.500015,1.7554417,-95.70737,-25.027025,-8.649699,112.20934,-42.84032,-4.3704953,22.880589,29.793802,29.793802,-15.328267,-0.34902525,-63.94709,72.2301,-13.079011,-1.7120541,-4.3904376,-44.561405,-54.99076,43.194904,48.01232,14.884543,-21.546362,-41.903763
141,-0.11026470363140106,19.13153648376465,48.55237579345703,1.4170534190784232,25.99710292079305,-87.7257235296428,-97.41341,10.454301,5.8128843,110.40622,-35.59943,1.798716,-95.77306,-25.093203,-8.473439,112.4608,-42.954082,-4.3280754,22.834078,29.793802,29.793802,-15.336376,-0.47729835,-63.729725,71.99772,-13.3085985,-1.8613116,-4.221,-44.66195,-54.989487,43.067272,47.79817,14.598701,-21.413849,-42.32545
142,-0.08849427103996277,19.099117279052734,48.486968994140625,1.4931578499716607,25.929974902096514,-87.6693717564182,-97.378365,10.438391,5.9290743,110.56757,-35.677025,1.8502463,-95.83874,-25.154182,-8.301692,112.66533,-43.045757,-4.2897906,22.780416,29.793802,29.793802,-15.356918,-0.6101392,-63.509117,71.751335,-13.532525,-2.0568297,-4.0883865,-44.761696,-54.986908,42.832535,47.56623,14.226336,-21.230034,-42.731697
143,-0.06248600035905838,19.068069458007812,48.44178009033203,1.5648802089334684,25.88082027537243,-87.61021383311625,-97.33854,10.414711,6.0436463,110.67927,-35.73464,1.901882,-95.893074,-25.209743,-8.144948,112.82103,-43.11613,-4.2538123,22.73015,29.793802,29.793802,-15.389146,-0.742418,-63.30111,71.49491,-13.75795,-2.2558596,-3.9804275,-44.847282,-54.976704,42.523026,47.33686,13.83507,-21.036055,-43.081245
144,-0.0324058011174202,19.0439395904541,48.416500091552734,1.6233052921904374,25.84076603837812,-87.55193957307112,-97.28818,10.384483,6.141034,110.74723,-35.776096,1.944495,-95.91588,-25.264452,-8.020024,112.92785,-43.16999,-4.218275,22.682922,29.793802,29.793802,-15.435192,-0.8854354,-63.11192,71.25635,-13.993384,-2.4175444,-3.8843381,-45.080364,-55.01262,42.454155,47.188786,13.706285,-20.882494,-43.340034
145,-0.007738196291029453,19.019451141357422,48.412357330322266,1.6735383977980607,25.814852006292483,-87.49435862674427,-97.22969,10.348911,6.2268424,110.766396,-35.798546,1.9776282,-95.91711,-25.315712,-7.9224033,112.98439,-43.20191,-4.180271,22.650097,29.793802,29.793802,-15.4966,-1.0328978,-62.948612,71.015945,-14.246916,-2.5256708,-3.7994347,-45.240147,-55.04055,42.295467,47.02877,13.650764,-20.778265,-43.469727
146,0.010499022901058197,19.00095558166504,48.42763900756836,1.7138061937560582,25.802117194401657,-87.43639616207318,-97.16358,10.306145,6.3009973,110.738754,-35.802574,2.0045242,-95.89479,-25.366096,-7.85097,112.993546,-43.215847,-4.141118,22.626232,29.793802,29.793802,-15.572093,-1.1847428,-62.805035,70.77573,-14.513655,-2.604088,-3.7306085,-45.401836,-55.064304,42.12497,46.88891,13.68257,-20.704027,-43.50249
147,0.0251845084130764,18.980865478515625,48.4637336730957,1.749409423466827,25.803986718082314,-87.37722678824433,-97.088974,10.257458,6.370347,110.661995,-35.78681,2.027045,-95.85653,-25.411882,-7.796753,112.95392,-43.207592,-4.1057215,22.600185,29.793802,29.793802,-15.656942,-1.3404189,-62.677357,70.54522,-14.775134,-2.669565,-3.677879,-45.679707,-55.11871,42.118595,46.8219,13.830384,-20.638197,-43.490376
148,0.043516986072063446,18.965763092041016,48.51883316040039,1.7929192982139335,25.827315765057993,-87.3151007282546,-97.00671,10.200913,6.4517035,110.53231,-35.747726,2.051325,-95.81796,-25.459642,-7.746343,112.86487,-43.18061,-4.0818357,22.575993,29.793802,29.793802,-15.754329,-1.4994624,-62.571224,70.328514,-15.010317,-2.7384832,-3.6423848,-45.973087,-55.186764,42.119873,46.79293,13.882098,-20.548197,-43.47729
149,0.0694350004196167,18.95313835144043,48.599456787109375,1.8451506874953874,25.873612341447735,-87.25046342151029,-96.91842,10.137174,6.545144,110.34497,-35.684265,2.075298,-95.78381,-25.50732,-7.6970544,112.73006,-43.128887,-4.0815415,22.557253,29.793802,29.793802,-15.868325,-1.6614293,-62.499805,70.12557,-15.218979,-2.8142157,-3.6293066,-46.30759,-55.274036,42.161953,46.82935,13.8190775,-20.423082,-43.475235
150,0.0916852131485939,18.940317153930664,48.70098876953125,1.9034842699695274,25.94161390150813,-87.18345819176447,-96.82369,10.06636,6.6474094,110.10453,-35.597614,2.098561,-95.74992,-25.555504,-7.6540265,112.54532,-43.05513,-4.0975738,22.547245,29.793802,29.793802,-15.999146,-1.8260623,-62.45987,69.931404,-15.409509,-2.88769,-3.6367264,-46.629505,-55.36506,42.164448,46.900635,13.641132,-20.277004,-43.456463
151,0.11345136165618896,18.932958602905273,48.81623458862305,1.9647704203810037,26.02578135564491,-87.11336424185957,-96.7184,9.9872055,6.755256,109.81331,-35.48941,2.1215522,-95.706764,-25.597616,-7.616026,112.31129,-42.960243,-4.102973,22.538197,29.793802,29.793802,-16.137745,-1.9932826,-62.429634,69.753944,-15.579676,-2.9580307,-3.6528661,-46.97673,-55.468674,42.19299,46.994392,13.451048,-20.12707,-43.41688
152,0.13124263286590576,18.931045532226562,48.950096130371094,2.0275260547839498,26.122001063369627,-87.03946582834615,-96.59934,9.897759,6.8678784,109.470695,-35.356968,2.145414,-95.648964,-25.632298,-7.579531,112.02515,-42.846695,-4.0691285,22.523458,29.793802,29.793802,-16.276423,-2.1636114,-62.386623,69.59864,-15.726069,-3.0232918,-3.6661456,-47.359,-55.59223,42.27185,47.083546,13.321176,-19.990133,-43.349957
153,0.1431703120470047,18.926593780517578,49.10468673706055,2.0989977891886857,26.23015815796277,-86.94911258437276,-96.465355,9.78747,6.993748,109.07433,-35.198532,2.1777372,-95.5797,-25.666204,-7.5300894,111.68667,-42.71536,-3.9699748,22.492607,29.793802,29.793802,-16.414747,-2.3387105,-62.33351,69.465904,-15.843309,-3.0859435,-3.6795316,-47.749397,-55.731487,42.355896,47.148537,13.234652,-19.871347,-43.247276
154,0.1607736051082611,18.93189811706543,49.280311584472656,2.177156375092545,26.35181690494052,-86.84682184036414,-96.31813,9.659015,7.1300993,108.62423,-35.01421,2.2155488,-95.49953,-25.696682,-7.474898,111.29486,-42.566174,-3.8261752,22.45203,29.793802,29.793802,-16.557178,-2.519411,-62.279118,69.35577,-15.934762,-3.1462443,-3.6969395,-48.165653,-55.89075,42.470898,47.210075,13.1815,-19.761707,-43.11482
155,0.20474621653556824,18.934789657592773,49.48276138305664,2.25128734441212,26.488721263731225,-86.75668368011402,-96.15927,9.538763,7.264209,108.12803,-34.813965,2.2444518,-95.40661,-25.708647,-7.4355307,110.85343,-42.394318,-3.6815708,22.42703,29.793802,29.793802,-16.707598,-2.7046702,-62.213882,69.26898,-16.00888,-3.1984205,-3.708897,-48.560196,-56.057167,42.55533,47.25644,13.105194,-19.65259,-42.964382
156,0.2534547448158264,18.94297218322754,49.70121383666992,2.3080770882205344,26.64096425400191,-86.70318335963027,-95.989426,9.454475,7.379341,107.59696,-34.607765,2.2491493,-95.29549,-25.686825,-7.4368224,110.36196,-42.19389,-3.5784025,22.439075,29.793802,29.793802,-16.867346,-2.8919291,-62.12684,69.20736,-16.075258,-3.2376418,-3.7057083,-48.945053,-56.22924,42.63974,47.300278,13.015995,-19.536793,-42.810543
157,0.22351525723934174,18.941177368164062,49.925968170166016,2.338142601089602,26.811866544265435,-86.70240216404486,-95.812645,9.423435,7.4661255,107.036385,-34.405514,2.2207592,-95.16131,-25.616095,-7.4985056,109.82222,-41.975914,-3.534955,22.501156,29.793802,29.793802,-17.0354,-3.0784893,-62.011524,69.169426,-16.125631,-3.2571638,-3.684848,-49.356762,-56.413536,42.7778,47.351555,12.9515705,-19.419624,-42.652187
158,0.21638353168964386,18.945451736450195,50.169891357421875,2.3508862463321902,27.0007038072501,-86.73821933025565,-95.62762,9.4261,7.534727,106.44079,-34.19872,2.1677425,-95.010445,-25.50753,-7.6001577,109.231285,-41.731903,-3.5236504,22.598394,29.793802,29.793802,-17.209194,-3.2631826,-61.87507,69.15113,-16.15869,-3.2618883,-3.6518753,-49.772175,-56.60358,42.92865,47.39949,12.884695,-19.300978,-42.483597
159,0.23746001720428467,18.951753616333008,50.44734573364258,2.357364319565032,27.1997080932673,-86.78710216515756,-95.42574,9.440499,7.5982428,105.800995,-33.974026,2.106125,-94.83894,-25.382511,-7.724661,108.59103,-41.461613,-3.5270565,22.706594,29.793802,29.793802,-17.38496,-3.4460192,-61.72234,69.149826,-16.194008,-3.262122,-3.6084728,-50.18349,-56.795723,43.08832,47.456276,12.806825,-19.172453,-42.31295
160,0.2749996781349182,18.95832633972168,50.74706268310547,2.369664726574804,27.401335957946444,-86.82536937789719,-95.19842,9.437889,7.6701875,105.106766,-33.71728,2.0508435,-94.646706,-25.264994,-7.8505325,107.90377,-41.15736,-3.5268703,22.80181,29.793802,29.793802,-17.55964,-3.627944,-61.557137,69.16378,-16.25016,-3.2688308,-3.5564706,-50.57674,-56.98304,43.239265,47.530296,12.6944895,-19.024954,-42.148113
161,0.287629634141922,18.97475814819336,51.06773376464844,2.382423105657256,27.601589157432507,-86.8565675094048,-94.942245,9.421063,7.745903,104.36171,-33.43132,2.0037239,-94.42286,-25.152584,-7.9890156,107.16807,-40.82092,-3.5266306,22.884619,29.793802,29.793802,-17.732676,-3.8098216,-61.377007,69.20291,-16.354988,-3.2834477,-3.4921358,-50.988667,-57.171272,43.43277,47.64386,12.574173,-18.851336,-41.983685
162,0.2717994749546051,18.969514846801758,51.40680694580078,2.394112790237147,27.8064721394994,-86.88980335036318,-94.66344,9.401801,7.8223915,103.568695,-33.11747,1.9564319,-94.17626,-25.033237,-8.140162,106.382996,-40.450336,-3.5301406,22.967,29.793802,29.793802,-17.906845,-3.9918892,-61.181778,69.26412,-16.490614,-3.3007557,-3.416318,-51.36693,-57.34527,43.584023,47.771374,12.388654,-18.656343,-41.816177
163,0.28029200434684753,18.977096557617188,51.760841369628906,2.414694565615266,28.01784748923895,-86.91049621055393,-94.36186,9.364855,7.9100013,102.71876,-32.774876,1.9137203,-93.9116,-24.921307,-8.292083,105.55191,-40.05586,-3.5319593,23.03236,29.793802,29.793802,-18.078024,-4.1741657,-60.972687,69.33155,-16.607891,-3.3219366,-3.3363926,-51.7363,-57.508667,43.745316,47.916527,12.193814,-18.45663,-41.662437
164,0.2982952296733856,18.987443923950195,52.13495635986328,2.455864406305034,28.238616114905575,-86.90372888773722,-94.038506,9.297162,8.020497,101.80234,-32.40026,1.8799279,-93.63737,-24.8294,-8.430186,104.675,-39.649117,-3.5236607,23.06355,29.793802,29.793802,-18.241861,-4.3563895,-60.7488,69.38733,-16.65576,-3.3480625,-3.2601914,-52.10267,-57.664116,43.942303,48.072918,12.02794,-18.267391,-41.53872
165,0.33068788051605225,18.989356994628906,52.53862762451172,2.5287348489040284,28.474998047400547,-86.85895593585653,-93.69671,9.191128,8.166803,100.81056,-31.98954,1.8608959,-93.3658,-24.766016,-8.540789,103.75406,-39.231945,-3.5023854,23.046268,29.793802,29.793802,-18.39575,-4.5389066,-60.506264,69.42411,-16.60448,-3.3828368,-3.1824043,-52.489407,-57.817677,44.21882,48.253498,11.902838,-18.092327,-41.45912
166,0.3443068265914917,19.014997482299805,52.95176696777344,2.6249314081465904,28.72379933425859,-86.78589303668232,-93.33419,9.054441,8.339443,99.75006,-31.545685,1.852849,-93.08986,-24.72151,-8.635833,102.787224,-38.79632,-3.471796,22.990711,29.793802,29.793802,-18.541994,-4.721865,-60.24486,69.452415,-16.486141,-3.42423,-3.1012871,-52.90188,-57.97119,44.57423,48.459976,11.81531,-17.923603,-41.4118
167,0.35766464471817017,19.03061294555664,53.383087158203125,2.7270926285606603,28.973244746825873,-86.70006414453586,-92.94456,8.89915,8.516443,98.633354,-31.07654,1.845611,-92.78605,-24.682713,-8.737234,101.7751,-38.3437,-3.436044,22.918423,29.793802,29.793802,-18.684383,-4.9041953,-59.971603,69.479294,-16.344057,-3.4647207,-3.0300918,-53.299828,-58.117092,44.93639,48.66387,11.760891,-17.758144,-41.375195
168,0.3726801574230194,19.044471740722656,53.83787155151367,2.8172556200718897,29.211435683604343,-86.6172999550255,-92.520805,8.736442,8.675031,97.47235,-30.589024,1.8293647,-92.431435,-24.635448,-8.86719,100.71492,-37.874866,-3.3980916,22.85256,29.793802,29.793802,-18.827225,-5.0837774,-59.695866,69.51103,-16.222626,-3.496697,-2.981862,-53.633595,-58.24363,45.21596,48.83582,11.721741,-17.592775,-41.32752
169,0.37933921813964844,19.05527114868164,54.3105354309082,2.890165371702751,29.435673866664374,-86.5388689746801,-92.059586,8.566451,8.804242,96.264435,-30.082388,1.8012352,-92.01493,-24.579805,-9.034477,99.6031,-37.388855,-3.359649,22.7994,29.793802,29.793802,-18.97384,-5.2587442,-59.414215,69.55231,-16.137972,-3.5199804,-2.9702177,-53.916573,-58.35237,45.423676,48.984253,11.715344,-17.425365,-41.264107
170,0.37430340051651,19.07220458984375,54.79878234863281,2.955282960300889,29.651928063494765,-86.45749877023736,-91.565094,8.383447,8.916378,95.00559,-29.554377,1.7672391,-91.549675,-24.521315,-9.226372,98.44173,-36.887573,-3.3177361,22.747519,29.793802,29.793802,-19.120375,-5.428256,-59.12452,69.59585,-16.06498,-3.537927,-2.9847279,-54.15799,-58.445435,45.581795,49.11853,11.735224,-17.257917,-41.196507
171,0.38868448138237,19.086698532104492,55.305660247802734,3.0143603796672314,29.86011542169547,-86.37666874706177,-91.04022,8.197044,9.020673,93.70506,-29.010141,1.7305192,-91.04567,-24.456923,-9.435441,97.237785,-36.370144,-3.2726095,22.692528,29.793802,29.793802,-19.2599,-5.591211,-58.83829,69.63286,-15.988022,-3.548453,-3.0021362,-54.361416,-58.524178,45.707912,49.231422,11.786398,-17.095636,-41.129337
172,0.4182097613811493,19.096561431884766,55.82072067260742,3.069488922564863,30.060232984053073,-86.29984011636584,-90.4898,8.013618,9.127134,92.37304,-28.45418,1.6937921,-90.51448,-24.382763,-9.652345,95.99998,-35.83766,-3.2229824,22.629496,29.793802,29.793802,-19.383678,-5.746318,-58.566833,69.65313,-15.890674,-3.5492642,-2.9990778,-54.524048,-58.5891,45.813335,49.314556,11.874346,-16.94387,-41.066845
173,0.43467798829078674,19.107742309570312,56.342594146728516,3.1200893029438563,30.25593188156825,-86.22329178230034,-89.91684,7.8341913,9.236719,91.00905,-27.887983,1.6554945,-89.955605,-24.303406,-9.881002,94.72593,-35.295998,-3.1699739,22.553482,29.793802,29.793802,-19.491678,-5.891658,-58.30813,69.65062,-15.763142,-3.534378,-2.9603055,-54.657787,-58.642315,45.91261,49.361977,12.024695,-16.799917,-40.999195
174,0.4355106055736542,19.113155364990234,56.873287200927734,3.1882395055590975,30.45833222361435,-86.14412378909559,-89.32027,7.654258,9.369874,89.59592,-27.304447,1.6180214,-89.3966,-24.218859,-10.093122,93.41521,-34.733994,-3.1112337,22.444271,29.700235,29.793802,-19.597898,-6.01869,-58.01693,69.68579,-15.60937,-3.5089839,-2.8916056,-54.69794,-58.65754,45.935722,49.31623,12.224517,-16.65943,-40.92388
175,0.45264965295791626,19.12624740600586,57.411556243896484,3.306120330318287,30.676228025201414,-86.0672630218924,-88.696846,7.4763894,9.561918,88.12368,-26.6996,1.5911789,-88.87595,-24.121647,-10.246592,92.07548,-34.143803,-3.0477142,22.271305,29.376621,29.793802,-19.7124,-6.111185,-57.642326,69.84197,-15.437791,-3.4883523,-2.7991958,-54.597393,-58.589428,45.856728,49.12683,12.464201,-16.52851,-40.85968
176,0.4644279479980469,19.141950607299805,57.96186447143555,3.4241665992336396,30.875601395413934,-86.00747555346449,-88.037025,7.3022966,9.757898,86.622345,-26.082218,1.5739958,-88.32636,-24.0097,-10.396581,90.70658,-33.53542,-2.9827564,22.082352,29.023535,29.793802,-19.797611,-6.17297,-57.271492,69.98681,-15.275416,-3.4764864,-2.7297058,-54.46957,-58.446957,45.763218,48.96547,12.662105,-16.421347,-40.8399
177,0.4679318964481354,19.148395538330078,58.522342681884766,3.5447798240736073,31.056976157090272,-85.96720777426837,-87.33847,7.131216,9.959284,85.08517,-25.448555,1.5744345,-87.74822,-23.88031,-10.53963,89.303116,-32.904884,-2.920177,21.878471,28.637922,29.793802,-19.853037,-6.2064834,-56.90637,70.12374,-15.134521,-3.4798594,-2.6945674,-54.330402,-58.239388,45.68904,48.834282,12.847542,-16.351023,-40.881237
178,0.4875399172306061,19.1580810546875,59.084449768066406,3.6666316459693897,31.22339680524941,-85.94201674078022,-86.604004,6.962308,10.16473,83.511215,-24.799368,1.5876398,-87.14126,-23.737629,-10.678386,87.864006,-32.25528,-2.8593001,21.657104,28.22377,29.793802,-19.880919,-6.2134986,-56.54405,70.24883,-15.00405,-3.4916787,-2.6798146,-54.1794,-57.972538,45.62998,48.72283,13.035359,-16.30948,-40.967793
179,0.5216663479804993,19.183507919311523,59.642547607421875,3.783843299416755,31.371051940536727,-85.93040543552549,-85.837135,6.798939,10.371096,81.91658,-24.142832,1.6014565,-86.50348,-23.583937,-10.818754,86.40297,-31.596443,-2.796946,21.421675,27.794209,29.793802,-19.88365,-6.195332,-56.187664,70.35899,-14.865793,-3.5034802,-2.6706064,-54.000916,-57.647243,45.546986,48.628494,13.1727915,-16.27367,-41.07237
180,0.5252106785774231,19.182016372680664,60.20809555053711,3.8911883196868535,31.495922659683128,-85.93082603376365,-85.04165,6.642508,10.575027,80.3157,-23.486038,1.6022298,-85.8332,-23.4189,-10.96563,84.932274,-30.936518,-2.7291315,21.17287,27.353275,29.793802,-19.864304,-6.151543,-55.835842,70.456856,-14.700744,-3.5069861,-2.650985,-53.809906,-57.268536,45.45041,48.55556,13.243706,-16.221006,-41.16871
181,0.5359987020492554,19.18603515625,60.76915740966797,3.9871437943212493,31.60140178406651,-85.94655859003565,-84.21708,6.4977803,10.778359,78.70343,-22.827549,1.5823611,-85.13204,-23.24131,-11.1197195,83.44717,-30.274218,-2.6555204,20.915874,26.904694,29.793802,-19.821861,-6.082337,-55.494705,70.53554,-14.499895,-3.4987462,-2.6140974,-53.5972,-56.837643,45.32003,48.501495,13.203864,-16.14277,-41.25175
182,0.5571960210800171,19.19340705871582,61.326080322265625,4.073819266841471,31.687518998376035,-85.97749057840826,-83.36173,6.361676,10.981344,77.07434,-22.16453,1.5500853,-84.399605,-23.051853,-11.278513,81.94268,-29.6063,-2.5784807,20.651695,26.446674,29.793802,-19.75585,-5.988452,-55.165657,70.5961,-14.27503,-3.4834013,-2.5692878,-53.355877,-56.35647,45.15387,48.4602,13.073568,-16.051434,-41.334282
183,0.5739916563034058,19.19788932800293,61.8837776184082,4.151507222532541,31.745954913963267,-86.01688276488834,-82.47685,6.227231,11.178126,75.44425,-21.502043,1.5156065,-83.631935,-22.856174,-11.441211,80.433975,-28.940002,-2.498394,20.374456,25.981369,29.793802,-19.667473,-5.8703876,-54.840374,70.64635,-14.037561,-3.4645312,-2.5258493,-53.088085,-55.828754,44.966873,48.429657,12.921811,-15.956242,-41.4169
184,0.5933677554130554,19.197324752807617,62.4331169128418,4.220305905316464,31.768284222466256,-86.05819085013002,-81.56397,6.0866413,11.3628235,73.82886,-20.844032,1.4890252,-82.82667,-22.662271,-11.605872,78.936584,-28.281246,-2.4146717,20.07928,25.51384,29.793802,-19.556934,-5.729087,-54.511692,70.692,-13.798327,-3.445748,-2.4931846,-52.788227,-55.256615,44.75975,48.40463,12.80382,-15.865656,-41.50059
185,0.6211550831794739,19.19939422607422,62.969200134277344,4.28201693591658,31.754938163681363,-86.09631655632215,-80.62314,5.9338007,11.534537,72.223236,-20.189339,1.4761597,-81.98056,-22.475176,-11.77586,77.44804,-27.63394,-2.3280876,19.76173,25.046295,29.793802,-19.422913,-5.5652757,-54.177017,70.732925,-13.565064,-3.430597,-2.4734128,-52.445683,-54.63899,44.517242,48.37635,12.716063,-15.78058,-41.582153
186,0.6351180672645569,19.19251251220703,63.500858306884766,4.336257796347592,31.709431005146087,-86.13602665021342,-79.65561,5.773994,11.695787,70.625534,-19.533838,1.4699594,-81.09993,-22.290482,-11.946048,75.964386,-26.99132,-2.2383661,19.425852,24.574867,29.793802,-19.265747,-5.3791924,-53.83963,70.768234,-13.330126,-3.4164753,-2.4611995,-52.075462,-53.97849,44.258137,48.350174,12.64576,-15.696959,-41.66281
187,0.6474248170852661,19.185606002807617,64.03134155273438,4.377863651452665,31.62689903192032,-86.18485553180892,-78.65602,5.6188264,11.846221,69.04206,-18.890444,1.4638156,-80.179375,-22.10272,-12.122711,74.49166,-26.357996,-2.1482248,19.08369,24.106169,29.793802,-19.087978,-5.172821,-53.50711,70.79525,-13.081873,-3.3976405,-2.45694,-51.667023,-53.274853,43.965305,48.33149,12.5793705,-15.615483,-41.748783
188,0.6650065183639526,19.175323486328125,64.55290985107422,4.402367568097155,31.50275296087215,-86.25016174988905,-77.62371,5.4778776,11.985844,67.48711,-18.267523,1.4506943,-79.21354,-21.90781,-12.310275,73.03198,-25.740168,-2.0599236,18.7456,23.641205,29.793802,-18.89274,-4.948573,-53.183052,70.81716,-12.807438,-3.3687677,-2.4599233,-51.228447,-52.532288,43.65385,48.331135,12.531687,-15.537288,-41.846497
189,0.6775044202804565,19.167922973632812,65.05487060546875,4.4058900013497455,31.33378253590036,-86.33778640442893,-76.55403,5.3588076,12.114892,65.96149,-17.667595,1.4261745,-78.20003,-21.699997,-12.511466,71.58826,-25.134981,-1.9778084,18.421022,23.185568,29.793802,-18.680395,-4.70925,-52.874855,70.83334,-12.494102,-3.3235047,-2.4755766,-50.74876,-51.751907,43.310177,48.34732,12.506732,-15.465358,-41.960022
190,0.6955507397651672,19.153583526611328,65.5477066040039,4.3918728016228465,31.122924255810698,-86.44217815242662,-75.45005,5.2530804,12.233797,64.46035,-17.085867,1.3945386,-77.141174,-21.483902,-12.724107,70.15537,-24.543047,-1.9002168,18.104034,22.737427,29.793802,-18.4508,-4.456334,-52.57854,70.846756,-12.151069,-3.2667706,-2.502356,-50.229317,-50.935284,42.9368,48.37332,12.5020685,-15.398015,-42.085365
191,0.7165626883506775,19.125001907348633,66.0378646850586,4.367153538364143,30.875046703883868,-86.55308681289522,-74.3177,5.153232,12.342306,62.98396,-16.522287,1.3616241,-76.045555,-21.266409,-12.942281,68.740204,-23.965345,-1.8191053,17.782398,22.290705,29.793802,-18.208277,-4.1902614,-52.285404,70.86108,-11.802534,-3.2094343,-2.530241,-49.68219,-50.08467,42.546555,48.406242,12.495561,-15.329198,-42.21687
192,0.7328131794929504,19.0944881439209,66.51983642578125,4.338223484762511,30.594903797036217,-86.66067569921482,-73.16294,5.0474563,12.4406,61.53102,-15.976253,1.333419,-74.9213,-21.055376,-13.160943,67.347824,-23.404745,-1.7270576,17.44334,21.838507,29.793802,-17.956083,-3.9106348,-51.985493,70.8802,-11.471713,-3.1622465,-2.5489979,-49.126442,-49.203888,42.161694,48.446037,12.47337,-15.252979,-42.348545
193,0.7472369074821472,19.06822395324707,66.97894287109375,4.301663396719107,30.28194410019058,-86.76185131829698,-71.98952,4.933735,12.52243,60.10595,-15.449544,1.3127885,-73.76554,-20.85063,-13.385968,65.97903,-22.861917,-1.6215266,17.085949,21.388348,29.793802,-17.693232,-3.617367,-51.685654,70.90621,-11.171721,-3.1371229,-2.5574498,-48.5488,-48.29103,41.764328,48.487675,12.416949,-15.166698,-42.487484
194,0.7591622471809387,19.038776397705078,67.42828369140625,4.25600092610035,29.93406281783633,-86.8616188261953,-70.79349,4.8191304,12.589651,58.708305,-14.942312,1.2959445,-72.57577,-20.649645,-13.618132,64.630974,-22.3361,-1.5075152,16.716448,20.939726,29.793802,-17.41826,-3.310476,-51.387264,70.93733,-10.887362,-3.1253903,-2.5600328,-47.953533,-47.347275,41.36319,48.533684,12.349725,-15.073906,-42.634525
195,0.7770861387252808,19.002666473388672,67.87718200683594,4.20961313839329,29.5538525687097,-86.9622421469945,-69.56945,4.7037206,12.6535225,57.330025,-14.450874,1.2792587,-71.35955,-20.45168,-13.845744,63.304943,-21.827864,-1.3888513,16.33726,20.485529,29.793802,-17.133389,-2.9910822,-51.079994,70.963036,-10.6023445,-3.105953,-2.5571349,-47.339893,-46.37328,40.948647,48.580776,12.258807,-14.977006,-42.772884
196,0.7965536713600159,18.94820785522461,68.31851959228516,4.171236005530568,29.144134743453897,-87.06610134498065,-68.31182,4.5873756,12.725729,55.963,-13.971818,1.2593298,-70.12354,-20.257526,-14.056595,62.00153,-21.33706,-1.2684294,15.948986,20.01502,29.793802,-16.841581,-2.6607692,-50.75115,70.97581,-10.300355,-3.0577946,-2.5485108,-46.72158,-45.37382,40.53723,48.631252,12.159109,-14.878463,-42.887215
197,0.8036779165267944,18.89702033996582,68.7455825805664,4.141316918788405,28.701380481630004,-87.1754064893241,-67.01604,4.4712343,12.807304,54.609245,-13.507629,1.235842,-68.86448,-20.065691,-14.249108,60.723465,-20.866821,-1.1494914,15.555586,19.532234,29.793802,-16.542604,-2.3219948,-50.40609,70.97098,-9.95809,-2.9610963,-2.5417929,-46.077965,-44.346317,40.095863,48.681454,12.019771,-14.780025,-42.966175
198,0.8140885233879089,18.83939552307129,69.16133117675781,4.115751878461726,28.225187603244333,-87.28827485718897,-65.68614,4.3546023,12.892346,53.272266,-13.059241,1.2105861,-67.5798,-19.877493,-14.429899,59.46987,-20.41642,-1.0297049,15.157472,19.04285,29.793802,-16.236307,-1.9763808,-50.04955,70.95475,-9.589875,-2.8319073,-2.5350864,-45.398952,-43.28742,39.612022,48.72586,11.832251,-14.6799555,-43.02065
199,0.8264595866203308,18.765230178833008,69.57254028320312,4.096845198767218,27.72375507588635,-87.40102922119347,-64.329155,4.235369,12.982196,51.946213,-12.621747,1.1829122,-66.27855,-19.693663,-14.599476,58.238358,-19.982199,-0.9076925,14.747251,18.533262,29.793802,-15.927618,-1.622705,-49.666027,70.94025,-9.238108,-2.7027981,-2.5133612,-44.74971,-42.211857,39.18109,48.777763,11.681919,-14.575628,-43.067368
200,0.8450281620025635,18.694305419921875,69.97509765625,4.084370449804962,27.204034847299216,-87.51017186236619,-62.951767,4.1105995,13.076219,50.62464,-12.189061,1.1520696,-64.96478,-19.519724,-14.7649765,57.024414,-19.562471,-0.7825451,14.327455,18.01298,29.793802,-15.617678,-1.2617676,-49.254864,70.92351,-8.946109,-2.6054826,-2.4656575,-44.09409,-41.119183,38.750618,48.807655,11.525982,-14.462984,-43.121235
201,0.8518108129501343,18.62091636657715,70.37173461914062,4.083656057236363,26.660904710296187,-87.61256780955773,-61.547424,3.977606,13.17837,49.306595,-11.760535,1.1161565,-63.639492,-19.359947,-14.919969,55.835423,-19.15839,-0.6530905,13.899034,17.480585,29.793802,-15.305726,-0.894905,-48.819435,70.91251,-8.730834,-2.5529757,-2.3784428,-43.423847,-40.01055,38.315163,48.815575,11.370752,-14.335755,-43.183937
202,0.8616362810134888,18.54641342163086,70.75934600830078,4.092546897956745,26.09256201352291,-87.71080402356927,-60.115074,3.8360996,13.286894,47.994457,-11.33866,1.0758457,-62.298378,-19.21039,-15.066508,54.67105,-18.771654,-0.52068913,13.463596,16.93718,29.793802,-14.991965,-0.5229723,-48.363117,70.90415,-8.568338,-2.5267591,-2.2615683,-42.740192,-38.8875,37.876526,48.804462,11.216879,-14.197393,-43.248356
203,0.8709717392921448,18.452449798583984,71.13218688964844,4.100370983608398,25.51222804896344,-87.81073313063597,-58.67122,3.694062,13.392225,46.691227,-10.924951,1.0332154,-60.946533,-19.06134,-15.212256,53.519493,-18.396418,-0.38597208,13.021055,16.38122,29.793802,-14.680791,-0.143997,-47.874466,70.889114,-8.436144,-2.511872,-2.135456,-42.093277,-37.764294,37.49683,48.78266,11.106082,-14.059479,-43.31692
204,0.8711068034172058,18.35554313659668,71.49549865722656,4.095542278321854,24.932485498027976,-87.91765699723612,-57.230988,3.5609474,13.48396,45.399025,-10.521902,0.9902333,-59.587334,-18.900776,-15.366074,52.367256,-18.026115,-0.2495084,12.578249,15.827839,29.793802,-14.373574,0.24303055,-47.35423,70.84533,-8.313721,-2.492481,-2.0245051,-41.45214,-36.642555,37.126755,48.72004,10.979074,-13.932851,-43.39071
205,0.8695471882820129,18.255449295043945,71.85449981689453,4.075886049494869,24.360792568013657,-88.03203916801247,-55.801918,3.4371831,13.559653,44.11504,-10.124688,0.9456466,-58.224285,-18.72582,-15.5312805,51.206535,-17.657063,-0.11039076,12.136387,15.276725,29.793802,-14.073087,0.6398177,-46.801064,70.767975,-8.20395,-2.4649034,-1.9399941,-40.822254,-35.528206,36.771656,48.61147,10.855669,-13.82478,-43.47593
206,0.8773197531700134,18.142404556274414,72.20874786376953,4.046571700094772,23.78892214365528,-88.1509505229941,-54.37505,3.3201864,13.623933,42.839268,-9.734864,0.8986337,-56.854607,-18.541508,-15.703354,50.04536,-17.293238,0.03134051,11.69682,14.727871,29.793802,-13.775746,1.046468,-46.221775,70.66184,-8.115865,-2.4368184,-1.8691127,-40.19406,-34.424614,36.42762,48.45869,10.737782,-13.727791,-43.569847
207,0.8885769844055176,18.022384643554688,72.5509033203125,4.008157083293474,23.206505967310942,-88.2745138338102,-52.942535,3.2120545,13.678816,41.583237,-9.35829,0.85132825,-55.471764,-18.34939,-15.878491,48.892853,-16.938381,0.17367195,11.262127,14.184935,29.793802,-13.473999,1.4616275,-45.622154,70.527916,-8.037522,-2.4105961,-1.7971826,-39.562283,-33.335262,36.10131,48.266804,10.609053,-13.629721,-43.661217
208,0.890396237373352,17.905345916748047,72.88331604003906,3.9614821702334546,22.60355693114426,-88.4026948260381,-51.497643,3.1140234,13.726663,40.359184,-9.001325,0.8057382,-54.06829,-18.150578,-16.053204,47.755367,-16.596817,0.3146433,10.834548,13.651271,29.793802,-13.162256,1.8829257,-45.00858,70.36936,-7.9584284,-2.387918,-1.7101023,-38.92374,-32.263317,35.800617,48.043583,10.454088,-13.519094,-43.738064
209,0.9012571573257446,17.7740421295166,73.21026611328125,3.9059605376074438,21.97248567391436,-88.53718891180155,-50.029762,3.0268152,13.768097,39.164368,-8.663876,0.7620468,-52.63606,-17.943151,-16.22643,46.633987,-16.266048,0.45419303,10.415585,13.129159,29.793802,-12.838552,2.3075864,-44.37755,70.18958,-7.8723783,-2.3700354,-1.6031746,-38.26846,-31.20997,35.52014,47.78539,10.263191,-13.392764,-43.79151
210,0.9039695262908936,17.637596130371094,73.52743530273438,3.8418867332656403,21.320530662999225,-88.67684687814462,-48.546375,2.9508357,13.802027,37.995884,-8.343882,0.71822596,-51.18017,-17.726109,-16.400024,45.52302,-15.945124,0.5932673,10.004778,12.617448,29.793802,-12.506982,2.734076,-43.72815,69.98857,-7.7862983,-2.3557847,-1.4846561,-37.59708,-30.176702,35.25663,47.488003,10.046953,-13.256723,-43.829117
211,0.8906405568122864,17.494176864624023,73.83045196533203,3.771620568578881,20.659460867653742,-88.81757448645347,-47.067703,2.8837237,13.829076,36.864822,-8.044619,0.67339563,-49.72081,-17.503878,-16.572607,44.434784,-15.639083,0.7313004,9.6013365,12.1139,29.793802,-12.171298,3.162324,-43.069942,69.763306,-7.7078586,-2.3436265,-1.3592951,-36.922165,-29.167341,35.020996,47.15566,9.820462,-13.112925,-43.864346
212,0.9012972712516785,17.3405818939209,74.12568664550781,3.697042417468254,20.000543171268163,-88.95507609488041,-45.611713,2.8262272,13.849293,35.779293,-7.767298,0.62689906,-48.273758,-17.281418,-16.746351,43.3749,-15.350456,0.86831814,9.205718,11.620007,29.793802,-11.835271,3.5928948,-42.41621,69.5082,-7.646959,-2.3316925,-1.2329155,-36.228443,-28.181517,34.7943,46.776154,9.565659,-12.963056,-43.91067
213,0.9022151827812195,17.18018341064453,74.40731811523438,3.6140563147833444,19.346082122160688,-89.09179049481901,-44.185364,2.782983,13.861248,34.747856,-7.5157757,0.57943624,-46.840775,-17.053642,-16.92191,42.341286,-15.076429,1.0062176,8.822402,11.133735,29.793802,-11.5014305,4.0275245,-41.76218,69.22547,-7.611044,-2.3211093,-1.1036997,-35.58984,-27.240295,34.66333,46.39494,9.386575,-12.806118,-43.97547
214,0.8993327617645264,17.02943229675293,74.6656494140625,3.522466974694394,18.690058212814765,-89.22830800398772,-42.778183,2.7541373,13.865299,33.76402,-7.2879677,0.53072673,-45.412395,-16.819239,-17.099718,41.328808,-14.8152275,1.1452874,8.455497,10.6669445,29.793802,-11.165372,4.4643526,-41.112976,68.9087,-7.5946527,-2.311656,-0.9732049,-34.913445,-26.337017,34.53533,45.95086,9.184598,-12.6405325,-44.05007
215,0.8998233675956726,16.856843948364258,74.91793060302734,3.431707307411917,18.03376052733279,-89.35861482631842,-41.386852,2.7290106,13.865397,32.81863,-7.0797954,0.47882885,-43.996723,-16.589367,-17.27367,40.35072,-14.574158,1.2835418,8.094199,10.206198,29.793802,-10.825884,4.9034395,-40.472862,68.56177,-7.5819254,-2.3015943,-0.8416172,-34.220085,-25.470613,34.42324,45.45428,8.964854,-12.468665,-44.12485
216,0.89891517162323,16.674734115600586,75.1643295288086,3.350915297262891,17.37862592101549,-89.4770453361724,-40.008564,2.6972458,13.865195,31.904331,-6.88864,0.42185202,-42.602524,-16.375553,-17.437632,39.42065,-14.360786,1.4192501,7.725634,9.73767,29.793802,-10.481141,5.346719,-39.844997,68.187325,-7.5587564,-2.2890875,-0.7095659,-33.539265,-24.642433,34.349697,44.92083,8.7428665,-12.293404,-44.190025
217,0.8920823335647583,16.493120193481445,75.39095306396484,3.282970290872616,16.72302815321591,-89.5813990323008,-38.63807,2.6546648,13.865238,31.014627,-6.711452,0.3578491,-41.22843,-16.18262,-17.590948,38.542843,-14.177577,1.5545524,7.3428698,9.256565,29.793802,-10.126137,5.796768,-39.229973,67.77949,-7.521328,-2.2703376,-0.57359487,-32.864426,-23.85036,34.316177,44.345192,8.509273,-12.115627,-44.246433
218,0.8900446891784668,16.298030853271484,75.60834503173828,3.2222462095963054,16.066865706340575,-89.67530561028212,-37.278168,2.6077821,13.863449,30.155231,-6.550647,0.2881068,-39.869804,-16.003735,-17.737535,37.7089,-14.019488,1.6905055,6.9536324,8.771296,29.793802,-9.761449,6.254424,-38.626366,67.335594,-7.4781175,-2.2468848,-0.43493178,-32.18148,-23.092363,34.31149,43.721764,8.259491,-11.934056,-44.29844
219,0.878653883934021,16.1020450592041,75.81185913085938,3.1650693143193784,15.413522510001972,-89.76205059815143,-35.936256,2.5613601,13.8590975,29.332066,-6.408522,0.2157281,-38.530178,-15.833583,-17.87891,36.914825,-13.883449,1.8240321,6.5675774,8.288455,29.793802,-9.391361,6.718133,-38.03151,66.86194,-7.428743,-2.2253487,-0.30153364,-31.500452,-22.371187,34.326756,43.05929,7.998803,-11.747271,-44.341103
220,0.8765671253204346,15.900259971618652,76.00141906738281,3.107776615861987,14.766129534817836,-89.84476363400438,-34.618755,2.5198486,13.85214,28.54842,-6.2859774,0.14400902,-37.211143,-15.666252,-18.016748,36.152836,-13.764672,1.9520887,6.1956015,7.816192,29.793802,-9.023126,7.1843185,-37.445076,66.36753,-7.373645,-2.2123153,-0.1812592,-30.824957,-21.691671,34.34737,42.35953,7.72851,-11.553664,-44.369427
221,0.8693387508392334,15.69365406036377,76.1874771118164,3.0504945752397203,14.121997548064895,-89.92175794069293,-33.32549,2.4824557,13.841566,27.809742,-6.1854825,0.07499557,-35.910854,-15.504044,-18.151747,35.42604,-13.664603,2.0751877,5.840902,7.3587856,29.793802,-8.662758,7.6493034,-36.872482,65.86228,-7.3190484,-2.2137136,-0.08497847,-30.145998,-21.059422,34.36563,41.61695,7.442207,-11.354166,-44.373684
222,0.8622399568557739,15.479798316955566,76.35741424560547,2.99438538729579,13.48059146039432,-89.99223877125206,-32.049942,2.4471953,13.828249,27.105167,-6.101469,0.006726204,-34.62583,-15.34884,-18.285212,34.731777,-13.582221,2.195489,5.5007157,6.9147167,29.793802,-8.311067,8.111259,-36.316185,65.34549,-7.2627735,-2.2249753,-0.0055916375,-29.453754,-20.476822,34.383022,40.821682,7.138623,-11.14888,-44.358585
223,0.8630267381668091,15.270244598388672,76.51490020751953,2.93765337908632,12.848445653194496,-90.06097574293037,-30.801798,2.4195325,13.813876,26.441721,-6.0392237,-0.06397272,-33.364655,-15.194246,-18.412807,34.067966,-13.514687,2.3125365,5.1760273,6.481517,29.793802,-7.9651184,8.569091,-35.768284,64.810104,-7.191195,-2.2366529,0.07591425,-28.758657,-19.9443,34.405365,39.976643,6.8320303,-10.934224,-44.341553
224,0.84688401222229,15.058059692382812,76.66542053222656,2.878701864590257,12.232135377498047,-90.13242496563733,-29.583231,2.402635,13.801485,25.809673,-5.9937315,-0.13942346,-32.132313,-15.03538,-18.534225,33.42714,-13.457277,2.4258893,4.8672085,6.0562625,29.793802,-7.6211586,9.022437,-35.221085,64.247826,-7.091279,-2.2392395,0.17849816,-28.065943,-19.458874,34.434963,39.081184,6.529584,-10.706047,-44.340034
225,0.8368381261825562,14.836196899414062,76.80866241455078,2.8179654707252446,11.630715351272665,-90.21022773066035,-28.39429,2.3986776,13.794626,25.215118,-5.9710665,-0.22240895,-30.930552,-14.871167,-18.643799,32.812508,-13.409862,2.5374193,4.5751843,5.635239,29.793802,-7.27556,9.471034,-34.670483,63.65598,-6.952664,-2.2286284,0.3115799,-27.379015,-19.017048,34.480812,38.144257,6.2366376,-10.460075,-44.36248
226,0.8273342847824097,14.607206344604492,76.94292449951172,2.7561946593420528,11.04146299482919,-90.29126747233494,-27.231094,2.4044855,13.791963,24.655067,-5.968082,-0.31038603,-29.755754,-14.705436,-18.743813,32.225082,-13.373707,2.6477022,4.298041,5.219317,29.793802,-6.9304366,9.914607,-34.119366,63.039734,-6.784241,-2.2102141,0.4634554,-26.693163,-18.617275,34.53883,37.163025,5.945436,-10.198718,-44.398075
227,0.8085625171661377,14.389586448669434,77.06649017333984,2.6922673916306343,10.468400032926152,-90.37014057635895,-26.10139,2.4191153,13.787708,24.130302,-5.9817634,-0.39885795,-28.606243,-14.537345,-18.842173,31.65484,-13.345711,2.753706,4.032719,4.8129716,29.793802,-6.590823,10.352937,-33.570274,62.401993,-6.6021166,-2.1883476,0.6215155,-26.01285,-18.260324,34.596375,36.13212,5.6524463,-9.93278,-44.435154
228,0.7987881302833557,14.154698371887207,77.18414306640625,2.624820259129589,9.915789587705614,-90.44151556409969,-25.01483,2.4423766,13.775955,23.644924,-6.010281,-0.48319232,-27.483393,-14.366587,-18.945387,31.096935,-13.3251705,2.8522108,3.7767239,4.4215775,29.793802,-6.2620306,10.78553,-33.026943,61.74553,-6.421561,-2.1676579,0.7729944,-25.340502,-17.948265,34.63972,35.043304,5.356364,-9.672748,-44.461655
229,0.7783544063568115,13.920952796936035,77.29427337646484,2.5525043384131334,9.384526673436563,-90.50225127855106,-23.976166,2.4754696,13.753573,23.20525,-6.0527663,-0.56018716,-26.38739,-14.193189,-19.058607,30.552391,-13.313337,2.9408412,3.5288627,4.047232,29.793802,-5.9481997,11.212839,-32.491814,61.071243,-6.2430143,-2.1490493,0.9155974,-24.673395,-17.683126,34.665703,33.8896,5.0594373,-9.421695,-44.4779
230,0.7618495225906372,13.690489768981934,77.39543151855469,2.4759624276563694,8.872404247147136,-90.55597367601959,-22.979921,2.5185616,13.724495,22.808231,-6.113795,-0.6325467,-25.317938,-14.016852,-19.17626,30.023327,-13.309757,3.0220761,3.2912471,3.6872907,29.793802,-5.6463423,11.634756,-31.963047,60.378254,-6.0589256,-2.1301897,1.0555311,-24.008614,-17.466108,34.68036,32.67182,4.76175,-9.172789,-44.488266
231,0.7426799535751343,13.459667205810547,77.49134063720703,2.3974520303091134,8.379517666311205,-90.60690640546731,-22.01478,2.5676396,13.694753,22.433289,-6.184151,-0.703993,-24.27235,-13.837531,-19.29355,29.499733,-13.308861,3.100366,3.066888,3.3411696,29.793802,-5.3540063,12.049429,-31.441511,59.669323,-5.8760138,-2.1107137,1.1929353,-23.343147,-17.296404,34.67984,31.39329,4.4574394,-8.925842,-44.4857
232,0.7233734130859375,13.216197967529297,77.58625030517578,2.3191341584040273,7.905606906853436,-90.6593170040715,-21.072346,2.6192815,13.6698675,22.064505,-6.2590384,-0.77862436,-23.249216,-13.655981,-19.405315,28.974876,-13.30696,3.1798885,2.8589337,3.008366,29.793802,-5.0698524,12.453566,-30.927296,58.94875,-5.7003365,-2.0904937,1.3282003,-22.67401,-17.171852,34.659252,30.05753,4.1387634,-8.679978,-44.463596
233,0.7023854851722717,12.978543281555176,77.6715316772461,2.2416563544535353,7.451277477400386,-90.7172171930089,-20.150543,2.6745012,13.654211,21.700432,-6.3393703,-0.8590864,-22.25126,-13.471213,-19.506844,28.450974,-13.306022,3.2602718,2.6694357,2.6876295,29.793802,-4.7958193,12.845197,-30.419594,58.221172,-5.5358753,-2.071798,1.4627231,-22.003016,-17.092127,34.615917,28.6584,3.8045483,-8.4386425,-44.417065
234,0.6879792213439941,12.731258392333984,77.75251007080078,2.163925415762029,7.01663896426161,-90.77753988250649,-19.254372,2.7345636,13.644287,21.349382,-6.4276204,-0.94277126,-21.277807,-13.283727,-19.60211,27.929749,-13.306915,3.3398764,2.4963489,2.3800979,29.793802,-4.535886,13.2236805,-29.919683,57.487713,-5.3791533,-2.0542958,1.5961753,-21.328209,-17.056503,34.550632,27.194565,3.4581618,-8.201167,-44.349537
235,0.6693389415740967,12.488965034484863,77.83021545410156,2.0856588448470674,6.599947596955475,-90.8339493357833,-18.381027,2.7948227,13.633496,21.001575,-6.515684,-1.0259148,-20.32369,-13.095595,-19.698036,27.404701,-13.303417,3.4201272,2.3349743,2.0862014,29.793802,-4.2894874,13.587513,-29.42671,56.74775,-5.221246,-2.0342557,1.727003,-20.65188,-17.062592,34.469234,25.687037,3.1004155,-7.9615498,-44.2668
236,0.6524884700775146,12.24737548828125,77.90650939941406,2.0066813069157616,6.199572561175779,-90.8802296381729,-17.52764,2.851421,13.615204,20.647396,-6.59601,-1.1049458,-19.383144,-12.908355,-19.801622,26.868618,-13.2890625,3.5022824,2.1795382,1.8061664,29.793802,-4.0568233,13.9349,-28.94012,56.00151,-5.0547695,-2.0077853,1.853904,-19.980043,-17.10678,34.37894,24.16073,2.7318048,-7.7136617,-44.174423
237,0.6336779594421387,12.016396522521973,77.9779281616211,1.9245991518507293,5.8169700070062635,-90.91057704689777,-16.697542,2.903665,13.582783,20.286964,-6.6674223,-1.1779375,-18.452866,-12.722031,-19.920044,26.316074,-13.2606125,3.588337,2.0216327,1.5417651,29.793802,-3.8351016,14.264493,-28.448349,55.240158,-4.872425,-1.9713839,1.9769173,-19.318935,-17.186464,34.28032,22.617298,2.344703,-7.4480023,-44.065754
238,0.6191188097000122,11.775272369384766,78.04764556884766,1.8400954575790172,5.452266865010668,-90.92978502586674,-15.891276,2.9538333,13.541529,19.924816,-6.7336535,-1.2473215,-17.536621,-12.535531,-20.047441,25.75179,-13.220268,3.6766462,1.8636392,1.2913889,29.793802,-3.6255734,14.5760975,-27.953735,54.46871,-4.6797156,-1.9281943,2.096957,-18.668303,-17.299803,34.170887,21.051655,1.9405177,-7.1711235,-43.939465
