liuchenxu125/GMR/soma-retargeter/assets/motions/csv/Neutral_throw_ball_001__A057.csv
Frame,root_translateX,root_translateY,root_translateZ,root_rotateX,root_rotateY,root_rotateZ,left_hip_pitch_joint_dof,left_hip_roll_joint_dof,left_hip_yaw_joint_dof,left_knee_joint_dof,left_ankle_pitch_joint_dof,left_ankle_roll_joint_dof,right_hip_pitch_joint_dof,right_hip_roll_joint_dof,right_hip_yaw_joint_dof,right_knee_joint_dof,right_ankle_pitch_joint_dof,right_ankle_roll_joint_dof,waist_yaw_joint_dof,waist_roll_joint_dof,waist_pitch_joint_dof,left_shoulder_pitch_joint_dof,left_shoulder_roll_joint_dof,left_shoulder_yaw_joint_dof,left_elbow_joint_dof,left_wrist_roll_joint_dof,left_wrist_pitch_joint_dof,left_wrist_yaw_joint_dof,right_shoulder_pitch_joint_dof,right_shoulder_roll_joint_dof,right_shoulder_yaw_joint_dof,right_elbow_joint_dof,right_wrist_roll_joint_dof,right_wrist_pitch_joint_dof,right_wrist_yaw_joint_dof
0,0.7703939080238342,1.9538750648498535,77.87255859375,1.573873706490149,-2.1628724111204707,-112.90086117488086,-1.33354,12.228682,22.588654,9.962429,-4.1152835,-10.3966255,9.179441,-8.865886,-18.235832,7.782923,-13.431424,7.8837037,1.3179616,-0.5698853,9.362068,3.6995108,20.035538,-31.856144,52.863876,1.1207774,3.0378838,4.439249,-7.173696,-21.286098,56.784317,52.480637,18.0786,3.7124252,-9.994883
1,0.7720680236816406,1.9704617261886597,77.87281036376953,1.5311040031642402,-2.1437207830402056,-112.95364564481952,-1.4578345,12.348927,22.622192,10.187998,-4.18527,-10.443416,9.066984,-8.819209,-18.171627,7.8969464,-13.4549265,7.8458176,1.3460591,-0.5076316,9.432993,3.4868042,20.081964,-32.21834,52.587063,1.0336031,3.116906,4.395031,-7.352506,-21.317636,57.056267,52.003353,19.152958,3.9650784,-9.916683
2,0.7759507894515991,1.9954841136932373,77.87248229980469,1.4893861244603703,-2.1260165613735293,-113.00330631346709,-1.5768489,12.465015,22.654066,10.404895,-4.252613,-10.490921,8.961002,-8.773508,-18.111492,8.004534,-13.476868,7.8089285,1.3734114,-0.4496048,9.503943,3.2857296,20.121565,-32.550632,52.320396,0.9503069,3.19617,4.339863,-7.5325594,-21.333109,57.31285,51.55281,20.22439,4.224904,-9.841496
3,0.7800695896148682,2.019335985183716,77.87115478515625,1.4449778887195874,-2.105934549942458,-113.05901985371233,-1.7047678,12.58928,22.688921,10.637134,-4.3243313,-10.537661,8.844801,-8.724453,-18.043856,8.120738,-13.499838,7.769686,1.4009416,-0.38675684,9.573911,3.0584512,20.167088,-32.929966,52.044106,0.8727518,3.2741497,4.3023415,-7.732985,-21.343115,57.596775,51.09862,21.29623,4.472188,-9.768583
4,0.7846056222915649,2.0537586212158203,77.86991882324219,1.3942350729022244,-2.079940906139522,-113.12944394055734,-1.8557827,12.734354,22.73095,10.910301,-4.4083185,-10.582058,8.696566,-8.669707,-17.95648,8.273189,-13.531036,7.7246337,1.4496838,-0.3220392,9.642146,2.7803357,20.272078,-33.45605,51.70587,0.79539067,3.349965,4.3070774,-7.973683,-21.35176,57.93761,50.61733,22.376822,4.6836696,-9.69211
5,0.7866202592849731,2.088966131210327,77.86786651611328,1.3355031015435186,-2.044784951348533,-113.21282471038514,-2.0376852,12.902456,22.77766,11.230005,-4.5042987,-10.621959,8.523046,-8.603501,-17.851583,8.438022,-13.5591955,7.6726003,1.4852015,-0.24681056,9.725789,2.4430974,20.390617,-34.064632,51.32504,0.809614,3.4346757,4.359918,-8.299835,-21.345888,58.367188,50.135452,23.41939,4.8584223,-9.623215
6,0.789508581161499,2.1241650581359863,77.86512756347656,1.2708063596710835,-2.003127973717975,-113.3057504648601,-2.2415178,13.087591,22.827818,11.583244,-4.609048,-10.658549,8.326867,-8.530378,-17.733156,8.6215925,-13.58876,7.6156673,1.5020282,-0.15202254,9.810303,2.0413544,20.471848,-34.731327,50.96335,0.8935095,3.5217633,4.4514365,-8.678816,-21.334019,58.867683,49.655857,24.429514,5.00775,-9.560368
7,0.797957718372345,2.1666224002838135,77.86244201660156,1.2011500631693344,-1.9620416932408706,-113.41493751690912,-2.4534526,13.289617,22.887115,11.963241,-4.72345,-10.6957445,8.114622,-8.450679,-17.597406,8.824602,-13.623379,7.5548916,1.5459617,-0.059220806,9.895461,1.5976024,20.607096,-35.50947,50.54186,0.9342032,3.5889022,4.559622,-9.094518,-21.295858,59.377686,49.16891,25.482702,5.132465,-9.458822
8,0.8060244917869568,2.2174315452575684,77.85970306396484,1.1269801391588137,-1.9295125610949702,-113.54684169745525,-2.6577675,13.508391,22.961544,12.3611355,-4.8476014,-10.737206,7.897711,-8.363331,-17.440594,9.039359,-13.662276,7.4916472,1.5770011,0.04506692,9.998717,1.1071175,20.741457,-36.283195,50.08423,0.9288325,3.6003842,4.64856,-9.572272,-21.244202,59.876797,48.65937,26.620543,5.249279,-9.260443
9,0.81158047914505,2.2650909423828125,77.85401916503906,1.047069132830891,-1.9049738612225218,-113.70412890481168,-2.858087,13.748067,23.052338,12.784786,-4.986051,-10.7869835,7.6647353,-8.26889,-17.259438,9.287423,-13.717368,7.424658,1.6140084,0.15800442,10.114273,0.5664228,20.892616,-37.105484,49.595455,0.8843161,3.5476346,4.7268934,-10.098345,-21.170399,60.357403,48.129387,27.870308,5.3708158,-8.947217
10,0.8183337450027466,2.320927619934082,77.84892272949219,0.9612725643505254,-1.8855065699267999,-113.88300426982246,-3.0560572,14.006248,23.157003,13.227399,-5.132891,-10.842136,7.4203734,-8.1657095,-17.057604,9.552656,-13.77814,7.35391,1.652235,0.2818392,10.239468,-0.02767738,21.04861,-37.981304,49.08383,0.8186107,3.4468927,4.804756,-10.678577,-21.07955,60.846012,47.58379,29.207502,5.493775,-8.548627
11,0.8263470530509949,2.3758673667907715,77.84343719482422,0.8720377949310862,-1.8744782250374188,-114.08021147585907,-3.247888,14.278636,23.273008,13.689228,-5.289141,-10.895655,7.1763043,-8.055262,-16.839022,9.822024,-13.838486,7.2820015,1.6789724,0.42147505,10.375318,-0.671672,21.182219,-38.84509,48.53703,0.6771828,3.3069358,4.8623376,-11.30344,-20.992476,61.31841,46.999447,30.586676,5.603618,-8.089212
12,0.8355539441108704,2.4320921897888184,77.83547973632812,0.7827128728399846,-1.8752576042870785,-114.29300694602176,-3.4299393,14.5597515,23.398556,14.171014,-5.4563146,-10.940656,6.9349756,-7.943436,-16.605701,10.101232,-13.902292,7.2118864,1.7136307,0.5556483,10.5224495,-1.3438445,21.353151,-39.68607,47.876827,0.36475345,3.1433136,4.880453,-11.975672,-20.863926,61.72171,46.409634,31.962719,5.6777234,-7.5889406
13,0.8457933664321899,2.493648052215576,77.82659912109375,0.6933009446504743,-1.8906650646348944,-114.51764483888941,-3.6007326,14.848998,23.529127,14.673015,-5.634331,-10.972125,6.707382,-7.82842,-16.363058,10.375863,-13.9622555,7.1447773,1.7242498,0.69601285,10.686698,-2.0323088,21.526066,-40.452057,47.11454,-0.12768756,2.9467251,4.833607,-12.702501,-20.719864,62.086445,45.80358,33.367134,5.7114935,-7.0035944
14,0.8571078777313232,2.55251407623291,77.81494903564453,0.6023241555537204,-1.918312716156401,-114.75669674833276,-3.7633286,15.14968,23.666786,15.197123,-5.8237405,-10.994555,6.4864845,-7.708809,-16.107893,10.652762,-14.021491,7.0791764,1.7235441,0.84346354,10.863988,-2.7531621,21.702597,-41.187107,46.272568,-0.7690504,2.715842,4.737857,-13.478252,-20.559437,62.415188,45.179012,34.809464,5.721072,-6.336426
15,0.8675597906112671,2.6171889305114746,77.8018798828125,0.5101087610399955,-1.9538323008601737,-115.01622745722925,-3.9143999,15.46174,23.820171,15.7317705,-6.0182085,-11.014994,6.2662973,-7.583352,-15.833245,10.930658,-14.078172,7.0137224,1.715976,0.99684906,11.048051,-3.5095248,21.883703,-41.87885,45.345604,-1.5063587,2.4691794,4.6275644,-14.313336,-20.383154,62.70759,44.52281,36.238297,5.7180305,-5.6824856
16,0.8812682628631592,2.67657208442688,77.79041290283203,0.41733718405482295,-1.9928486334305864,-115.30228821413789,-4.04688,15.782693,23.998917,16.257288,-6.2098446,-11.040131,6.0421724,-7.4511433,-15.532529,11.206351,-14.129853,6.9470215,1.7027137,1.1553205,11.232434,-4.3097496,22.071571,-42.518543,44.332687,-2.294157,2.2236774,4.5375414,-15.211483,-20.191957,62.959663,43.81767,37.592243,5.70819,-5.137716
17,0.8973156809806824,2.7426764965057373,77.7776870727539,0.32300787623397276,-2.0332102971753776,-115.61636022265974,-4.164712,16.115585,24.203922,16.776243,-6.398923,-11.071397,5.8106728,-7.3100796,-15.203367,11.479593,-14.175078,6.879805,1.6881105,1.3185294,11.416774,-5.147938,22.267065,-43.106987,43.219593,-3.1861281,1.9709353,4.456506,-16.178795,-19.98599,63.187927,43.069263,38.900608,5.687118,-4.708537
18,0.9091888666152954,2.810051202774048,77.76548767089844,0.22724260939180507,-2.0777568044087076,-115.95519184470243,-4.269941,16.46118,24.430485,17.297785,-6.5898137,-11.104986,5.5753083,-7.1609297,-14.849729,11.752066,-14.215749,6.8125553,1.6686434,1.487265,11.602168,-6.022921,22.470959,-43.650574,42.01109,-4.1887736,1.7070602,4.3706036,-17.205614,-19.764795,63.384857,42.281094,40.174995,5.6488495,-4.349186
19,0.9258019924163818,2.8803396224975586,77.75255584716797,0.13253882573307674,-2.1295155528798766,-116.31794348689638,-4.3537803,16.813992,24.680132,17.815514,-6.7788243,-11.140383,5.3421874,-7.007359,-14.474208,12.0207615,-14.2515335,6.7436137,1.6383187,1.6612413,11.786348,-6.938812,22.684704,-44.141647,40.723145,-5.1710854,1.455105,4.312362,-18.295797,-19.530024,63.529026,41.441093,41.35875,5.590873,-4.0765424
20,0.9426188468933105,2.950227737426758,77.73868560791016,0.04144708003202424,-2.191503034285698,-116.70409877675144,-4.409904,17.169947,24.953978,18.328096,-6.96433,-11.176848,5.117058,-6.8523765,-14.079304,12.285127,-14.284948,6.671375,1.5905461,1.840713,11.966896,-7.901447,22.910513,-44.57413,39.372646,-6.0042706,1.2364764,4.3159738,-19.44828,-19.284933,63.59584,40.53381,42.389397,5.51013,-3.9078994
21,0.9606404304504395,3.013908624649048,77.72447967529297,-0.04378057590257321,-2.264458290263864,-117.11731717342002,-4.4310546,17.52679,25.257704,18.82917,-7.1443367,-11.215061,4.8994904,-6.69817,-13.662431,12.546815,-14.317222,6.5933833,1.5238644,2.0230327,12.141986,-8.890193,23.14703,-44.94011,37.937992,-6.6506953,1.0608176,4.398702,-20.655207,-19.031961,63.5733,39.547104,43.181133,5.4147935,-3.8492484
22,0.9850060343742371,3.0862860679626465,77.7098388671875,-0.12521443035202345,-2.346896397851308,-117.55673932847272,-4.4237504,17.888376,25.588955,19.32559,-7.3213086,-11.254976,4.688163,-6.541646,-13.223435,12.803442,-14.346044,6.511375,1.4419305,2.2096157,12.311881,-9.908794,23.393957,-45.247215,36.41804,-7.180186,0.91421396,4.5412197,-21.92165,-18.773401,63.477673,38.491905,43.79266,5.2987967,-3.8903086
23,1.0034997463226318,3.1390891075134277,77.69879150390625,-0.20468121630122715,-2.438138869273537,-118.01462861449143,-4.3934803,18.253551,25.939133,19.816711,-7.494947,-11.295154,4.4836793,-6.3816876,-12.768103,13.055072,-14.369645,6.430129,1.345814,2.405604,12.477072,-11.002794,23.657146,-45.516586,34.859077,-7.6281676,0.7825997,4.7226686,-23.258371,-18.512821,63.321545,37.38149,44.370213,5.138276,-4.0239844
24,1.024985671043396,3.2085564136505127,77.6855239868164,-0.2849979551511891,-2.53761113712669,-118.48333173766281,-4.352482,18.62461,26.297405,20.31643,-7.667285,-11.333811,4.2899094,-6.2158365,-12.302719,13.293827,-14.382055,6.3542643,1.237717,2.6149395,12.639058,-12.21517,23.945986,-45.77059,33.301422,-8.029225,0.65254456,4.921291,-24.68779,-18.255758,63.125614,36.23161,45.073204,4.9089694,-4.2415357
25,1.0457258224487305,3.2834057807922363,77.6712417602539,-0.3676641087360423,-2.649228173272791,-118.9594011891019,-4.2942696,19.000715,26.65966,20.815042,-7.834815,-11.37336,4.1143456,-6.0425854,-11.830747,13.515309,-14.381295,6.2846193,1.111645,2.8386488,12.8024845,-13.541689,24.265278,-46.017067,31.72363,-8.353088,0.52598524,5.1320653,-26.210049,-18.00747,62.8972,35.019356,45.969048,4.582018,-4.571541
26,1.0727120637893677,3.349348545074463,77.66092681884766,-0.450802323701386,-2.7720128840721925,-119.4472890362774,-4.220339,19.38384,27.030622,21.320997,-8.000787,-11.413519,3.9538162,-5.8629856,-11.348408,13.722423,-14.369353,6.2187386,0.9679737,3.073949,12.964981,-14.959989,24.615889,-46.24738,30.104218,-8.595423,0.4093646,5.365604,-27.816393,-17.7713,62.627586,33.739494,46.96598,4.1730485,-5.0045886
27,1.1127147674560547,3.411700963973999,77.6484375,-0.5318252390938041,-2.898193094124549,-119.95169240481349,-4.1343083,19.770971,27.419424,21.829834,-8.166832,-11.448752,3.7880747,-5.682012,-10.849972,13.937645,-14.356285,6.157034,0.8177021,3.3184998,13.117475,-16.49231,25.002735,-46.46403,28.485197,-8.835864,0.29546458,5.6224794,-29.505259,-17.549604,62.306137,32.4321,47.96882,3.72669,-5.4755974
28,1.1536881923675537,3.4757256507873535,77.63561248779297,-0.6082881457718429,-3.01993983308834,-120.47730852244679,-4.042729,20.16122,27.834213,22.34438,-8.337776,-11.473745,3.6028128,-5.5024643,-10.330328,14.1697445,-14.349092,6.09994,0.6728778,3.5702322,13.251816,-18.15617,25.43268,-46.669086,26.902332,-9.1500435,0.1770266,5.902945,-31.265957,-17.342524,61.91418,31.13216,48.874992,3.2910235,-5.9228916
29,1.18996262550354,3.5496373176574707,77.61821746826172,-0.6818800765786854,-3.1359939884485257,-121.0252174281453,-3.9459443,20.555767,28.273676,22.863918,-8.518161,-11.483787,3.3949518,-5.3227587,-9.788439,14.422354,-14.348494,6.0484886,0.5324263,3.831336,13.362981,-19.968336,25.911343,-46.88465,25.348534,-9.613483,0.041066054,6.1935062,-33.127426,-17.15267,61.459118,29.838636,49.76748,2.88709,-6.3254566
30,1.240343451499939,3.5988669395446777,77.60649871826172,-0.7529459368942957,-3.2503355949133796,-121.5930410307775,-3.8402493,20.955013,28.734795,23.38723,-8.704557,-11.482623,3.1726403,-5.1416078,-9.227292,14.688952,-14.35127,6.0024695,0.3911987,4.1012635,13.456156,-21.914541,26.439724,-47.112732,23.799534,-10.170501,-0.105087034,6.497633,-35.08155,-16.981962,60.945503,28.533855,50.659916,2.4869063,-6.718187
31,1.2970080375671387,3.657396078109741,77.59103393554688,-0.8173387486193897,-3.3630752429214192,-122.18018458109778,-3.7269557,21.35684,29.222706,23.920061,-8.891299,-11.476979,2.9320023,-4.963065,-8.646797,14.978903,-14.36099,5.960129,0.25548297,4.371222,13.538549,-23.969816,27.01642,-47.325436,22.273977,-10.697967,-0.24185298,6.841356,-37.091396,-16.82869,60.367756,27.242664,51.372177,2.069854,-7.1260386
32,1.3408117294311523,3.7265987396240234,77.5709228515625,-0.8708626377563345,-3.4742897662098087,-122.78596278452571,-3.6068046,21.759094,29.74275,24.467516,-9.071923,-11.474048,2.6680512,-4.791561,-8.046887,15.303219,-14.381941,5.919815,0.13322814,4.6325455,13.617877,-26.11442,27.639431,-47.49551,20.795479,-11.073076,-0.34909737,7.2512035,-39.13178,-16.687462,59.722004,26.001425,51.734234,1.6148438,-7.573311
33,1.3894704580307007,3.788405656814575,77.55352783203125,-0.9154569002995412,-3.5855350089663367,-123.41034375308966,-3.4774787,22.165434,30.30414,25.03135,-9.250351,-11.470486,2.3824704,-4.624168,-7.4286585,15.661119,-14.414152,5.8816586,0.015089331,4.8849835,13.690446,-28.375153,28.311974,-47.629414,19.381456,-11.246668,-0.43829292,7.746808,-41.278374,-16.564907,59.04325,24.845255,51.72283,1.1070999,-8.063205
34,1.4414029121398926,3.855368137359619,77.53206634521484,-0.9523845579334402,-3.6962011565790784,-124.05376066415134,-3.339185,22.576202,30.90129,25.61114,-9.429319,-11.463945,2.0772626,-4.4585776,-6.7920885,16.047958,-14.455656,5.846646,-0.08967438,5.1337776,13.758248,-30.764454,29.03488,-47.75435,18.012094,-11.2903,-0.5134016,8.309237,-43.46635,-16.45368,58.28817,23.731867,51.358807,0.56705755,-8.592431
35,1.507149577140808,3.9157845973968506,77.5103530883789,-0.9754117486675729,-3.802445542144073,-124.71614920320924,-3.1932893,22.980913,31.519686,26.201546,-9.597655,-11.462418,1.7480484,-4.301478,-6.13512,16.467255,-14.507557,5.8144755,-0.18820041,5.371143,13.819448,-33.21637,29.80092,-47.841637,16.67948,-11.261597,-0.5443275,8.910855,-45.697254,-16.353048,57.483402,22.673811,50.793766,0.025663046,-9.161276
36,1.572795033454895,3.9714303016662598,77.49098205566406,-0.978630985305923,-3.900475303257805,-125.39755976254382,-3.042861,23.369606,32.14399,26.79937,-9.745146,-11.473727,1.3904773,-4.1591706,-5.4559255,16.922516,-14.571079,5.7849765,-0.28079867,5.591241,13.876139,-35.65039,30.597538,-47.85159,15.366291,-11.198979,-0.50109714,9.523437,-47.941223,-16.25758,56.63368,21.67202,50.14341,-0.48760435,-9.771633
37,1.6384246349334717,4.021374702453613,77.47083282470703,-0.9635559316818698,-3.9906085745866102,-126.09534097730358,-2.8903615,23.742958,32.76697,27.408072,-9.87291,-11.495928,1.0053902,-4.0300817,-4.7569566,17.415207,-14.645062,5.7542214,-0.37728122,5.7976665,13.9234915,-38.093838,31.41822,-47.75861,14.108633,-11.101787,-0.36516884,10.131361,-50.223972,-16.169155,55.751396,20.738857,49.386047,-0.97673565,-10.454304
38,1.701656699180603,4.066643714904785,77.4499740600586,-0.9319654112949829,-4.073844879428354,-126.81059544238673,-2.7330852,24.10447,33.39835,28.02754,-9.984716,-11.525637,0.595675,-3.9107308,-4.0383644,17.940857,-14.728255,5.723987,-0.47313166,5.992282,13.961485,-40.574905,32.26084,-47.589985,12.913073,-10.942665,-0.15565512,10.752017,-52.54915,-16.087458,54.8283,19.87583,48.4696,-1.4482968,-11.200895
39,1.7653021812438965,4.109737873077393,77.4295654296875,-0.8793524111437937,-4.147231636691796,-127.54845133913558,-2.5687122,24.4491,34.04644,28.653435,-10.077294,-11.56896,0.15913418,-3.80425,-3.2942696,18.494991,-14.822008,5.702473,-0.5600898,6.168162,13.992766,-43.039074,33.119,-47.38775,11.747764,-10.748436,0.09833362,11.407449,-54.883068,-16.00709,53.86098,19.07976,47.501045,-1.8824549,-11.947601
40,1.8322961330413818,4.1472039222717285,77.41048431396484,-0.8002971277606348,-4.207378936029374,-128.31439598543355,-2.3949559,24.77175,34.719658,29.281862,-10.147119,-11.631494,-0.3089573,-3.713933,-2.5186553,19.078632,-14.9279995,5.6981215,-0.6398323,6.3207135,14.014383,-45.473537,33.987408,-47.20496,10.615614,-10.585833,0.36596498,12.1195345,-57.179886,-15.92568,52.85446,18.337557,46.58585,-2.2652671,-12.626985
41,1.902391791343689,4.173705577850342,77.39387512207031,-0.6921401949425795,-4.249557990565684,-129.11073622172248,-2.2122355,25.066925,35.422634,29.906464,-10.190338,-11.714549,-0.813395,-3.6420696,-1.7088586,19.692408,-15.048141,5.7168875,-0.70539826,6.4476724,14.024477,-47.86672,34.858124,-47.01789,9.502429,-10.456976,0.6831921,12.912653,-59.441288,-15.839251,51.769077,17.646624,45.681816,-2.576196,-13.21053
42,1.9735734462738037,4.196089744567871,77.37617492675781,-0.5583794061531239,-4.27585502821952,-129.93445383332838,-2.0243652,25.340628,36.14884,30.539219,-10.211411,-11.814395,-1.3502606,-3.5845227,-0.8681972,20.33539,-15.180547,5.7538357,-0.76024765,6.552761,14.022207,-50.24551,35.726776,-46.815567,8.433441,-10.339536,1.0509467,13.769848,-61.68675,-15.747904,50.614292,17.019032,44.75461,-2.831619,-13.735307
43,2.0412769317626953,4.216408729553223,77.35552978515625,-0.403733536759164,-4.293200017316957,-130.78222611136417,-1.8240945,25.596754,36.893703,31.17875,-10.214934,-11.929535,-1.9063256,-3.5345345,-0.00017724936,20.998034,-15.320061,5.8009806,-0.8098648,6.6384673,14.014146,-52.609245,36.591988,-46.65287,7.4249334,-10.220283,1.3874494,14.652837,-63.91723,-15.6537285,49.46002,16.474043,43.93031,-3.0757525,-14.233562
44,2.1086952686309814,4.226884841918945,77.33598327636719,-0.23315821343641902,-4.308659593072219,-131.651019919811,-1.6056453,25.83983,37.652203,31.825735,-10.205294,-12.059057,-2.4687135,-3.4856682,0.8918625,21.671173,-15.46161,5.850306,-0.8623643,6.70812,14.00704,-54.951534,37.45396,-46.581226,6.488698,-10.083781,1.6110085,15.523938,-66.12093,-15.562109,48.379364,16.01574,43.329063,-3.3534625,-14.737524
45,2.175903797149658,4.22952127456665,77.31330108642578,-0.041790852477953506,-4.318360366766021,-132.54404709569403,-1.3698648,26.064735,38.429237,32.478325,-10.179237,-12.204743,-3.0467863,-3.4402921,1.8133612,22.365255,-15.606437,5.8952,-0.90535915,6.7574625,14.001589,-57.283005,38.311947,-46.60833,5.62646,-9.878074,1.6887193,16.38107,-68.28356,-15.4725275,47.3448,15.623549,43.000866,-3.6794696,-15.238353
46,2.2418463230133057,4.226714134216309,77.29071807861328,0.1707338307600429,-4.319239810226908,-133.4617007593297,-1.1201661,26.270218,39.223503,33.13775,-10.135357,-12.366214,-3.6416817,-3.3992016,2.7643034,23.078384,-15.754761,5.942174,-0.9354569,6.786371,13.996273,-59.627857,39.164837,-46.71949,4.8402953,-9.63887,1.6694883,17.24252,-70.42049,-15.384478,46.33101,15.302145,42.877197,-4.033325,-15.723376
47,2.3104426860809326,4.215600490570068,77.26504516601562,0.39371826812843913,-4.320105978163289,-134.3964890479831,-0.85026395,26.467735,40.0287,33.808052,-10.083893,-12.538436,-4.2293034,-3.353571,3.732489,23.787598,-15.904013,6.0028453,-0.98140466,6.8052425,13.996416,-61.91724,40.00992,-46.890934,4.0949273,-9.422714,1.5934736,18.103006,-72.53799,-15.308161,45.417213,15.060857,42.893173,-4.4064493,-16.220257
48,2.3741555213928223,4.197643756866455,77.23794555664062,0.6165672031300051,-4.329724807488498,-135.34058243905957,-0.5569416,26.666664,40.830376,34.49047,-10.029174,-12.71642,-4.779919,-3.2955372,4.7053347,24.457212,-16.044388,6.0879216,-1.0594797,6.8250895,14.009028,-64.15396,40.848133,-47.13249,3.3872576,-9.336172,1.4979874,18.953644,-74.65969,-15.257038,44.681263,14.922166,42.99803,-4.789211,-16.758486
49,2.4361178874969482,4.169490337371826,77.21109008789062,0.8444284247918693,-4.34827257512947,-136.29912538270875,-0.23340033,26.861538,41.636925,35.18109,-9.971954,-12.898136,-5.2950697,-3.2297316,5.6871834,25.091343,-16.178686,6.2053604,-1.157965,6.8406577,14.037188,-66.364494,41.679287,-47.446583,2.7154546,-9.40282,1.3721458,19.798462,-76.764915,-15.237378,44.124176,14.853521,43.225643,-5.177378,-17.373991
50,2.4987804889678955,4.131103515625,77.18260955810547,1.0805802101616133,-4.371148354004952,-137.2739547546992,0.11641773,27.048235,42.45076,35.878773,-9.908373,-13.08646,-5.7848563,-3.1586473,6.681773,25.701359,-16.309473,6.347929,-1.2651727,6.8484735,14.07947,-68.562096,42.502552,-47.83627,2.0839684,-9.578759,1.1996133,20.638535,-78.84599,-15.2498665,43.710857,14.83949,43.594685,-5.579285,-18.040695
51,2.5559263229370117,4.089473247528076,77.15269470214844,1.3105798722211375,-4.4014304069194905,-138.25281990086333,0.48115328,27.242834,43.25384,36.59565,-9.841968,-13.284841,-6.24094,-3.0721748,7.676171,26.280931,-16.436403,6.50327,-1.4145842,6.8669534,14.129734,-70.68724,43.320774,-48.287315,1.4891471,-9.852077,1.0067366,21.460976,-80.8491,-15.31003,43.468403,14.840505,43.989807,-6.002716,-18.695942
52,2.613344669342041,4.039766788482666,77.12181091308594,1.5204542659312488,-4.442178637329002,-139.22299207755447,0.8500579,27.461304,44.02884,37.34236,-9.775401,-13.496374,-6.6541114,-2.9604797,8.65714,26.820372,-16.558563,6.6588593,-1.6079102,6.906898,14.194595,-72.73843,44.13732,-48.820644,0.92838186,-10.236878,0.82136923,22.251596,-82.86607,-15.427964,43.42223,14.936273,44.369114,-6.451207,-19.278603
53,2.6735358238220215,3.9828531742095947,77.08695220947266,1.7034026686654784,-4.499380499934614,-140.18206136463346,1.2260859,27.712149,44.771263,38.121216,-9.711056,-13.731788,-7.0160346,-2.8182373,9.620005,27.314825,-16.66959,6.809745,-1.8541113,6.9753647,14.280004,-74.71033,44.952835,-49.429592,0.39731187,-10.759706,0.65594995,23.011969,-84.86634,-15.613369,43.6187,15.085958,44.725567,-6.9779687,-19.824741
54,2.7333691120147705,3.915205240249634,77.05032348632812,1.8685571639990477,-4.570341110309316,-141.13649717656298,1.6142,27.985401,45.491394,38.92544,-9.646366,-13.986084,-7.334284,-2.6532516,10.572043,27.772469,-16.774721,6.962659,-2.135939,7.06224,14.386,-76.6228,45.766426,-50.113884,-0.10926524,-11.412422,0.49078438,23.7457,-86.838,-15.866776,44.03429,15.266175,45.102104,-7.56245,-20.348957
55,2.789940595626831,3.8441967964172363,77.0078125,2.02529632651876,-4.64592290126159,-142.08817416822643,2.004617,28.271189,46.192295,39.75708,-9.578526,-14.238746,-7.624511,-2.475992,11.518403,28.20634,-16.882391,7.121642,-2.4491599,7.1606245,14.495715,-78.4676,46.582466,-50.878395,-0.5857469,-12.143321,0.3049163,24.44382,-88.74584,-16.19121,44.600597,15.451093,45.454742,-8.093386,-20.76068
56,2.8401618003845215,3.761939287185669,76.96593475341797,2.198899088785325,-4.70472468168629,-143.02312745792486,2.369478,28.532175,46.87129,40.60409,-9.498891,-14.460191,-7.9249563,-2.3201954,12.45726,28.651829,-17.014174,7.2958617,-2.799428,7.244566,14.581321,-80.24482,47.40899,-51.734783,-1.0294194,-12.904973,0.07910742,25.097767,-90.58631,-16.590595,45.249737,15.640248,45.755646,-8.457905,-20.971037
57,2.886157274246216,3.669870615005493,76.92244720458984,2.3880880602836365,-4.746605549888893,-143.93894900498782,2.7034156,28.773123,47.52551,41.47778,-9.409522,-14.641544,-8.230316,-2.1875055,13.38683,29.100668,-17.173338,7.4877806,-3.1944542,7.3147173,14.640537,-81.958694,48.252716,-52.70299,-1.4290601,-13.733315,-0.20896584,25.74662,-92.355034,-17.068024,45.974815,15.814899,46.01389,-8.610721,-20.94744
58,2.9407711029052734,3.5713932514190674,76.87556457519531,2.5703868888893413,-4.789758448422491,-144.8536593707006,3.0343142,29.029009,48.162262,42.38786,-9.317993,-14.80504,-8.51135,-2.0458648,14.313398,29.527344,-17.342,7.6879587,-3.618162,7.391026,14.696671,-83.6167,49.115154,-53.778183,-1.7959476,-14.640324,-0.5445191,26.379572,-94.06261,-17.623785,46.809017,15.972634,46.24699,-8.61346,-20.741774
59,2.991220474243164,3.467074394226074,76.82539367675781,2.7535095336515445,-4.829347923272894,-145.76996425157623,3.3644211,29.285036,48.787086,43.31343,-9.22075,-14.9599495,-8.788583,-1.8994981,15.241887,29.957205,-17.519493,7.8926682,-4.0581503,7.4644275,14.744931,-85.212166,49.997375,-54.92754,-2.1621184,-15.53633,-0.88707155,26.914335,-95.70374,-18.259066,47.74918,16.11852,46.42217,-8.514716,-20.392397
60,3.040444850921631,3.3638625144958496,76.77178192138672,2.9456786608532384,-4.859642401326969,-146.68911030608723,3.6955364,29.524109,49.426643,44.230312,-9.114113,-15.000033,-9.08301,-1.7538861,16.176615,30.412966,-17.703136,8.099704,-4.501317,7.5264063,14.780148,-86.74558,50.901188,-56.12102,-2.556261,-16.338264,-1.191779,27.270882,-97.27725,-18.975857,48.791252,16.262825,46.509,-8.363919,-19.937164
61,3.0869839191436768,3.250929832458496,76.71878814697266,3.1481451790870225,-4.879626609694443,-147.60465098621012,4.025072,29.748013,50.074554,45.14094,-8.988461,-15.000033,-9.399435,-1.6115055,17.11269,30.907673,-17.896526,8.30272,-4.958104,7.574418,14.798338,-88.210724,51.82994,-57.355618,-2.982749,-17.032803,-1.4461337,27.444649,-98.793564,-19.777828,49.940598,16.415098,46.49693,-8.151255,-19.36816
62,3.132739543914795,3.132565975189209,76.66240692138672,3.3561806466072417,-4.892334795862622,-148.51805117585744,4.353931,29.965021,50.719513,46.055748,-8.848417,-15.000033,-9.725,-1.4685111,18.049574,31.423561,-18.09784,8.504918,-5.4312186,7.6127024,14.801899,-89.61682,52.78591,-58.648865,-3.4292698,-17.663044,-1.6679837,27.474384,-100.259285,-20.665464,51.201458,16.562138,46.401524,-7.8599277,-18.671587
63,3.1753041744232178,3.007460832595825,76.60334014892578,3.5682939626117953,-4.89822747364057,-149.44534462426452,4.6893272,30.172052,51.35292,46.967567,-8.712955,-15.000033,-10.056952,-1.3165016,18.999296,31.949434,-18.30413,8.717289,-5.8974233,7.642655,14.794942,-90.98331,53.768024,-59.999966,-3.8982358,-18.226118,-1.8563256,27.346159,-101.6654,-21.634373,52.566578,16.680574,46.23054,-7.5300364,-17.87494
64,3.2172701358795166,2.8775596618652344,76.54158782958984,3.783081863927072,-4.8977544316929595,-150.40188450940224,5.0376897,30.363504,51.96493,47.865685,-8.598719,-15.000033,-10.390448,-1.1478751,19.973288,32.46976,-18.510185,8.950875,-6.333879,7.6661606,14.781485,-92.32978,54.773357,-61.408512,-4.3892527,-18.719461,-2.0101767,27.045914,-103.00425,-22.676907,54.031452,16.753218,45.992046,-7.2023044,-17.005163
65,3.2612900733947754,2.7467055320739746,76.47750091552734,3.9988103301022466,-4.888756942757188,-151.3896437216658,5.3956666,30.542126,52.55234,48.75308,-8.506031,-15.000033,-10.72994,-0.9576052,20.973557,32.990456,-18.717928,9.206224,-6.7406907,7.6840143,14.757296,-93.67376,55.801575,-62.8901,-4.8934402,-19.18154,-2.1259964,26.567524,-104.28242,-23.789368,55.6099,16.802242,45.73572,-6.891214,-16.063124
66,3.2997310161590576,2.605461597442627,76.41273498535156,4.2163714409338,-4.871131992435763,-152.4011441491898,5.760263,30.706251,53.118694,49.62888,-8.425046,-15.000033,-11.074291,-0.75112396,21.993841,33.51464,-18.928745,9.47871,-7.130069,7.694292,14.720329,-95.01456,56.851887,-64.45188,-5.4085493,-19.601608,-2.2007887,25.920397,-105.51515,-24.969841,57.304554,16.833975,45.439014,-6.5776563,-15.035645
67,3.3337018489837646,2.4578771591186523,76.34952545166016,4.437660640327004,-4.848555587899264,-153.43796702727653,6.1355863,30.846312,53.66095,50.48509,-8.361837,-15.000033,-11.415412,-0.53409386,23.033222,34.034267,-19.142958,9.7712555,-7.4970713,7.6958213,14.678957,-96.333305,57.918526,-66.07373,-5.940869,-19.894688,-2.2384007,25.112928,-106.70672,-26.211355,59.088886,16.811962,45.000137,-6.2537093,-13.929047
68,3.3691954612731934,2.3056018352508545,76.28221130371094,4.664400618653898,-4.824267294750305,-154.5018058826508,6.526388,30.9525,54.17666,51.31228,-8.321737,-15.000033,-11.7451,-0.31281456,24.090868,34.54045,-19.360525,10.086597,-7.8357635,7.688356,14.641013,-97.606544,58.99321,-67.729866,-6.495779,-19.973192,-2.2446055,24.153414,-107.86353,-27.503696,60.93689,16.706442,44.316154,-5.9164042,-12.747967
69,3.4044463634490967,2.1476244926452637,76.21202087402344,4.900177912314517,-4.799531489733499,-155.60175692866406,6.9383664,31.023726,54.66953,52.114346,-8.306538,-15.000033,-12.059492,-0.09010234,25.174328,35.02929,-19.584146,10.430519,-8.139586,7.67018,14.606028,-98.84954,60.07067,-69.424255,-7.064994,-19.816067,-2.161595,22.98369,-108.98854,-28.840332,62.868553,16.534067,43.303005,-5.5320272,-11.445352
70,3.43057918548584,1.984305500984192,76.14012145996094,5.14250812778847,-4.771520957589077,-156.73413472291472,7.3648686,31.063606,55.136646,52.893223,-8.312826,-15.000033,-12.364131,0.13759299,26.281096,35.507683,-19.814554,10.799747,-8.412676,7.643647,14.569565,-100.07208,61.148193,-71.16987,-7.6399546,-19.461786,-2.0143929,21.618763,-110.092964,-30.217697,64.89527,16.31675,42.02818,-5.132535,-10.030835
71,3.4635701179504395,1.8099976778030396,76.06446838378906,5.3840386874209765,-4.737393186627374,-157.8815513685773,7.790531,31.07183,55.56575,53.639057,-8.338425,-15.000033,-12.663818,0.37348315,27.395203,35.97953,-20.046059,11.182913,-8.664067,7.615091,14.533941,-101.25703,62.221626,-72.96135,-8.205297,-18.9277,-1.9372623,20.174406,-111.19658,-31.628862,66.98269,16.0367,40.620285,-4.8102875,-8.595278
72,3.49914813041687,1.6342415809631348,75.9853515625,5.618084517352931,-4.694857790045185,-159.02650866902113,8.199777,31.049143,55.945347,54.344326,-8.382783,-15.000033,-12.963457,0.6203599,28.500845,36.449066,-20.272856,11.568945,-8.902947,7.591112,14.500634,-102.394745,63.286564,-74.79672,-8.749059,-18.244959,-2.0629451,18.767977,-112.31829,-33.064445,69.09749,15.679334,39.211426,-4.6465974,-7.2341337
73,3.5286717414855957,1.4504724740982056,75.90522766113281,5.844283853441706,-4.64198500160818,-160.16758225393832,8.586197,30.995844,56.27122,55.006752,-8.44284,-14.985115,-13.267046,0.87640613,29.596348,36.91713,-20.49653,11.957514,-9.124541,7.5739236,14.466062,-103.567474,64.34143,-76.726364,-9.26263,-17.514528,-2.467897,17.361626,-113.4672,-34.517075,71.27098,15.264193,37.815594,-4.674771,-5.8692145
74,3.559016704559326,1.2668802738189697,75.81892395019531,6.066735865467077,-4.5794966040181215,-161.31167477954895,8.964479,30.915804,56.587143,55.629944,-8.521579,-14.824719,-13.571669,1.1383979,30.688946,37.37896,-20.717283,12.354869,-9.342601,7.550631,14.438737,-104.5459,65.37909,-78.61899,-9.755218,-16.547544,-3.0797553,15.929928,-114.645004,-35.981792,73.50214,14.789596,36.372723,-4.8497562,-4.4899035
75,3.585359811782837,1.0759212970733643,75.73321533203125,6.282037309524144,-4.511579885669987,-162.45712202552482,9.333675,30.808218,56.865707,56.21762,-8.622777,-14.663154,-13.873028,1.4117225,31.777843,37.83948,-20.933647,12.757336,-9.533863,7.544817,14.406065,-105.599915,66.40098,-80.615685,-10.196375,-15.487499,-3.798988,14.577806,-115.85469,-37.45063,75.76771,14.262951,34.913433,-5.121385,-3.2980642
76,3.6096367835998535,0.8787923455238342,75.64161682128906,6.488563501648097,-4.441858809102664,-163.60088703970789,9.699635,30.674227,57.117073,56.772026,-8.750352,-14.505202,-14.167519,1.69939,32.862095,38.302937,-21.143114,13.162558,-9.722119,7.5433955,14.377629,-106.48506,67.399536,-82.58471,-10.574501,-14.09074,-4.5333104,13.439819,-117.09375,-38.917076,77.986145,13.655354,33.455563,-5.4252806,-2.4897194
77,3.63236665725708,0.6770110130310059,75.54816436767578,6.684184644506198,-4.372391115012289,-164.7478691600581,10.065362,30.518202,57.342503,57.297062,-8.909497,-14.340569,-14.451916,2.0080318,33.946484,38.768673,-21.344463,13.573786,-9.898783,7.55434,14.346325,-107.26685,68.37515,-84.533005,-10.949041,-12.328834,-5.2293615,12.463167,-118.3625,-40.37829,80.22211,12.965177,31.988888,-5.7492685,-2.1918216
78,3.651426076889038,0.47600582242012024,75.44891357421875,6.870407847507253,-4.301166159741175,-165.89793032336613,10.4253435,30.338015,57.53591,57.790623,-9.094904,-14.171623,-14.728281,2.3328035,35.03009,39.234264,-21.53902,13.99123,-10.062824,7.5754232,14.311478,-107.9355,69.328476,-86.461975,-11.295866,-10.253415,-5.9547467,11.621172,-119.667816,-41.829834,82.4909,12.208446,30.502281,-6.1005754,-2.2772558
79,3.6667470932006836,0.26168084144592285,75.34803771972656,7.051264225204128,-4.225896994550083,-167.0403000416633,10.775773,30.1241,57.69897,58.24147,-9.301815,-14.019565,-15.001955,2.6631806,36.103058,39.70412,-21.72944,14.408097,-10.2159815,7.609104,14.275075,-108.46636,70.257614,-88.39664,-11.46619,-7.9870715,-6.7793674,11.065077,-121.01311,-43.25965,84.67626,11.420572,29.016895,-6.4447308,-2.5591462
80,3.683704137802124,0.04394163936376572,75.24589538574219,7.230990362975184,-4.144418430653565,-168.1644731936825,11.113005,29.86706,57.833496,58.63866,-9.525555,-13.905493,-15.277842,2.9895983,37.155872,40.182323,-21.917917,14.817456,-10.362523,7.6570992,14.238268,-108.84665,71.158134,-90.37507,-11.305423,-5.6520114,-7.757787,10.952345,-122.3878,-44.65194,86.64756,10.6472,27.554447,-6.757209,-2.8473995
81,3.691206216812134,-0.17156356573104858,75.1404037475586,7.355473677432754,-4.078856726214836,-169.25096651541622,11.438436,29.644629,57.900112,59.00918,-9.768978,-13.869087,-15.505983,3.3728607,38.136524,40.63954,-22.082184,15.000033,-10.530475,7.7681255,14.22001,-109.07089,72.0285,-92.43515,-10.8339815,-3.0398943,-8.976296,11.489955,-123.760155,-45.997185,88.39897,9.917197,26.08239,-7.0107894,-3.1063566
82,3.695146083831787,-0.3923805058002472,75.03268432617188,7.466916067214764,-4.012505859396523,-170.31795688385097,11.753482,29.39759,57.92793,59.330948,-10.028596,-13.88159,-15.719551,3.7769938,39.08547,41.104156,-22.239632,15.000033,-10.704175,7.9006987,14.194024,-109.1381,72.86895,-94.55029,-10.099178,-0.13549471,-10.328754,12.583241,-125.12133,-47.29078,89.973335,9.227395,24.598103,-7.22096,-3.427794
83,3.697105884552002,-0.6128925085067749,74.92257690429688,7.577198202744943,-3.949999370793395,-171.36872955477494,12.061491,29.11622,57.925877,59.612503,-10.312189,-13.896042,-15.925216,4.176156,40.01613,41.578854,-22.402273,15.000033,-10.884254,8.041423,14.177899,-109.02576,73.67768,-96.64816,-8.98306,2.643968,-11.595199,13.907793,-126.49815,-48.52459,91.31867,8.579076,23.174604,-7.4366293,-3.8111544
84,3.698474884033203,-0.8379915952682495,74.81034088134766,7.685857731867665,-3.9017150720587863,-172.4027664151746,12.366668,28.810415,57.89259,59.869835,-10.627367,-13.870531,-16.11164,4.5701833,40.928978,42.064228,-22.578527,15.000033,-11.076405,8.18405,14.195878,-108.70751,74.45315,-98.65265,-7.360717,4.8496594,-12.603894,15.0956135,-127.91024,-49.688866,92.374725,7.9775553,21.882496,-7.7077785,-4.257888
85,3.697636365890503,-1.0642064809799194,74.69352722167969,7.7956361828583525,-3.8663758374945427,-173.4206999013716,12.672452,28.475336,57.834145,60.097153,-10.980237,-13.803461,-16.282227,4.957514,41.825516,42.562157,-22.768875,15.000033,-11.276873,8.333148,14.236992,-108.10814,75.20198,-100.54505,-5.206571,6.29061,-13.39018,16.203554,-129.31538,-50.77837,93.070404,7.462607,20.747322,-8.076728,-4.728172
86,3.6927168369293213,-1.2857725620269775,74.57302856445312,7.906192182769199,-3.8392525790909158,-174.42324132510728,12.975194,28.109404,57.74781,60.290493,-11.363927,-13.71584,-16.44279,5.337398,42.70636,43.071445,-22.968351,15.000033,-11.488083,8.489246,14.290355,-107.21603,75.93471,-102.32569,-2.577957,7.219519,-14.042813,17.345282,-130.68933,-51.792347,93.436714,7.0408244,19.728237,-8.507789,-5.2352705
87,3.6876699924468994,-1.5112146139144897,74.4500732421875,8.012725671352687,-3.8262205320596046,-175.41007699483967,13.271155,27.725695,57.625164,60.46437,-11.772355,-13.59121,-16.582567,5.716981,43.569336,43.586067,-23.175833,15.000033,-11.723417,8.640799,14.38012,-106.0906,76.65769,-103.93712,0.52273047,7.83099,-14.507572,18.21417,-132.07051,-52.729473,93.559906,6.6702423,18.794691,-8.933245,-5.861232
88,3.6808478832244873,-1.7375648021697998,74.32594299316406,8.129223930620348,-3.819803352757789,-176.359537374432,13.530211,27.313564,57.44759,60.62567,-12.194147,-13.40324,-16.71388,6.069681,44.407032,44.110825,-23.39997,15.000033,-12.008314,8.762027,14.508711,-104.788704,77.37292,-105.31747,4.0982947,8.317471,-14.723464,18.504517,-133.50504,-53.586857,93.5359,6.3069715,17.918573,-9.282894,-6.687445
89,3.676863431930542,-1.961047887802124,74.19869232177734,8.253129739426754,-3.825229477622605,-177.2743672913485,13.759264,26.87609,57.21476,60.774643,-12.63448,-13.139433,-16.829657,6.399969,45.220573,44.642483,-23.640823,15.000033,-12.344081,8.848972,14.680629,-103.28397,78.08655,-106.3576,8.245981,8.585474,-14.604928,17.97742,-134.97847,-54.36508,93.3292,5.9540505,17.135788,-9.519767,-7.773304
90,3.6745474338531494,-2.1900172233581543,74.07141876220703,8.376737855840013,-3.8465264259731957,-178.1675933226387,13.973707,26.421545,56.935215,60.91084,-13.097203,-12.818987,-16.924585,6.7243414,46.014557,45.179398,-23.892376,15.000033,-12.714119,8.9200325,14.889835,-101.510315,78.81003,-107.079605,12.913482,8.578151,-14.20796,16.843842,-136.45128,-55.066933,92.89832,5.6428003,16.449032,-9.686029,-9.061929
91,3.6723668575286865,-2.4179887771606445,73.93939208984375,8.503920126432096,-3.8766467969847866,-179.03591193323453,14.161948,25.949024,56.60766,61.03794,-13.56865,-12.461718,-17.009142,7.034162,46.789257,45.719616,-24.150131,15.000033,-13.119836,8.979708,15.127485,-99.488396,79.55,-107.64884,17.903933,8.541067,-13.681665,15.4837475,-137.93356,-55.69211,92.3233,5.3668017,15.778035,-9.827565,-10.4604435
92,3.677119255065918,-2.6415035724639893,73.80413055419922,8.638538890264243,-3.9081451370555,-179.8760168736135,14.312664,25.45787,56.23108,61.16086,-14.036004,-12.087608,-17.092398,7.3249917,47.544216,46.26317,-24.410194,15.000033,-13.5671215,9.029527,15.387102,-97.24426,80.307205,-108.23862,23.055838,8.709045,-13.18583,14.279153,-139.43607,-56.23864,91.67891,5.115199,15.038341,-9.988833,-11.879295
93,3.676711320877075,-2.8682861328125,73.66825866699219,8.787603115025753,-3.945535761406356,179.31352567678186,14.428197,24.937292,55.79963,61.27697,-14.504241,-11.683556,-17.173737,7.5916233,48.28074,46.82147,-24.676302,15.000033,-14.084617,9.060651,15.688775,-94.82512,81.06926,-108.940796,28.566086,9.176004,-12.709937,13.300047,-140.96448,-56.702007,90.916855,4.867364,14.252951,-10.168051,-13.317913
94,3.6834635734558105,-3.0933103561401367,73.53327178955078,8.94800127270413,-3.9903895085929117,178.53030785915809,14.514491,24.390554,55.316486,61.38505,-14.977142,-11.244795,-17.250473,7.836335,48.99951,47.38891,-24.94764,15.000033,-14.671674,9.061112,16.019873,-92.19655,81.83185,-109.66777,34.47097,9.778601,-12.1808605,12.367744,-142.46547,-57.0868,89.97304,4.641592,13.442191,-10.344493,-14.81979
95,3.694431781768799,-3.314777374267578,73.39189910888672,9.106808565739374,-4.030920538550134,177.77240176445235,14.564855,23.839647,54.7952,61.49444,-15.441576,-10.804395,-17.329174,8.071233,49.698196,47.946613,-25.21671,15.000033,-15.294492,9.03475,16.333027,-89.2276,82.61696,-110.277664,40.38384,10.363506,-11.676593,11.480416,-143.87614,-57.408276,88.90767,4.4687476,12.509619,-10.529114,-16.36452
96,3.70745587348938,-3.53893780708313,73.25492858886719,9.25106439946191,-4.055629550506493,177.0380518755815,14.573445,23.305674,54.25024,61.61251,-15.883918,-10.395056,-17.417292,8.306072,50.37491,48.476658,-25.47741,15.000033,-15.917211,8.986776,16.590857,-85.78816,83.469376,-110.619514,45.897877,10.783523,-11.281401,10.626015,-145.16821,-57.688854,87.80642,4.3667293,11.367479,-10.72854,-17.93477
97,3.7236828804016113,-3.757946252822876,73.11563110351562,9.3811526193922,-4.0657858749730496,176.33052020782878,14.538269,22.787842,53.681812,61.741047,-16.293692,-10.025754,-17.515106,8.54064,51.028282,48.97953,-25.733875,15.000033,-16.575418,8.91036,16.816301,-81.71927,84.42999,-110.69448,51.042854,10.966932,-11.077825,9.739874,-146.35788,-57.942383,86.648285,4.3087044,9.938499,-10.946637,-19.543882
98,3.7447195053100586,-3.9754438400268555,72.97576141357422,9.50291383453218,-4.066204523681869,175.64939059283756,14.463903,22.276144,53.085327,61.87652,-16.681112,-9.678996,-17.62177,8.771364,51.660145,49.46666,-25.989117,15.000033,-17.286335,8.79508,17.030998,-77.045235,85.51492,-110.47913,55.97514,10.984725,-11.002984,8.83402,-147.4538,-58.180634,85.38247,4.267501,8.284009,-11.162974,-21.202318
99,3.761456251144409,-4.191797733306885,72.8401870727539,9.610511485182572,-4.051442324153079,174.9879826259036,14.353582,21.77777,52.46852,62.018017,-17.061714,-9.346751,-17.738087,9.002822,52.2724,49.926167,-26.22953,15.000033,-17.966017,8.651537,17.199198,-71.92296,86.71597,-109.77441,60.443996,10.92849,-10.932118,7.990154,-148.444,-58.430878,84.08522,4.259244,6.526016,-11.348807,-22.887123
100,3.780776262283325,-4.410252571105957,72.7052001953125,9.697145334657813,-4.0163759807283705,174.33949540791556,14.209423,21.301445,51.838074,62.167007,-17.452412,-9.0213995,-17.866001,9.240509,52.866528,50.349186,-26.44285,15.000033,-18.513443,8.509793,17.284504,-66.474915,87.9824,-108.32615,64.18368,10.929871,-10.744912,7.2864523,-149.3314,-58.729317,82.86454,4.289845,4.785383,-11.483252,-24.571928
101,3.7980425357818604,-4.629583358764648,72.57557678222656,9.756638272626555,-3.949672910250727,173.69163567387213,14.019619,20.857422,51.19993,62.33777,-17.86268,-8.696846,-18.016909,9.499013,53.45041,50.73052,-26.621967,15.000033,-18.8709,8.396417,17.26302,-60.58959,89.229645,-105.84721,67.09966,11.190001,-10.356644,6.644381,-150.15591,-59.108482,81.818504,4.3461833,3.11527,-11.576251,-26.283916
102,3.816879987716675,-4.847843647003174,72.44622039794922,9.790613232480872,-3.8578246770204117,173.051660169457,13.786238,20.437717,50.549595,62.52536,-18.281965,-8.3785,-18.186823,9.772375,54.019688,51.075146,-26.773344,15.000033,-19.085505,8.323233,17.16508,-53.872925,90.363205,-102.130554,69.40857,11.658623,-9.86182,6.051066,-150.92776,-59.58098,80.907196,4.37248,1.441278,-11.631297,-28.02139
103,3.833801746368408,-5.066751003265381,72.31939697265625,9.811861896951603,-3.761848605363712,172.44220216366443,13.532493,20.022734,49.879204,62.700787,-18.696121,-8.075621,-18.353237,10.033531,54.559517,51.389175,-26.908733,15.000033,-19.222122,8.284102,17.028585,-46.081287,91.30927,-97.11608,71.29771,12.089341,-9.40054,5.694479,-151.64531,-60.144108,80.05197,4.3251896,-0.26134974,-11.626109,-29.709328
104,3.8496360778808594,-5.287084102630615,72.19975280761719,9.831663288013434,-3.68324222255221,171.88552720732645,13.28283,19.593557,49.180843,62.835846,-19.09122,-7.7972555,-18.493353,10.254545,55.05744,51.677803,-27.041473,15.000033,-19.336485,8.262709,16.89906,-37.17757,92.03925,-90.94969,72.88715,12.205976,-9.100572,5.7620797,-152.27219,-60.791336,79.141685,4.179968,-2.0428774,-11.540054,-31.270565
105,3.858731985092163,-5.506802082061768,72.08475494384766,9.85414601924296,-3.6148088533945835,171.3612808097653,13.029735,19.142921,48.45252,62.93625,-19.475323,-7.532858,-18.613096,10.447564,55.533764,51.942116,-27.166859,15.000033,-19.424587,8.239744,16.782825,-27.176651,92.56399,-83.76414,74.12801,11.819495,-9.008808,6.5235906,-152.83171,-61.52387,78.170906,3.955303,-3.9027119,-11.370448,-32.671524
106,3.862856388092041,-5.723495006561279,71.97957611083984,9.873690234421314,-3.55038565751232,170.86581927571072,12.767005,18.680899,47.699852,63.01278,-19.851892,-7.281607,-18.722218,10.619276,55.988724,52.180668,-27.282066,15.000033,-19.463354,8.203059,16.670738,-16.230852,92.89797,-75.59752,74.865364,11.107256,-9.049401,7.816795,-153.31923,-62.352303,77.15461,3.6700556,-5.8156233,-11.132693,-33.949863
107,3.8616559505462646,-5.932105541229248,71.88507843017578,9.888589695953124,-3.512471803313037,170.44624287887248,12.520073,18.215324,46.926266,63.048798,-20.202585,-7.0671077,-18.80037,10.742107,56.375725,52.395863,-27.39577,15.000033,-19.482954,8.128339,16.574123,-4.5900984,93.04693,-66.5465,75.048805,10.342298,-9.158193,9.179809,-153.70424,-63.289368,76.04426,3.3158655,-7.7395287,-10.836876,-35.13229
108,3.8576812744140625,-6.136064529418945,71.79830169677734,9.90189677142322,-3.5237435086901057,170.14969727888504,12.315517,17.754503,46.13566,63.02543,-20.508232,-6.912872,-18.828947,10.787285,56.64947,52.592068,-27.518545,15.000033,-19.49734,7.995865,16.496906,7.4078503,93.01054,-56.800014,74.65173,9.792658,-9.255897,10.143185,-153.9594,-64.351234,74.808975,2.8847497,-9.632564,-10.492592,-36.244297
109,3.84436297416687,-6.334761619567871,71.72371673583984,9.916677441087336,-3.595129035069871,169.98099570909466,12.15609,17.287552,45.303627,62.936493,-20.76089,-6.811168,-18.797142,10.745666,56.80499,52.77069,-27.654358,15.000033,-19.464315,7.8010044,16.421572,19.431461,92.780655,-46.63014,73.59693,9.521118,-9.345773,10.561428,-154.09108,-65.55866,73.493866,2.398391,-11.546714,-10.0920105,-37.264885
110,3.8294434547424316,-6.521020889282227,71.65735626220703,9.933709031268862,-3.7135588869245124,169.91710918566287,12.03156,16.815079,44.437706,62.79298,-20.972511,-6.7539043,-18.718487,10.634566,56.8639,52.931644,-27.795563,15.000033,-19.323917,7.55553,16.324362,31.207457,92.34704,-36.418907,71.90665,9.38081,-9.459313,10.669174,-154.11182,-66.93182,72.14821,1.8562624,-13.479606,-9.641016,-38.178684
111,3.8120315074920654,-6.6975250244140625,71.60417175292969,9.9412088141235,-3.86571780792511,169.96350556905227,11.9477215,16.362967,43.58844,62.598843,-21.153172,-6.7634277,-18.605284,10.457944,56.822548,53.06177,-27.938494,15.000033,-19.055723,7.2749953,16.192966,42.351284,91.712006,-26.657122,69.76192,9.31567,-9.554958,10.562925,-154.0103,-68.48397,70.767296,1.2213799,-15.304027,-9.174261,-39.02316
112,3.7905170917510986,-6.868471145629883,71.56358337402344,9.932608006629447,-4.037797118668945,170.1254152903728,11.908353,15.957637,42.80591,62.357296,-21.312943,-6.862234,-18.471775,10.219368,56.67673,53.14796,-28.0788,15.000033,-18.65158,6.9826064,16.020277,52.431225,90.89377,-17.878117,67.39007,9.27003,-9.593466,10.349739,-153.77278,-70.21932,69.33718,0.4483109,-16.892714,-8.726852,-39.841007
113,3.769890546798706,-7.03135347366333,71.53419494628906,9.90530005352989,-4.233110030224173,170.40475543277157,11.92867,15.592539,42.092724,62.041836,-21.434647,-7.11407,-18.31415,9.919296,56.423676,53.195744,-28.220697,15.000033,-18.114481,6.702361,15.811072,60.990158,89.92118,-10.553796,64.92012,9.254144,-9.557825,10.014913,-153.38857,-72.130005,67.83189,-0.49151367,-18.22755,-8.304921,-40.648956
114,3.7502191066741943,-7.184407711029053,71.5147933959961,9.862071202707329,-4.454942776660808,170.79922440436363,11.999667,15.260148,41.424942,61.658142,-21.520666,-7.4868245,-18.125643,9.554925,56.06694,53.20469,-28.364056,15.000033,-17.4621,6.460337,15.568884,67.69437,88.82369,-4.9732,62.45647,9.271887,-9.483534,9.548089,-152.86365,-74.19672,66.26422,-1.600203,-19.36252,-7.8958364,-41.43104
115,3.7281532287597656,-7.325760841369629,71.50775909423828,9.800318619931899,-4.6890311392715525,171.30829977549772,12.087085,14.985359,40.812744,61.255447,-21.607878,-7.859233,-17.91755,9.128861,55.60868,53.158142,-28.49606,15.000033,-16.736568,6.2769604,15.298093,72.493935,87.63085,-1.1874238,60.18672,9.271611,-9.40565,9.078138,-152.20468,-76.38836,64.64855,-2.8712873,-20.275038,-7.5063696,-42.187553
116,3.7110671997070312,-7.4591217041015625,71.51551055908203,9.713825527604575,-4.92136847458386,171.93134896215892,12.155751,14.792442,40.265255,60.88498,-21.733154,-8.110247,-17.698477,8.64546,55.050957,53.03846,-28.602224,15.000033,-15.97799,6.161626,15.002984,75.55804,86.36203,0.97347,58.237347,9.207557,-9.355667,8.72497,-151.41362,-78.667206,62.99255,-4.2779765,-20.946032,-7.1438913,-42.919426
117,3.693387269973755,-7.583968162536621,71.53784942626953,9.603466568326704,-5.1438594666083794,172.65566747902,12.211162,14.682997,39.806698,60.54909,-21.911253,-8.214644,-17.473757,8.106676,54.41001,52.84686,-28.684753,15.000033,-15.205216,6.1127086,14.696845,77.181,85.02591,1.7710508,56.611458,9.060631,-9.337288,8.550952,-150.46931,-80.98895,61.27772,-5.8001013,-21.309278,-6.8122807,-43.703655
118,3.679556369781494,-7.707544326782227,71.57523345947266,9.469058990620839,-5.364404546706709,173.48619739435065,12.2652025,14.645996,39.42328,60.22452,-22.120499,-8.233664,-17.23405,7.511278,53.678795,52.59279,-28.747578,15.000033,-14.437146,6.1250424,14.387837,77.6405,83.63429,1.5005206,55.251442,8.871707,-9.332143,8.493898,-149.34447,-83.291,59.439568,-7.388463,-21.399406,-6.5088735,-44.53249
119,3.6687822341918945,-7.82157564163208,71.62447357177734,9.307503314051473,-5.592666276239867,174.45010167639325,12.291326,14.6876,39.06531,59.927326,-22.343151,-8.176441,-16.964241,6.8521547,52.82571,52.267143,-28.790335,15.000033,-13.701834,6.1982565,14.059265,77.19743,82.19802,0.49229163,54.13414,8.678166,-9.337483,8.463985,-148.0409,-85.47907,57.443703,-8.930975,-21.36561,-6.2315936,-45.276115
120,3.6626498699188232,-7.920555591583252,71.68994140625,9.115165577819534,-5.83818793325455,175.57499309100854,12.264174,14.812899,38.683514,59.67213,-22.561003,-8.053128,-16.648283,6.120285,51.818867,51.859898,-28.810297,15.000033,-13.031142,6.3340425,13.686004,76.10407,80.720985,-0.9420858,53.21908,8.507608,-9.35081,8.361629,-146.59427,-87.420204,55.29954,-10.285105,-21.374424,-5.9773636,-45.79841
121,3.654630184173584,-8.012676239013672,71.7706069946289,8.887666438123864,-6.095384024738069,176.85668091534794,12.181682,15.035189,38.29464,59.479782,-22.789122,-7.8299174,-16.284575,5.3140182,50.663315,51.377125,-28.818731,15.000033,-12.441959,6.542188,13.245399,74.59772,79.17898,-2.5999124,52.425415,8.360294,-9.346691,8.151161,-145.07796,-88.98958,53.09587,-11.340451,-21.516024,-5.7559643,-45.9925
122,3.6503407955169678,-8.091302871704102,71.86569213867188,8.624220062236718,-6.359417241148635,178.2861287752181,12.055402,15.347931,37.911297,59.33721,-23.028934,-7.5141487,-15.8693495,4.436553,49.369133,50.81998,-28.81503,15.000033,-11.946828,6.81873,12.737387,72.841255,77.54731,-4.3619375,51.71683,8.210321,-9.33306,7.861583,-143.55551,-90.13616,50.918728,-12.07561,-21.746008,-5.5682445,-45.948524
123,3.643463134765625,-8.158512115478516,71.97639465332031,8.323892821832327,-6.641044847214706,179.8856645102216,11.877921,15.727377,37.476116,59.21255,-23.24604,-7.178806,-15.380099,3.4910848,47.907547,50.179745,-28.78566,15.000033,-11.555579,7.1384077,12.177914,70.914894,75.83514,-6.086739,51.126167,8.047809,-9.360043,7.493962,-142.0603,-90.90909,48.78496,-12.544545,-22.012466,-5.3962083,-45.82395
124,3.637328624725342,-8.211648941040039,72.10357666015625,7.984708523086214,-6.950899344104891,-178.32041931520496,11.642811,16.148043,36.931656,59.070934,-23.405075,-6.8967752,-14.790792,2.4759738,46.247753,49.443623,-28.716125,15.000033,-11.256383,7.470263,11.582803,68.89096,74.082436,-7.6306734,50.672874,7.8627257,-9.474293,7.0451555,-140.56708,-91.41306,46.65601,-12.829947,-22.247618,-5.220713,-45.77828
125,3.6172304153442383,-8.262755393981934,72.2503662109375,7.596225743768776,-7.2892560164571965,-176.31088258274195,11.350815,16.615742,36.26964,58.912537,-23.492704,-6.6709304,-14.069291,1.3777083,44.38345,48.60131,-28.62494,15.000033,-11.0221,7.8089504,10.925309,66.83814,72.3026,-8.841936,50.32268,7.608944,-9.717644,6.3926163,-139.00177,-91.75876,44.50505,-12.994188,-22.457859,-5.036342,-45.812073
126,3.592841386795044,-8.297103881835938,72.41342163085938,7.1549041349586595,-7.646559159910875,-174.0983278649706,11.004115,17.137945,35.511642,58.75085,-23.528448,-6.469139,-13.211887,0.20128581,42.318424,47.660492,-28.518757,15.000033,-10.831721,8.141324,10.219328,64.83452,70.5128,-9.669118,50.0107,7.3109026,-10.049702,5.575458,-137.31335,-92.01802,42.265965,-13.086379,-22.64137,-4.854473,-45.855705
127,3.5574190616607666,-8.320364952087402,72.5940933227539,6.668431445920964,-8.020254019439406,-171.70579783356726,10.599933,17.688734,34.645008,58.568035,-23.526365,-6.311497,-12.227598,-1.0191067,40.035095,46.640324,-28.373486,15.000033,-10.677418,8.4304495,9.528612,62.891922,68.78778,-10.207089,49.727615,7.0542145,-10.3995495,4.822627,-135.47897,-92.21035,39.819122,-13.161571,-22.728367,-4.6826386,-45.959457
128,3.50943660736084,-8.338950157165527,72.78710174560547,6.144287760054244,-8.408211036770314,-169.15429980032835,10.135222,18.241587,33.656136,58.34831,-23.50153,-6.2172875,-11.126677,-2.2522724,37.515244,45.559254,-28.163223,15.000033,-10.539433,8.646737,8.902271,60.96015,67.22959,-10.627778,49.486816,6.9082313,-10.701862,4.351015,-133.48134,-92.33589,37.065647,-13.2637615,-22.662914,-4.530748,-46.167965
129,3.4549691677093506,-8.345602035522461,72.98497009277344,5.572643810644182,-8.813290644562834,-166.40825046313714,9.618346,18.809774,32.55839,58.094418,-23.462019,-6.1649003,-9.869989,-3.5088851,34.71128,44.404842,-27.907867,15.000033,-10.415522,8.793964,8.294492,59.023533,65.89695,-11.002276,49.302486,6.8482604,-10.97181,4.2055945,-131.26462,-92.41261,33.996258,-13.421439,-22.435432,-4.389436,-46.488483
130,3.385082721710205,-8.354496002197266,73.19384765625,4.944357974285893,-9.228799380272608,-163.46031403999737,9.047955,19.394716,31.341427,57.809673,-23.396898,-6.152813,-8.423343,-4.7883,31.62201,43.17048,-27.619253,15.000033,-10.282366,8.881205,7.6800666,57.04987,64.80667,-11.307874,49.153744,6.8226953,-11.236292,4.2537994,-128.80267,-92.452324,30.62834,-13.628544,-22.084747,-4.2633114,-46.89117
131,3.31071400642395,-8.356263160705566,73.4056625366211,4.271304932286089,-9.643005898158336,-160.37461386615246,8.417255,19.953459,29.969618,57.47778,-23.298903,-6.2301226,-6.8176994,-6.0304704,28.318739,41.90064,-27.27856,15.000033,-10.086805,8.888275,7.1338725,54.939182,63.994408,-11.608556,49.014088,6.854783,-11.450387,4.442264,-126.16598,-92.43223,26.949795,-13.871146,-21.633772,-4.1844087,-47.362164
132,3.2263436317443848,-8.362261772155762,73.61817169189453,3.57054712382484,-10.04178198656424,-157.21742889672737,7.7202907,20.439915,28.411695,57.081596,-23.161306,-6.445047,-5.1033654,-7.172614,24.883562,40.635654,-26.852493,15.000033,-9.771058,8.793049,6.720156,52.56911,63.50034,-11.997972,48.87216,6.9583883,-11.569625,4.712806,-123.44459,-92.32102,22.974768,-14.139987,-21.113493,-4.185479,-47.88347
133,3.1391937732696533,-8.364964485168457,73.8262710571289,2.8409082125241336,-10.430401764268508,-153.96227565955814,6.979147,20.85583,26.691545,56.59921,-22.976812,-6.83664,-3.2640352,-8.221616,21.235651,39.337482,-26.318848,15.000033,-9.347458,8.577279,6.431055,49.89749,63.375725,-12.5612335,48.783485,7.1527114,-11.569128,5.084854,-120.70561,-92.095314,18.756075,-14.458069,-20.499237,-4.3060493,-48.4619
134,3.0572664737701416,-8.366615295410156,74.02494812011719,2.0746183934986977,-10.805157090233976,-150.58379621439772,6.1979456,21.212572,24.814175,56.04371,-22.756115,-7.3685646,-1.271808,-9.1654215,17.361427,37.995678,-25.69082,15.000033,-8.821803,8.248279,6.224294,46.930798,63.62383,-13.317784,48.73086,7.3964696,-11.476139,5.5594225,-118.005844,-91.75815,14.407856,-14.81399,-19.801392,-4.5223436,-49.096893
135,2.9848461151123047,-8.361052513122559,74.22086334228516,1.2830076920238191,-11.14726737613867,-147.15518357762636,5.349123,21.476532,22.732874,55.44892,-22.523182,-7.975871,0.7917157,-9.932004,13.469815,36.697178,-24.978653,15.000033,-8.134404,7.8231215,6.1172895,43.618523,64.181854,-14.256663,48.597355,7.6229396,-11.324663,6.0566545,-115.47027,-91.315025,10.082735,-15.127846,-19.094948,-4.768719,-49.761635
136,2.916433095932007,-8.360797882080078,74.41445922851562,0.47876918004349167,-11.43635883471532,-143.75313037652768,4.397731,21.614157,20.3978,54.85897,-22.29733,-8.594647,2.8181229,-10.462111,9.784664,35.523598,-24.185589,15.000033,-7.2409744,7.3271465,6.137227,39.917435,64.94697,-15.348233,48.27156,7.782878,-11.148986,6.5081367,-113.25207,-90.768,5.9530473,-15.305753,-18.444603,-4.976668,-50.432446
137,2.8612301349639893,-8.349800109863281,74.59226989746094,-0.3573121682539866,-11.680038010626102,-140.3689712615972,3.327715,21.615074,17.730162,54.280643,-22.083696,-9.247931,4.7795157,-10.718714,6.3506703,34.45758,-23.260378,15.000033,-6.1479936,6.7865496,6.3178062,35.71728,65.87437,-16.58944,47.793262,7.9119644,-10.949257,6.918826,-111.56371,-90.080734,2.178945,-15.374632,-17.883472,-5.1399207,-51.11354
138,2.8182501792907715,-8.334968566894531,74.75797271728516,-1.178665895940083,-11.876164128128641,-136.97265729136888,2.188483,21.430828,14.806943,53.67438,-21.86906,-9.9421015,6.664987,-10.795937,3.0881793,33.485962,-22.22092,15.000033,-4.9106402,6.15594,6.6300936,31.032024,66.94147,-18.044592,47.19848,8.032488,-10.708403,7.3224006,-110.538574,-89.21714,-1.0880705,-15.30346,-17.37653,-5.2848363,-51.81563
139,2.791896104812622,-8.304830551147461,74.90921783447266,-1.9605065395557677,-12.006743563369628,-133.61590347495044,1.0276107,21.09156,11.788358,53.05598,-21.664406,-10.618855,8.416156,-10.74874,0.026795689,32.6346,-21.13477,15.000033,-3.566843,5.449686,7.0381694,26.034472,68.04889,-19.735252,46.374115,8.08761,-10.435626,7.707081,-110.17442,-88.1811,-3.7395859,-14.914566,-16.875772,-5.392611,-52.521744
140,2.7776412963867188,-8.262598991394043,75.0473861694336,-2.7108532016320637,-12.058118157519122,-130.35793669289998,-0.13033721,20.678396,8.821207,52.45728,-21.482775,-11.232539,9.989594,-10.596099,-2.8058665,31.904842,-20.054714,15.000033,-2.1626358,4.7257214,7.5249095,20.92651,69.06206,-21.619911,45.224205,8.042247,-10.139815,8.082991,-110.41621,-86.98617,-5.747034,-14.045815,-16.316574,-5.4470243,-53.213264
141,2.7685647010803223,-8.21068000793457,75.17300415039062,-3.413503699940878,-12.040848913017326,-127.17819974931238,-1.3059541,20.139883,5.8119984,51.869843,-21.320604,-11.803082,11.375925,-10.382533,-5.444577,31.326694,-18.995535,15.000033,-0.73042977,4.001655,8.13302,15.638063,69.920265,-23.689785,43.742138,7.9016232,-9.80923,8.521352,-111.35898,-85.60228,-7.120257,-12.765747,-15.73339,-5.455474,-54.024387
142,2.769209384918213,-8.150723457336426,75.2901611328125,-4.075409802517318,-11.96513297366288,-124.05939869516415,-2.4951992,19.46734,2.7357042,51.2891,-21.172235,-12.349937,12.579713,-10.100496,-7.888495,30.88483,-17.925344,15.000033,0.7237627,3.2998507,8.854533,10.123813,70.59688,-25.911736,42.01683,7.6990714,-9.443688,9.017111,-112.976524,-83.9836,-7.889236,-11.083063,-15.154051,-5.421785,-54.910286
143,2.7843661308288574,-8.080656051635742,75.39324951171875,-4.661159788399704,-11.817270928018386,-121.0597292317358,-3.6505609,18.724669,-0.14603281,50.718513,-21.023148,-12.803857,13.564488,-9.795952,-10.060191,30.590015,-16.874441,15.000033,2.176545,2.6124356,9.614031,4.700857,71.00816,-28.098433,40.105026,7.4662075,-9.068579,9.487648,-114.94614,-82.1347,-8.170773,-8.791123,-14.491692,-5.3275275,-55.582302
144,2.8029427528381348,-8.00436019897461,75.49385070800781,-5.135296090762852,-11.589622354000097,-118.23742404807086,-4.7426205,17.986395,-2.579772,50.157234,-20.85408,-13.095243,14.301412,-9.522006,-11.884398,30.456085,-15.873238,15.000033,3.600839,1.9278321,10.356495,-0.27490708,71.06668,-30.001614,38.075756,7.267127,-8.709004,9.86441,-116.90921,-80.08884,-8.134729,-5.7229857,-13.6373825,-5.1525865,-55.75218
145,2.817775011062622,-7.916118144989014,75.59724426269531,-5.486799957428099,-11.274837466995008,-115.60298866994638,-5.826799,17.274132,-4.511207,49.623383,-20.659168,-13.183343,14.749549,-9.305424,-13.319545,30.509056,-14.919029,15.000033,5.0468864,1.2681167,11.127101,-4.844455,70.74547,-31.572456,35.89329,7.1786523,-8.366698,10.17308,-118.9064,-77.85952,-7.9884524,-1.9123613,-12.6615925,-4.772448,-55.567013
146,2.829846143722534,-7.82564640045166,75.7000732421875,-5.728852300597183,-10.895234195045333,-113.1233088194626,-6.92165,16.560455,-6.0758142,49.107784,-20.44,-13.114525,14.935977,-9.149916,-14.427348,30.753454,-14.00671,15.000033,6.5266733,0.6491878,11.930545,-9.125703,70.065895,-32.8619,33.614086,7.1855116,-8.03143,10.450711,-120.84649,-75.45086,-7.8065147,2.4951882,-11.580589,-4.22536,-55.109085
147,2.844295024871826,-7.731758117675781,75.80131530761719,-5.878030039273451,-10.491166963141524,-110.78911868213115,-7.9507275,15.855966,-7.3119426,48.563156,-20.186476,-12.948466,14.943741,-9.069199,-15.283574,31.160397,-13.158323,15.000033,7.958413,0.043499045,12.6785555,-12.88175,69.04273,-33.77809,31.426529,7.227989,-7.711483,10.651001,-122.272,-72.898605,-7.4794126,7.484023,-10.2019825,-3.7089236,-53.98707
148,2.865111827850342,-7.63245153427124,75.9071273803711,-5.9534078400147425,-10.098180508796563,-108.59269206421365,-8.837344,15.172249,-8.259594,47.945496,-19.891094,-12.744404,14.858946,-9.067638,-15.954792,31.690563,-12.39395,15.000033,9.230006,-0.58696014,13.3031025,-15.831291,67.70506,-34.19057,29.487312,7.2637506,-7.4161873,10.7316475,-122.9594,-70.26252,-6.713892,13.158066,-8.306309,-3.3799033,-51.79182
149,2.8924002647399902,-7.541524410247803,76.01692962646484,-5.9155630295616595,-9.734798996955954,-106.58915626625688,-9.544996,14.524488,-8.786846,47.247364,-19.54335,-12.491983,14.631026,-9.197117,-16.342386,32.4432,-11.759988,15.000033,10.4102335,-1.2197217,13.923829,-17.870148,66.02982,-33.91286,27.64136,7.336195,-7.173641,10.63645,-123.1165,-67.63336,-5.6750355,20.053755,-5.9515767,-2.9598145,-48.518345
150,2.8982529640197754,-7.4688591957092285,76.13365173339844,-5.768359278087095,-9.38507173744406,-104.75861348298032,-10.133743,13.911979,-8.923362,46.4881,-19.149479,-12.168488,14.240127,-9.440562,-16.441475,33.39468,-11.233284,15.000033,11.533016,-1.8452278,14.574183,-19.211967,64.046875,-33.083282,25.830524,7.481894,-6.9737387,10.404217,-122.90049,-65.055565,-4.330651,27.968885,-3.2355244,-2.2941604,-44.392807
151,2.887866735458374,-7.406815052032471,76.25746154785156,-5.605231972780955,-9.03024810161516,-102.98300636024362,-10.665185,13.321448,-8.954066,45.67135,-18.732426,-11.814751,13.824491,-9.6862335,-16.455482,34.315613,-10.7287245,15.000033,12.573147,-2.451222,15.167521,-20.17892,61.879234,-32.141407,24.218136,7.617578,-6.766668,10.131355,-121.82941,-62.490482,-2.1413722,35.626587,-0.07576992,-1.624001,-39.29437
152,2.8725619316101074,-7.377093315124512,76.38954162597656,-5.516416659003686,-8.64698340810818,-101.14619659766929,-11.196635,12.737857,-9.16524,44.803646,-18.315023,-11.471534,13.5242405,-9.822238,-16.594532,34.986797,-10.164765,15.000033,13.457087,-3.047891,15.600743,-20.967321,59.68335,-31.435316,22.957792,7.6375794,-6.49937,9.915968,-119.54142,-59.92972,1.6380411,41.916336,3.676557,-1.1483647,-33.00886
153,2.854017734527588,-7.374037742614746,76.53777313232422,-5.52455997191858,-8.213005803213868,-99.211096131341,-11.730489,12.174073,-9.571136,43.85153,-17.900782,-11.13188,13.370977,-9.809646,-16.907675,35.34776,-9.518543,15.000033,14.000307,-3.715777,15.838501,-21.277746,57.553078,-30.737766,21.945683,7.4864306,-6.1250467,9.785609,-115.749245,-57.596836,7.887416,47.42966,9.014216,-0.77931565,-24.397705
154,2.8367860317230225,-7.390499114990234,76.69429779052734,-5.578214588835097,-7.741008652321186,-97.24167011231324,-12.240452,11.632705,-10.0428705,42.828743,-17.481428,-10.780391,13.293134,-9.7032175,-17.286274,35.52177,-8.840726,15.000033,14.109182,-4.4383354,15.994767,-20.77283,55.526478,-29.61089,20.912579,7.2148643,-5.681885,9.686653,-111.52802,-55.910427,16.66846,53.09746,15.526306,0.26385596,-14.052917
155,2.814659595489502,-7.425261497497559,76.84542846679688,-5.658592180623411,-7.257945546288533,-95.27450413746973,-12.736162,11.076122,-10.649408,41.810204,-17.05953,-10.445253,13.272996,-9.538492,-17.708519,35.578117,-8.160884,15.000033,14.016911,-5.103568,16.173117,-19.762981,53.67118,-28.318455,19.812458,6.8423285,-5.23724,9.58835,-108.303604,-54.999115,27.455423,58.131737,21.276535,2.044754,-4.2438626
156,2.7955195903778076,-7.487127304077148,76.9908676147461,-5.743105955754576,-6.79124093842158,-93.34624520169135,-13.225643,10.465091,-11.457354,40.867054,-16.635214,-10.155175,13.293187,-9.351417,-18.153223,35.576126,-7.4998307,15.000033,14.089224,-5.6336837,16.435932,-18.81763,52.0115,-27.422579,18.804157,6.3652205,-4.854925,9.468528,-106.22325,-54.591908,39.223667,60.809616,24.486544,3.6354127,3.1327035
157,2.782838821411133,-7.560117721557617,77.12751007080078,-5.851144618057408,-6.346257182912893,-91.44050926499793,-13.702481,9.774608,-12.553707,40.003662,-16.213053,-9.9212675,13.385413,-9.121751,-18.650372,35.465794,-6.8391395,15.000033,14.332042,-6.0968685,16.742956,-18.07553,50.591995,-27.154467,18.074986,5.5646844,-4.580973,9.3470125,-104.27527,-54.479053,52.55014,59.35064,24.407999,4.059698,7.9849524
158,2.780965805053711,-7.626762866973877,77.2458267211914,-5.981465426532815,-5.90794897334981,-89.54558862023444,-14.15515,9.019039,-13.874859,39.185184,-15.789711,-9.728917,13.545257,-8.842888,-19.200657,35.239708,-6.1746206,15.000033,14.591577,-6.4761825,17.0254,-17.227318,49.377518,-27.263151,17.533072,4.4575276,-4.374555,9.23799,-102.61539,-54.540234,68.10672,55.12184,22.204504,3.3496885,11.355804
159,2.7877166271209717,-7.700374126434326,77.34991455078125,-6.094590238270672,-5.474707189468227,-87.70492375251715,-14.58725,8.225579,-15.262525,38.421974,-15.351939,-9.5679455,13.700465,-8.567951,-19.73827,35.011597,-5.541567,15.000033,14.958001,-6.6777163,17.275839,-16.307365,48.238937,-27.636873,17.17559,3.4680398,-4.1642447,9.104138,-101.56598,-54.498623,83.821846,50.091267,19.101517,1.9398286,13.299978
160,2.7932324409484863,-7.7733025550842285,77.45186614990234,-6.155334352815428,-5.045881929333208,-85.96200238971187,-15.01082,7.4297366,-16.562542,37.726147,-14.887882,-9.427293,13.779918,-8.346556,-20.197361,34.88831,-4.9716506,15.000033,15.564107,-6.712126,17.541542,-15.491988,47.08544,-28.240204,17.07187,3.0633218,-3.8685293,8.920425,-100.997536,-54.154522,96.94472,45.937748,16.282362,0.39783517,13.943302
161,2.7954599857330322,-7.842793941497803,77.54856872558594,-6.160488146373847,-4.634013540463828,-84.3431891101988,-15.42397,6.6444,-17.756273,37.115685,-14.393653,-9.304778,13.772025,-8.191834,-20.56627,34.891987,-4.4671073,15.000033,16.540604,-6.6775656,17.873627,-15.080678,45.95311,-29.304556,17.462278,3.4124265,-3.4423993,8.683183,-100.9462,-53.39813,107.271675,42.504997,13.417692,-1.5326827,12.449304
162,2.787384033203125,-7.906610488891602,77.63448333740234,-6.121392056448487,-4.23678771768683,-82.81954276564456,-15.818997,5.8451495,-18.914436,36.568317,-13.870127,-9.205567,13.7088175,-8.087033,-20.878113,34.97059,-4.0136714,15.000033,17.952314,-6.949937,18.175425,-15.287795,44.939735,-31.0994,18.676586,4.371603,-2.9085674,8.410343,-99.87466,-52.105755,114.452736,39.14297,9.223484,-3.7714753,9.158034
163,2.772404193878174,-7.982748985290527,77.71526336669922,-6.040752763434076,-3.83373434544139,-81.35003431566518,-16.213474,5.026339,-20.02785,36.056202,-13.323271,-9.129482,13.588115,-8.023158,-21.134977,35.114525,-3.6150546,15.000033,19.662613,-7.433848,18.394905,-15.875732,44.065243,-33.41292,20.457926,5.5833936,-2.318175,8.131558,-96.850655,-50.317894,117.68272,36.60892,4.8157325,-5.480215,6.0450797
164,2.755723237991333,-8.057777404785156,77.78636932373047,-5.942575442697338,-3.4075092180949107,-79.89346366903048,-16.636963,4.197985,-21.098785,35.582825,-12.77543,-9.078033,13.416576,-7.96901,-21.347929,35.29978,-3.2671945,14.951685,21.061327,-7.4250255,18.587168,-15.779398,43.193798,-35.17229,21.835398,6.7141256,-1.7747216,7.853239,-93.10137,-48.386166,118.61999,34.793327,2.5701244,-6.1036835,4.796232
165,2.733213186264038,-8.137383460998535,77.85138702392578,-5.825778317381767,-2.948309086652877,-78.4318376435694,-17.113087,3.3608263,-22.14432,35.159546,-12.204446,-9.068239,13.181582,-7.9155965,-21.539373,35.528553,-2.9672768,14.68604,21.72331,-6.678281,18.788788,-14.409813,42.24001,-35.708084,22.419127,8.0367775,-1.2368209,7.5439262,-89.46398,-46.698437,117.355774,33.029133,3.4529333,-5.3077087,6.2918835
166,2.713486671447754,-8.219857215881348,77.90743255615234,-5.68371804323266,-2.4699101276805937,-76.98808038436809,-17.624498,2.5164156,-23.162264,34.784077,-11.60952,-9.0939865,12.887068,-7.878207,-21.678055,35.805416,-2.7126284,14.388238,22.033087,-5.6904893,19.023521,-12.8185425,41.294376,-35.90932,23.026636,9.528087,-0.67192584,7.1974325,-85.561874,-45.289494,113.363556,31.113409,5.9871016,-3.5141697,9.340457
167,2.6933586597442627,-8.299757957458496,77.9476547241211,-5.517879026540524,-1.9862169347840435,-75.58548170872115,-18.137405,1.6820179,-24.125185,34.423634,-11.037608,-9.125939,12.559932,-7.860325,-21.771355,36.10911,-2.5039837,14.127359,22.6429,-5.108483,19.262856,-11.626564,40.479362,-36.462257,24.103544,11.152666,-0.1720627,6.881742,-80.39415,-43.991947,106.520096,29.614483,8.492211,-1.3389189,12.689117
168,2.6734602451324463,-8.374591827392578,77.96434783935547,-5.372612589273179,-1.5124377442204837,-74.25477073170295,-18.643118,0.90875393,-25.022636,34.104164,-10.568342,-9.139827,12.234099,-7.816573,-21.827904,36.394478,-2.3277123,13.962835,23.57462,-4.7553053,19.508314,-10.954769,39.869915,-37.487423,25.575253,12.319038,0.109621234,6.6756,-74.96091,-42.643936,99.52846,28.439625,10.818922,0.5324075,14.704963
169,2.659615993499756,-8.444576263427734,77.96244049072266,-5.219208893694294,-1.0622986717805902,-72.97343648886124,-19.11576,0.1575964,-25.835428,33.802914,-10.213353,-9.099241,11.9326515,-7.780328,-21.845726,36.672695,-2.1983018,13.946106,24.528976,-4.355508,19.813082,-10.322832,39.440727,-38.5493,27.07076,12.877601,0.042302437,6.6177945,-69.748405,-41.200375,93.298836,27.614462,13.905271,1.9315573,14.623535
170,2.6541237831115723,-8.507214546203613,77.94123840332031,-5.0532507153944595,-0.6262713422658372,-71.73385516115796,-19.573746,-0.57837284,-26.577703,33.524902,-9.937416,-9.025718,11.635152,-7.754631,-21.82045,36.958157,-2.1160264,14.035563,25.458902,-3.880796,20.197088,-9.532591,39.16425,-39.450928,28.451817,13.148659,-0.2745594,6.6567616,-64.62274,-39.610058,86.974625,27.000395,17.906471,3.12591,13.29999
171,2.6504132747650146,-8.545853614807129,77.89905548095703,-4.8966212360785075,-0.20150606847993863,-70.56102281314301,-20.04088,-1.2803999,-27.27229,33.308277,-9.727244,-8.962268,11.321469,-7.7263036,-21.759764,37.264797,-2.0834553,14.175905,26.357897,-3.365597,20.604012,-8.63313,39.03255,-40.217533,29.715546,13.224778,-0.67778075,6.7201705,-60.070023,-37.83989,81.38989,26.459934,22.017538,3.973781,11.449043
172,2.6499361991882324,-8.57685375213623,77.83917236328125,-4.75002000907327,0.2101904397211758,-69.47193135232438,-20.526482,-1.9544333,-27.93526,33.17165,-9.55691,-8.946742,10.976977,-7.7049685,-21.667862,37.613182,-2.1021466,14.323482,27.172836,-2.8726783,20.969595,-7.5520067,39.023182,-40.771973,30.81703,13.252711,-1.0055462,6.730613,-56.57176,-35.907722,77.36641,25.989874,25.403193,4.4569345,9.839424
173,2.661914825439453,-8.598196029663086,77.767578125,-4.607549162121863,0.6046919268876394,-68.47149131430065,-21.025444,-2.6092834,-28.564198,33.11721,-9.433732,-8.990409,10.59584,-7.700458,-21.528368,38.025608,-2.1918476,14.481159,27.848412,-2.414468,21.265703,-6.203018,39.11818,-41.03266,31.753862,13.207954,-1.2308066,6.663133,-54.24602,-33.86989,75.21611,25.785416,28.26473,4.5448055,8.5510645
174,2.6677966117858887,-8.598091125488281,77.67435455322266,-4.470584497494376,0.9851303493844099,-67.5493692629172,-21.537956,-3.2443812,-29.15139,33.13955,-9.36886,-9.072,10.186655,-7.705991,-21.34526,38.48702,-2.3465736,14.669606,28.369352,-1.9640938,21.510359,-4.5788918,39.306454,-40.978603,32.542603,13.052919,-1.4380498,6.5538144,-52.76717,-31.769783,74.39453,25.937315,30.907404,4.266542,7.2872343
175,2.6742749214172363,-8.584397315979004,77.56889343261719,-4.336355766790246,1.356827745902974,-66.69395417223612,-22.065916,-3.8663034,-29.70054,33.223186,-9.329419,-9.177554,9.75813,-7.7263026,-21.153864,38.976967,-2.5415635,14.875171,28.753763,-1.5466033,21.712187,-2.7318852,39.573402,-40.6417,33.17907,12.910585,-1.6313745,6.420033,-51.845215,-29.635437,74.33433,26.294687,32.55364,3.838045,6.245034
176,2.6907405853271484,-8.564094543457031,77.45572662353516,-4.2023054681368786,1.7255437230100301,-65.89405122701824,-22.611933,-4.479117,-30.216246,33.352013,-9.282288,-9.29438,9.319527,-7.7676535,-21.007296,39.472797,-2.7512183,15.000033,29.012604,-1.1832585,21.878866,-0.7100081,39.897568,-40.05387,33.661354,12.901762,-1.8159107,6.281552,-51.169476,-27.487486,74.476875,26.668484,32.380577,3.5044017,5.592679
177,2.7020833492279053,-8.530628204345703,77.33684539794922,-4.0688924460596425,2.0945820091673872,-65.13369814028445,-23.189615,-5.097276,-30.717972,33.54305,-9.226866,-9.436177,8.869052,-7.830441,-20.915812,39.98344,-2.983233,15.000033,29.169144,-0.87727785,22.01287,1.4659963,40.26355,-39.221172,33.999638,13.111479,-1.9817686,6.148271,-50.767883,-25.350985,74.8166,27.065174,29.515991,3.3709636,5.4338217
178,2.7186455726623535,-8.487117767333984,77.21477508544922,-3.9367432151722146,2.4611196316633217,-64.42268856254034,-23.795488,-5.7171044,-31.195995,33.800617,-9.179487,-9.60412,8.401845,-7.912499,-20.837763,40.518665,-3.2473745,15.000033,29.230759,-0.6123148,22.116081,3.8064954,40.65778,-38.146946,34.19879,13.451637,-2.1308362,6.010636,-50.668583,-23.260069,75.53845,27.526043,24.585339,3.3062282,5.646777
179,2.740880012512207,-8.439911842346191,77.09703063964844,-3.806658969207581,2.8215933264147712,-63.78959303967395,-24.406542,-6.309289,-31.612572,34.087345,-9.13254,-9.76772,7.924584,-8.018388,-20.780533,41.05222,-3.518518,15.000033,29.233604,-0.3877685,22.204605,6.2369313,41.06128,-36.9258,34.29126,13.783215,-2.2842453,5.8616047,-50.75771,-21.235664,76.474144,27.977493,19.193052,3.205513,6.040041
180,2.761857509613037,-8.38923454284668,76.98582458496094,-3.679907465847506,3.1724846323653564,-63.262786077613406,-25.00143,-6.8451514,-31.931156,34.3675,-9.077722,-9.895933,7.443421,-8.154683,-20.75317,41.561462,-3.773212,15.000033,29.225634,-0.20344971,22.285183,8.652329,41.452816,-35.689247,34.340984,13.961508,-2.4621956,5.6963525,-50.923897,-19.294914,77.44907,28.353699,14.93659,3.004381,6.418375
181,2.795013904571533,-8.32946491241455,76.88526153564453,-3.5582045507756224,3.5232416454804696,-62.84378154231434,-25.593475,-7.325392,-32.145973,34.64248,-9.001947,-9.982632,6.951412,-8.324122,-20.762743,42.040302,-4.0065093,15.000033,29.228312,-0.055740118,22.343658,11.003925,41.815388,-34.494408,34.39726,13.937668,-2.6748018,5.5155826,-51.179787,-17.463047,78.50315,28.6348,12.077638,2.6729598,6.8003507
182,2.8346729278564453,-8.262770652770996,76.79556274414062,-3.4425671048336075,3.8731683891974877,-62.519574839959375,-26.190838,-7.762022,-32.275738,34.929565,-8.913451,-10.042751,6.4477296,-8.524092,-20.802313,42.50255,-4.2313795,15.000033,29.235886,0.06586815,22.379053,13.297544,42.133835,-33.319332,34.464493,13.789243,-2.9098837,5.323402,-51.539425,-15.763372,79.69365,28.828568,9.816035,2.247256,7.26112
183,2.8795130252838135,-8.190906524658203,76.71328735351562,-3.3330677161032916,4.203563229702176,-62.29664470902798,-26.759375,-8.139395,-32.322205,35.20468,-8.829352,-10.075951,5.949232,-8.752925,-20.859125,42.94945,-4.446945,15.000033,29.272503,0.1714144,22.401432,15.639336,42.381084,-32.07956,34.45515,13.670741,-3.1514788,5.117377,-51.90412,-14.205467,80.86458,28.92561,8.133126,1.8083578,7.7038937
184,2.9306130409240723,-8.1128511428833,76.64057159423828,-3.2304464450004233,4.495339003475588,-62.18181707972514,-27.265635,-8.442507,-32.287422,35.446636,-8.76861,-10.081281,5.4737105,-9.00708,-20.919992,43.380787,-4.6517324,15.000033,29.30329,0.26414087,22.442991,17.655863,42.565636,-31.065796,34.63555,13.375775,-3.3905697,4.907424,-52.22686,-12.777024,81.90409,28.91336,7.0147386,1.4451355,8.036904
185,2.9928784370422363,-8.029413223266602,76.57874298095703,-3.134165744649167,4.739779964638217,-62.195376400245,-27.69731,-8.661606,-32.15456,35.65101,-8.733755,-10.047946,5.0140004,-9.29157,-20.953012,43.810776,-4.8425694,15.000033,29.381826,0.35946074,22.490292,19.52932,42.66892,-30.165842,34.88147,13.039113,-3.6416821,4.6793036,-52.49605,-11.479712,82.771454,28.799334,6.6438813,1.1799031,8.259345
186,3.055306911468506,-7.949291229248047,76.52609252929688,-3.045793250814281,4.948874806525372,-62.327702843470036,-28.074356,-8.8061285,-31.929445,35.831085,-8.716852,-9.978649,4.5653296,-9.605652,-20.973524,44.232613,-5.019136,15.000033,29.477182,0.4531987,22.538902,21.163519,42.69869,-29.447857,35.273457,12.575541,-3.9062166,4.439833,-52.763214,-10.314613,83.558075,28.580217,6.963983,0.9779129,8.42684
187,3.124293565750122,-7.867820739746094,76.48306274414062,-2.9679053994657902,5.135304038491625,-62.54134309976019,-28.406641,-8.888922,-31.648466,35.97961,-8.713653,-9.89312,4.147084,-9.939712,-21.039776,44.617294,-5.1851826,15.000033,29.584038,0.5386273,22.569262,22.675581,42.645123,-28.79429,35.710102,12.160183,-4.140387,4.213152,-52.982494,-9.280548,84.22582,28.296934,7.590083,0.837833,8.53299
188,3.197144031524658,-7.788047790527344,76.44734954833984,-2.902265958216075,5.3112940459021365,-62.79888096671391,-28.70612,-8.924177,-31.34759,36.09448,-8.72264,-9.811531,3.7796178,-10.284504,-21.210295,44.935432,-5.3445797,15.000033,29.670412,0.6030149,22.573088,24.062717,42.506493,-28.173939,36.180748,11.870406,-4.303778,4.027192,-53.127117,-8.368229,84.756096,27.985292,8.139904,0.7556366,8.566625
189,3.273256540298462,-7.711929798126221,76.418212890625,-2.848008312016854,5.4765590079041075,-63.10221438078641,-28.965073,-8.907396,-31.026598,36.159954,-8.743414,-9.737482,3.4636564,-10.643296,-21.483852,45.1882,-5.4980736,15.000033,29.723394,0.639764,22.555786,25.270563,42.288376,-27.624666,36.727734,11.733824,-4.3879757,3.8929667,-53.207306,-7.567406,85.146225,27.645216,8.623288,0.7504335,8.506455
190,3.351759910583496,-7.638761520385742,76.39676666259766,-2.8044325211183665,5.625720468430023,-63.46758526146937,-29.181036,-8.834778,-30.670078,36.18517,-8.778195,-9.661293,3.1903732,-11.02005,-21.834963,45.390015,-5.6443753,15.000033,29.751797,0.6540099,22.520817,26.30883,41.99549,-27.15468,37.350212,11.69734,-4.4150286,3.7963548,-53.24532,-6.872365,85.411964,27.270693,9.205474,0.81552064,8.363831
191,3.4318034648895264,-7.565909385681152,76.38139343261719,-2.7750128633998643,5.763794164370887,-63.87914344237109,-29.368681,-8.717944,-30.291607,36.190754,-8.822504,-9.583109,2.9674728,-11.405814,-22.2868,45.52763,-5.7813354,15.000033,29.750206,0.64816344,22.461056,27.210709,41.632214,-26.738125,38.01736,11.667828,-4.391114,3.7303524,-53.2413,-6.276045,85.570625,26.892132,9.740622,0.9077655,8.174011
192,3.5162546634674072,-7.501811504364014,76.37357330322266,-2.7632344453354922,5.895737493906634,-64.32113341897775,-29.545307,-8.569392,-29.904234,36.202557,-8.873651,-9.502979,2.80142,-11.791766,-22.862698,45.59112,-5.908329,15.000033,29.707489,0.62291425,22.371778,27.986816,41.20654,-26.366217,38.71494,11.530996,-4.3224044,3.6885538,-53.196552,-5.7685685,85.64206,26.537489,10.082736,0.9853639,7.973116
193,3.5953567028045654,-7.444723606109619,76.37239837646484,-2.771099623219805,6.030601073474786,-64.78818544671485,-29.719425,-8.389682,-29.51558,36.21813,-8.926613,-9.421544,2.6977017,-12.177917,-23.598938,45.569317,-6.021104,15.000033,29.615347,0.5674755,22.244371,28.639044,40.721573,-26.020668,39.441025,11.275605,-4.1982765,3.6722887,-53.105892,-5.3407598,85.60588,26.213133,10.192239,1.0474805,7.771126
194,3.6834542751312256,-7.388510704040527,76.37677001953125,-2.7963901349550424,6.163651575057042,-65.28981801960889,-29.881878,-8.173152,-29.116964,36.22812,-8.984531,-9.338935,2.6520574,-12.565982,-24.474148,45.47239,-6.1207166,15.000033,29.47758,0.48121935,22.083963,29.175186,40.179516,-25.699879,40.192566,10.956536,-4.01942,3.6838858,-52.977318,-4.98594,85.4612,25.914581,10.146327,1.1136005,7.5486155
195,3.7739510536193848,-7.334848403930664,76.38336944580078,-2.8358772626635793,6.279300605327591,-65.83281751004044,-30.018635,-7.920765,-28.697906,36.239365,-9.05375,-9.254029,2.6568954,-12.947108,-25.425125,45.31898,-6.2127523,15.000033,29.299984,0.38007623,21.907106,29.590073,39.592133,-25.443422,40.972218,10.536529,-3.8089495,3.7203493,-52.83137,-4.696469,85.25724,25.654371,9.974689,1.1715211,7.298749
196,3.8687429428100586,-7.2820281982421875,76.3943099975586,-2.886005019897165,6.361570106962446,-66.42380547372858,-30.116,-7.634476,-28.248074,36.260365,-9.1413965,-9.165838,2.704013,-13.313579,-26.388279,45.12758,-6.303178,15.000033,29.0916,0.28026265,21.729803,29.888376,38.974712,-25.28416,41.773903,9.983015,-3.58985,3.7780879,-52.68499,-4.4652042,85.04051,25.444613,9.70542,1.2110755,7.0140705
197,3.963562488555908,-7.235231399536133,76.41090393066406,-2.955618396980209,6.405763370134008,-67.06274165043585,-30.172853,-7.307305,-27.77485,36.302856,-9.252822,-9.077257,2.8134732,-13.653528,-27.395815,44.87423,-6.386053,15.000033,28.848606,0.18655062,21.550982,30.070269,38.335728,-25.229698,42.602436,9.208372,-3.3609552,3.8733425,-52.53384,-4.2855234,84.80053,25.298744,9.295424,1.2179259,6.6986465
198,4.058704376220703,-7.187770366668701,76.42985534667969,-3.042401786433503,6.42053396042177,-67.74734115884907,-30.195793,-6.940631,-27.280127,36.359528,-9.383371,-8.988225,2.9813783,-13.970247,-28.465923,44.558548,-6.4581656,15.000033,28.571566,0.08799634,21.362757,30.148659,37.676968,-25.252743,43.446526,8.255796,-3.1136308,4.0030437,-52.373215,-4.1529384,84.51711,25.217026,8.74603,1.2031822,6.3540645
199,4.156026840209961,-7.137053489685059,76.4505844116211,-3.1262498526839297,6.409494587724769,-68.47934298754082,-30.179712,-6.547924,-26.74581,36.406887,-9.52364,-8.893188,3.1642652,-14.280678,-29.513174,44.232296,-6.53248,15.000033,28.271318,-0.023419578,21.172892,30.129482,37.00704,-25.34962,44.28934,7.268832,-2.8592465,4.134787,-52.217506,-4.0641856,84.219864,25.186808,8.151215,1.1933371,5.9689565
200,4.267482757568359,-7.087821006774902,76.47579956054688,-3.187158640959369,6.3757959668297435,-69.260106520383,-30.120071,-6.1443105,-26.154179,36.425884,-9.667026,-8.786865,3.3187463,-14.606265,-30.452793,43.94937,-6.624923,15.000033,27.959373,-0.15602659,20.990145,30.015684,36.338223,-25.520588,45.11472,6.387654,-2.6073751,4.2346907,-52.082916,-4.016893,83.93999,25.196426,7.6072135,1.2141412,5.532341
201,4.376478672027588,-7.0413312911987305,76.50340270996094,-3.2220877101016097,6.317065793033549,-70.09878299470968,-30.012615,-5.7284703,-25.495358,36.418427,-9.815827,-8.664044,3.434033,-14.955083,-31.262491,43.72626,-6.7419662,15.000033,27.642246,-0.31591007,20.814083,29.814245,35.674793,-25.766945,45.924664,5.582487,-2.3689969,4.2886887,-51.966297,-4.0096946,83.67367,25.251608,7.100802,1.2734996,5.0347915
202,4.492384910583496,-6.998242378234863,76.53211212158203,-3.2398834599539406,6.231819170420276,-70.99090027882293,-29.858109,-5.295099,-24.781084,36.393307,-9.973443,-8.529673,3.5336695,-15.31743,-31.988316,43.533054,-6.8768044,15.000033,27.31358,-0.49890053,20.641336,29.528057,35.017307,-26.08437,46.719418,4.7963543,-2.1349034,4.3147364,-51.861404,-4.0412383,83.40617,25.357862,6.5941153,1.3581266,4.4846163
203,4.606534957885742,-6.95737886428833,76.56139373779297,-3.2394899440406357,6.124887931553588,-71.91703640868931,-29.658455,-4.8539147,-24.026096,36.339508,-10.133221,-8.3934765,3.6259232,-15.6903715,-32.64905,43.354607,-7.027136,15.000033,26.968298,-0.69863117,20.474699,29.165453,34.37264,-26.453787,47.46858,4.1391025,-1.8829778,4.32456,-51.77706,-4.110726,83.149864,25.50356,6.1447697,1.4601166,3.8971767
204,4.72576904296875,-6.915108680725098,76.59132385253906,-3.2197729258090226,6.001322044699726,-72.85793602628073,-29.416424,-4.4146833,-23.24527,36.24714,-10.289078,-8.265261,3.7194028,-16.070238,-33.263557,43.17544,-7.189795,15.000033,26.602036,-0.9098306,20.31744,28.735554,33.751648,-26.856497,48.138824,3.7180197,-1.5912887,4.328348,-51.7215,-4.2173247,82.91409,25.674637,5.8102946,1.5698974,3.2870235
205,4.8365960121154785,-6.877448558807373,76.62421417236328,-3.1776753322752875,5.858657664937282,-73.8137904906193,-29.127552,-3.979042,-22.433632,36.11482,-10.438813,-8.146067,3.8146574,-16.468039,-33.84288,43.005238,-7.3694696,15.000033,26.214394,-1.1382548,20.174673,28.23807,33.160786,-27.296225,48.7193,3.5966592,-1.245971,4.31397,-51.701397,-4.3606143,82.70739,25.875751,5.637137,1.6952454,2.6149862
206,4.955038070678711,-6.837073802947998,76.65800476074219,-3.1141813615010085,5.695467067344076,-74.79315435239677,-28.791311,-3.5437694,-21.585985,35.949722,-10.587221,-8.032171,3.907788,-16.882248,-34.37589,42.847355,-7.5678296,15.000033,25.80998,-1.3865033,20.042887,27.675297,32.600628,-27.776497,49.219177,3.7038338,-0.8604878,4.2763367,-51.7103,-4.540471,82.519554,26.111727,5.5849824,1.8347012,1.8867788
207,5.068121910095215,-6.799385070800781,76.68966674804688,-3.03377030927122,5.519073969880748,-75.78920265576359,-28.412695,-3.1109636,-20.716646,35.74522,-10.733679,-7.9261003,3.9994192,-17.291431,-34.848568,42.677574,-7.777188,15.000033,25.392395,-1.6452962,19.912212,27.062675,32.073666,-28.277481,49.633232,3.9463077,-0.45409906,4.23602,-51.73574,-4.7570524,82.332184,26.36765,5.5784016,1.9647605,1.1841409
208,5.1762895584106445,-6.761592864990234,76.72264099121094,-2.9411606798179806,5.336989167842528,-76.79543730832744,-27.99861,-2.6826546,-19.83941,35.49658,-10.878305,-7.8304,4.0885477,-17.674124,-35.24542,42.472878,-7.9894667,15.000033,24.965933,-1.9059236,19.773197,26.415688,31.584839,-28.778898,49.9545,4.2306347,-0.045822136,4.214715,-51.76817,-5.01008,82.12725,26.629406,5.5427947,2.0639617,0.5891059
209,5.289429664611816,-6.726181507110596,76.75363159179688,-2.8358783682876414,5.147502145676318,-77.81720686408899,-27.541481,-2.2574072,-18.95313,35.195873,-11.02424,-7.749096,4.1722236,-18.025068,-35.55243,42.230644,-8.207257,15.000033,24.52892,-2.1698577,19.624975,25.737087,31.137417,-29.289373,50.162476,4.5813847,0.38297358,4.203782,-51.81161,-5.2997828,81.89798,26.901012,5.515317,2.122714,0.13680159
210,5.394199371337891,-6.696203231811523,76.78498077392578,-2.715589253780501,4.948666899689039,-78.85619747370198,-27.040407,-1.836693,-18.051006,34.84804,-11.170285,-7.6809154,4.2492967,-18.357191,-35.780746,41.963696,-8.433699,15.000033,24.081276,-2.4412162,19.471292,25.020248,30.732403,-29.816677,50.26256,5.0296607,0.8349737,4.1935987,-51.867897,-5.6267586,81.65369,27.186817,5.5150557,2.153043,-0.2211588
211,5.497225761413574,-6.660949230194092,76.81586456298828,-2.5817633803993627,4.747982026502183,-79.9004229609124,-26.511686,-1.4263289,-17.138487,34.463886,-11.30713,-7.6201277,4.324384,-18.673386,-35.952488,41.663273,-8.656326,15.000033,23.629875,-2.7154572,19.308895,24.272552,30.371275,-30.333227,50.282024,5.4971204,1.2676957,4.205901,-51.923573,-5.990811,81.39752,27.472334,5.440384,2.1682231,-0.52813935
212,5.59674596786499,-6.619013786315918,76.84490203857422,-2.4365629630844325,4.552935832248809,-80.93793286394715,-25.971878,-1.0317503,-16.221157,34.054558,-11.4259815,-7.5602508,4.4020133,-18.976816,-36.09005,41.3207,-8.861945,15.000033,23.18012,-2.9886096,19.135155,23.501303,30.057045,-30.811111,50.247612,5.9042106,1.6387644,4.264104,-51.965073,-6.3907104,81.13254,27.7427,5.189815,2.182474,-0.8277009
213,5.689762592315674,-6.585934638977051,76.87479400634766,-2.277318468049693,4.361915307017377,-81.97271333325534,-25.412775,-0.65351516,-15.295704,33.6113,-11.53153,-7.503018,4.487961,-19.274172,-36.203804,40.937576,-9.050347,15.000033,22.735806,-3.2615008,18.950275,22.705048,29.793344,-31.240515,50.138763,6.2255745,1.9521427,4.3613477,-51.98846,-6.8254843,80.84662,28.004383,4.682555,2.199023,-1.111699
214,5.780714988708496,-6.547245979309082,76.90577697753906,-2.104289372794312,4.172973293127446,-83.0090535910079,-24.829588,-0.29039413,-14.360086,33.130836,-11.625159,-7.4509044,4.578041,-19.562092,-36.28086,40.516094,-9.225958,15.000033,22.29199,-3.536157,18.755,21.883802,29.582085,-31.636988,49.94473,6.5038896,2.2259037,4.4897995,-51.998875,-7.2951574,80.54145,28.2612,3.9883828,2.2120516,-1.3636409
215,5.866994857788086,-6.515012741088867,76.93909454345703,-1.922860406742519,3.992738565162881,-84.03548221513711,-24.24604,0.05515292,-13.422204,32.63656,-11.695587,-7.3976502,4.6600723,-19.83016,-36.30623,40.055504,-9.387467,15.000033,21.844135,-3.8106225,18.54896,21.043478,29.423105,-32.0123,49.7094,6.7632356,2.4394057,4.673692,-52.002567,-7.797723,80.23921,28.496456,3.2379968,2.2235653,-1.6148537
216,5.940561294555664,-6.477925777435303,76.97437286376953,-1.738984020606912,3.827799294386928,-85.04028845564737,-23.68893,0.38068512,-12.490078,32.157753,-11.734496,-7.3361616,4.722497,-20.068186,-36.264908,39.55253,-9.5311165,15.000033,21.384779,-4.08288,18.332191,20.189331,29.31444,-32.378174,49.478928,7.025906,2.5719028,4.9371743,-52.00421,-8.330251,79.9647,28.694344,2.559366,2.2346075,-1.8963223
217,6.011221408843994,-6.433504104614258,77.01063537597656,-1.5493152905302676,3.6809227177159105,-86.0249738887524,-23.168707,0.68276197,-11.556437,31.704493,-11.734268,-7.258234,4.764304,-20.280056,-36.15703,38.998466,-9.656381,15.000033,20.911457,-4.357277,18.106869,19.3203,29.252493,-32.71193,49.252,7.249517,2.6005456,5.3112907,-52.00515,-8.891004,79.70958,28.857561,1.9424177,2.2488132,-2.2212942
218,6.074501991271973,-6.392283916473389,77.04951477050781,-1.3524876070006213,3.548712211550426,-86.99421757582245,-22.672585,0.9634137,-10.620142,31.263577,-11.702798,-7.1682644,4.79175,-20.469646,-35.987602,38.396725,-9.763905,15.000033,20.425188,-4.6321745,17.872053,18.433287,29.236477,-33.01586,49.01095,7.440566,2.5423365,5.776226,-52.00258,-9.478902,79.46711,28.995289,1.3323712,2.264758,-2.5712266
219,6.133848190307617,-6.337226867675781,77.09092712402344,-1.1574466793115907,3.4284048973777304,-87.94021762735792,-22.188072,1.2299811,-9.698304,30.818768,-11.649174,-7.0777473,4.8041754,-20.627462,-35.747223,37.76286,-9.852657,15.000033,19.926697,-4.896145,17.62377,17.524387,29.268517,-33.345867,48.77911,7.690758,2.4375331,6.279752,-51.99669,-10.090085,79.26044,29.10189,0.793753,2.2752082,-2.9299765
220,6.1911234855651855,-6.285271167755127,77.12920379638672,-0.972981953311697,3.3166454634966365,-88.85527069262758,-21.70263,1.4898863,-8.808146,30.353575,-11.582251,-6.998513,4.8031635,-20.743715,-35.428272,37.10967,-9.9200115,15.000033,19.417398,-5.138007,17.358356,16.591614,29.350458,-33.757458,48.57809,8.0918455,2.3277714,6.769409,-51.985565,-10.71946,79.11209,29.173727,0.38911015,2.2716868,-3.281448
221,6.237900257110596,-6.227956771850586,77.16942596435547,-0.799565824319743,3.2122489811674177,-89.73213164625584,-21.216185,1.7404636,-7.9544225,29.86541,-11.5011835,-6.9316006,4.7900596,-20.815374,-35.015816,36.436016,-9.964982,15.000033,18.889767,-5.3573112,17.072557,15.624337,29.484669,-34.28173,48.410645,8.747411,2.2292218,7.295085,-51.97538,-11.362914,79.04534,29.218622,0.14725369,2.2514427,-3.648467
222,6.279905319213867,-6.176588535308838,77.21233367919922,-0.6329861450731389,3.1163770659788352,-90.57623421372506,-20.734758,1.9793123,-7.1278825,29.361034,-11.401536,-6.870536,4.7667933,-20.84954,-34.517498,35.736923,-9.990573,15.000033,18.34681,-5.559212,16.770388,14.627223,29.66839,-34.88631,48.26254,9.583795,2.1230323,7.863891,-51.96686,-12.01841,79.04209,29.24313,0.03092254,2.2168767,-4.0305114
223,6.316482067108154,-6.125993251800537,77.25740051269531,-0.4752760903003678,3.029025212114998,-91.39886442302904,-20.258291,2.2133746,-6.3242702,28.845884,-11.289763,-6.816298,4.7340784,-20.853603,-33.959724,35.02334,-10.000565,15.000033,17.803453,-5.7407823,16.459024,13.6123085,29.894545,-35.53805,48.1382,10.416683,1.993845,8.359538,-51.949356,-12.683662,79.06444,29.24104,0.0034465143,2.1667507,-4.3765693
224,6.3486552238464355,-6.076164245605469,77.30589294433594,-0.32821832069974377,2.9502422599547717,-92.21157079850587,-19.785969,2.4494417,-5.5388856,28.323795,-11.171633,-6.7702293,4.691051,-20.834446,-33.369156,34.307514,-9.998923,15.000033,17.272018,-5.898973,16.143654,12.597489,30.153498,-36.19747,48.041264,11.0659685,1.8198118,8.666156,-51.902206,-13.3587,79.075,29.201942,0.018248323,2.0997212,-4.63499
225,6.374608039855957,-6.0184197425842285,77.34869384765625,-0.19646503971928034,2.8825438171291817,-93.01441203234951,-19.324583,2.691723,-4.776999,27.80307,-11.049125,-6.732124,4.632725,-20.7843,-32.7304,33.58699,-9.980631,15.000033,16.752842,-6.0255456,15.818806,11.5597725,30.444973,-36.894062,47.99965,11.495362,1.5555432,8.734477,-51.832382,-14.0411,79.07629,29.125315,0.092494786,2.0087013,-4.7703457
226,6.385478496551514,-5.963129043579102,77.3967514038086,-0.07821649052942524,2.824360041315269,-93.80215306782948,-18.872633,2.936726,-4.039226,27.279345,-10.918802,-6.701262,4.5638604,-20.70208,-32.03739,32.85563,-9.945104,15.000033,16.2409,-6.1237454,15.485117,10.49309,30.768929,-37.64008,48.007298,11.795319,1.2204729,8.633336,-51.74903,-14.728372,79.0856,29.019966,0.24397083,1.8962489,-4.8169346
227,6.405269145965576,-5.905152797698975,77.44869232177734,0.03477912461771555,2.769733711151919,-94.57828929814522,-18.415392,3.1786888,-3.3129778,26.73714,-10.778777,-6.6782737,4.4948473,-20.607481,-31.330261,32.124546,-9.9051,15.000033,15.738311,-6.2069993,15.155518,9.450752,31.11332,-38.356987,48.015285,11.98601,0.8878857,8.423763,-51.626556,-15.422701,79.08407,28.885733,0.42062625,1.776041,-4.827663
228,6.420534133911133,-5.8478922843933105,77.49783325195312,0.15048124853032085,2.7130233369452315,-95.3468775111446,-17.939428,3.4121306,-2.58642,26.162914,-10.627612,-6.6637774,4.434253,-20.516705,-30.648584,31.404737,-9.873921,15.000033,15.256751,-6.2887607,14.848188,8.4667225,31.463606,-38.97755,47.990364,12.087496,0.6318829,8.168335,-51.487293,-16.121603,79.068886,28.740946,0.618131,1.663646,-4.855736
229,6.426393032073975,-5.783563613891602,77.548095703125,0.26919289692194237,2.6521666106732065,-96.11303506529956,-17.43634,3.6388476,-1.8534219,25.545576,-10.464447,-6.658517,4.379219,-20.429937,-29.984564,30.69726,-9.848205,15.000033,14.797011,-6.3649244,14.564569,7.5521603,31.80873,-39.46119,47.92937,12.071756,0.47705102,7.833338,-51.317875,-16.824745,79.04399,28.583412,0.8405369,1.5533904,-4.9086847
230,6.421499729156494,-5.713583469390869,77.59300231933594,0.3868321390555363,2.5902722253265984,-96.87355997770307,-16.916874,3.8605883,-1.1216322,24.898087,-10.290276,-6.6617546,4.325454,-20.339355,-29.323175,29.99909,-9.824291,15.000033,14.353024,-6.428564,14.296263,6.68047,32.14777,-39.850506,47.86412,11.943907,0.38277638,7.4031706,-51.127617,-17.529503,79.01901,28.412271,1.1038594,1.4418314,-4.9599757
231,6.422262668609619,-5.652130126953125,77.64027404785156,0.5056207493002838,2.5295871783826214,-97.61981929022865,-16.389122,4.0713196,-0.39829102,24.22845,-10.10483,-6.6721034,4.2818823,-20.250807,-28.695765,29.306274,-9.808432,15.000033,13.911486,-6.487002,14.039151,5.851496,32.480556,-40.187153,47.802547,11.7760725,0.32524136,6.967163,-50.906113,-18.233418,78.97795,28.229818,1.3541564,1.341064,-5.0119314
232,6.405758857727051,-5.5822038650512695,77.68527221679688,0.6282333168183946,2.472513971774667,-98.34310215701625,-15.866785,4.26538,0.30863434,23.555975,-9.909342,-6.6878414,4.2546186,-20.172926,-28.131273,28.620388,-9.8108425,15.000033,13.451626,-6.5467935,13.785384,5.064838,32.807396,-40.51544,47.754078,11.631087,0.27885854,6.6141677,-50.603897,-18.937784,78.89042,28.02511,1.4949417,1.263307,-5.06711
233,6.389697074890137,-5.509688377380371,77.72640228271484,0.7530376248544981,2.421035095513607,-99.03804980304544,-15.3564825,4.44269,0.99108684,22.884338,-9.702016,-6.708396,4.2464604,-20.102898,-27.644533,27.936396,-9.83237,15.000033,12.987064,-6.61263,13.543471,4.298015,33.130165,-40.858902,47.734642,11.519855,0.25205398,6.3733096,-50.314472,-19.634485,78.782326,27.826935,1.6396964,1.2142733,-5.120135
234,6.366219520568848,-5.4357523918151855,77.7640151977539,0.8791024499905709,2.3734310872048647,-99.71065195169598,-14.850782,4.606693,1.6547914,22.20369,-9.482627,-6.734139,4.251251,-20.040236,-27.217583,27.257835,-9.869204,15.000033,12.5176,-6.6791067,13.309769,3.5713205,33.446644,-41.179596,47.729454,11.417503,0.25318894,6.1952934,-49.995213,-20.321857,78.645905,27.626547,1.7597234,1.1857497,-5.171599
235,6.337054252624512,-5.355065822601318,77.79552459716797,1.008685125649223,2.3262070992208352,-100.36834056577993,-14.34289,4.758175,2.3115451,21.515974,-9.256452,-6.7644725,4.2657204,-19.98678,-26.833527,26.590693,-9.920138,15.000033,12.05034,-6.7448173,13.08446,2.8696132,33.758003,-41.4941,47.73761,11.312455,0.25580224,6.055154,-49.64417,-20.998194,78.48838,27.430197,1.8115475,1.1752836,-5.2332315
236,6.299564361572266,-5.276193141937256,77.82674407958984,1.1439483765921514,2.2759093236057955,-101.01836501647779,-13.8245125,4.89703,2.973409,20.82023,-9.027643,-6.798845,4.285105,-19.946913,-26.474346,25.945253,-9.984676,15.000033,11.595984,-6.808822,12.867138,2.2003343,34.06416,-41.796844,47.741154,11.218087,0.23452261,5.927447,-49.256203,-21.662989,78.31353,27.244265,1.750969,1.180337,-5.316491
237,6.262626647949219,-5.20493221282959,77.8544921875,1.282872811774795,2.2209090547597454,-101.65734601644282,-13.293829,5.02422,3.636863,20.116089,-8.797211,-6.839658,4.3243155,-19.915861,-26.160286,25.302605,-10.055293,15.000033,11.148628,-6.8685904,12.657165,1.5576324,34.367535,-42.10697,47.749798,11.1318,0.17383505,5.8154507,-48.832077,-22.31473,78.133156,27.068262,1.539038,1.2025553,-5.437531
238,6.22349214553833,-5.124619960784912,77.87797546386719,1.4250144615514964,2.1632211059633537,-102.2830481376604,-12.755094,5.139821,4.2972426,19.4036,-8.562759,-6.8860655,4.3761883,-19.89623,-25.891401,24.673365,-10.138463,15.000033,10.706334,-6.926128,12.454658,0.9507296,34.667984,-42.409504,47.760044,11.059123,0.09063829,5.7293835,-48.373028,-22.952454,77.94094,26.901289,1.2084467,1.2431811,-5.585473
239,6.181214809417725,-5.046622276306152,77.90099334716797,1.5749591675431356,2.1049356054899238,-102.9049160050476,-12.208104,5.2409525,4.96525,18.679628,-8.322266,-6.9328623,4.42092,-19.892197,-25.625923,24.072702,-10.240149,15.000033,10.282393,-6.9867854,12.26141,0.38778907,34.961987,-42.669865,47.751583,11.000616,0.0068331114,5.6540427,-47.87505,-23.576591,77.71534,26.74535,0.82267076,1.2990773,-5.7319593
240,6.136578559875488,-4.96352481842041,77.9216079711914,1.7375591622817512,2.048339425181292,-103.53242650555435,-11.652317,5.3244643,5.651639,17.941126,-8.073205,-6.974905,4.4412346,-19.903963,-25.323229,23.510382,-10.363364,15.000033,9.889562,-7.055994,12.078725,-0.1267262,35.244614,-42.855972,47.708904,10.954297,-0.05551096,5.5749807,-47.334972,-24.188795,77.43614,26.601767,0.44543523,1.366669,-5.8483467
