liuchenxu125/GMR/soma-retargeter/assets/motions/csv/Neutral_walk_forward_002__A057.csv
Frame,root_translateX,root_translateY,root_translateZ,root_rotateX,root_rotateY,root_rotateZ,left_hip_pitch_joint_dof,left_hip_roll_joint_dof,left_hip_yaw_joint_dof,left_knee_joint_dof,left_ankle_pitch_joint_dof,left_ankle_roll_joint_dof,right_hip_pitch_joint_dof,right_hip_roll_joint_dof,right_hip_yaw_joint_dof,right_knee_joint_dof,right_ankle_pitch_joint_dof,right_ankle_roll_joint_dof,waist_yaw_joint_dof,waist_roll_joint_dof,waist_pitch_joint_dof,left_shoulder_pitch_joint_dof,left_shoulder_roll_joint_dof,left_shoulder_yaw_joint_dof,left_elbow_joint_dof,left_wrist_roll_joint_dof,left_wrist_pitch_joint_dof,left_wrist_yaw_joint_dof,right_shoulder_pitch_joint_dof,right_shoulder_roll_joint_dof,right_shoulder_yaw_joint_dof,right_elbow_joint_dof,right_wrist_roll_joint_dof,right_wrist_pitch_joint_dof,right_wrist_yaw_joint_dof
0,0.01783553697168827,1.9319570064544678,78.62942504882812,2.1675785392363185,6.359387547997694,-107.91956212955695,7.78383,-4.250161,23.386148,6.5373883,-10.04238,-3.681938,-12.668087,-18.34477,-0.14215565,52.703022,-3.9425898,10.1409,-1.476699,-3.4464042,4.2797403,3.1905253,21.462088,-35.83204,53.511738,2.5965936,3.2177846,3.7827225,-1.0759056,-22.579924,52.938652,53.57684,10.444689,2.3546987,-11.667878
1,0.06842286884784698,1.7351876497268677,78.53133392333984,2.2549254315643843,6.290504533196277,-107.96229101752746,8.037956,-4.4628315,23.344608,6.536073,-10.293131,-3.7290099,-14.619846,-18.654364,0.13178499,55.97189,-2.9730432,8.467115,-1.6533182,-3.570562,4.46273,2.898686,21.511318,-35.869617,52.787415,2.764887,3.2848313,3.6066368,-1.0342824,-22.623518,52.997932,53.514034,10.378285,2.3267732,-11.6909895
2,0.12344618141651154,1.543096661567688,78.42364501953125,2.347594355904059,6.21987898860107,-107.99930367667763,8.293215,-4.680956,23.295847,6.532438,-10.5316105,-3.7749724,-16.57527,-19.031013,0.3823613,59.24972,-2.0021417,6.757727,-1.829296,-3.7010944,4.6443014,2.6106443,21.558289,-35.907402,52.068867,2.9054105,3.3521314,3.4264443,-0.99644846,-22.654238,53.062027,53.466557,10.313028,2.3005793,-11.7206
3,0.17272678017616272,1.3516417741775513,78.3056869506836,2.4433067222219615,6.151931491203912,-108.03036367008418,8.549517,-4.9031787,23.243921,6.528645,-10.7898,-3.8203351,-18.527552,-19.466175,0.57497996,62.442707,-1.0645828,4.907967,-2.02536,-3.8373423,4.8225737,2.328171,21.62171,-35.945137,51.321365,3.1013196,3.4205673,3.250265,-0.960515,-22.686308,53.120243,53.413994,10.242667,2.2691038,-11.738131
4,0.22190333902835846,1.1494768857955933,78.18063354492188,2.5335822198957,6.090654920634726,-108.0543500223689,8.808304,-5.1228538,23.191833,6.5257545,-11.100506,-3.8651445,-20.46347,-19.942488,0.6663101,65.45307,-0.18714072,2.8189857,-2.260554,-3.9811792,5.0065775,2.0791323,21.764711,-35.977604,50.454857,3.4317768,3.493478,3.0801878,-0.9188779,-22.740927,53.150402,53.313038,10.156333,2.2258449,-11.723107
5,0.28113213181495667,0.9418227672576904,78.0509262084961,2.618263570448523,6.035893653890683,-108.07801922446747,9.07552,-5.3475976,23.135925,6.5206647,-11.482809,-3.8965669,-22.442814,-20.607107,0.5248168,68.38361,0.82426196,0.0863239,-2.5435586,-4.1254826,5.1768785,1.8276768,21.914822,-36.008915,49.54905,4.001298,3.5674787,2.9215145,-0.89208305,-22.78007,53.14946,53.224525,10.034227,2.1451702,-11.643555
6,0.32797771692276,0.7207914590835571,77.9058837890625,2.7030761398187018,5.983216587584415,-108.09420215528928,9.349691,-5.580336,23.071285,6.5144863,-11.916313,-3.91538,-24.44342,-21.471634,0.18965323,71.239075,1.8957262,-3.155442,-2.8674388,-4.2771187,5.340394,1.5865735,22.087755,-36.039154,48.592804,4.7374363,3.6425705,2.7690105,-0.8754432,-22.80768,53.126522,53.140587,9.888563,2.0382087,-11.519075
7,0.38189560174942017,0.4959643483161926,77.76142120361328,2.7826386565740755,5.9329285798522164,-108.09000217962951,9.621457,-5.800152,23.006401,6.5112524,-12.371844,-3.9480617,-26.32932,-22.21059,-0.08507718,73.782555,2.6411552,-6.095962,-3.2188344,-4.418154,5.496966,1.3082399,22.257326,-36.081993,47.645336,5.4862175,3.7130485,2.6326609,-0.85950017,-22.821562,53.089108,53.071915,9.740668,1.9486067,-11.409589
8,0.41305381059646606,0.2690064609050751,77.60095977783203,2.8447999463108875,5.89078831080271,-108.0649934350568,9.877935,-5.979102,22.963493,6.510379,-12.817283,-4.023491,-27.979866,-22.37213,0.004495491,75.794205,2.7349925,-7.809725,-3.5684986,-4.5398245,5.65651,0.9911889,22.470121,-36.14706,46.676296,6.0826073,3.7784693,2.515692,-0.82739234,-22.827328,53.034622,52.99736,9.610832,1.9204249,-11.373625
9,0.43674343824386597,0.03538237512111664,77.44955444335938,2.8854188205528137,5.859424235928818,-108.03184293849488,10.1093855,-6.101302,22.98933,6.5143247,-13.257677,-4.186051,-29.327276,-21.572367,0.71501064,77.189674,1.9019225,-7.658772,-3.903886,-4.6322083,5.810315,0.6104463,22.700455,-36.240948,45.710613,6.472431,3.840861,2.4192998,-0.7792526,-22.82471,52.97514,52.919483,9.487846,1.9950846,-11.446072
10,0.44203224778175354,-0.18997381627559662,77.30233764648438,2.9089919489540312,5.835234685845489,-107.98947074644968,10.325966,-6.1816106,23.062777,6.5209465,-13.703244,-4.4115124,-30.43184,-20.088022,1.8010194,78.12798,0.36023456,-6.228611,-4.2370877,-4.7016063,5.959201,0.17554042,22.94085,-36.3605,44.748188,6.7449503,3.9008398,2.341332,-0.7210552,-22.814938,52.907486,52.840065,9.369892,2.1397924,-11.588606
11,0.4398267865180969,-0.4150533974170685,77.16059112548828,2.913818653856528,5.8182674614605965,-107.92373643438242,10.540531,-6.234772,23.1099,6.5306845,-14.137969,-4.6279655,-31.389189,-18.421423,2.8438566,78.74768,-1.4344728,-4.4025083,-4.5777087,-4.7497487,6.1119337,-0.28984106,23.206976,-36.494534,43.785645,6.964231,3.9533567,2.2869022,-0.6469474,-22.79666,52.808678,52.766453,9.278342,2.287283,-11.751805
12,0.45913267135620117,-0.6581085920333862,77.04724884033203,2.892037861242167,5.814494571810493,-107.83106537754801,10.757087,-6.270853,23.066502,6.5427704,-14.544342,-4.763252,-32.330906,-17.005272,3.5074265,79.16642,-2.9400682,-2.9799995,-4.9282165,-4.7668624,6.2673216,-0.78411627,23.478806,-36.630512,42.86286,7.2017946,3.990484,2.2637398,-0.55694556,-22.767597,52.66855,52.71289,9.245347,2.3701406,-11.886479
13,0.47307536005973816,-0.904273509979248,76.93510437011719,2.8308968499200686,5.832003175693001,-107.70844564762412,10.974521,-6.284389,22.894693,6.5609508,-14.92398,-4.7800584,-33.297756,-15.852209,3.7741597,79.37705,-3.990534,-2.0343778,-5.288276,-4.7381372,6.4209094,-1.3254178,23.751778,-36.783875,41.996536,7.4495306,4.0038095,2.283538,-0.4463338,-22.725266,52.467655,52.679314,9.306267,2.3551624,-11.99228
14,0.46329665184020996,-1.145857810974121,76.82067108154297,2.738041172038916,5.866331443245064,-107.55997449100869,11.189794,-6.273813,22.63603,6.58371,-15.28375,-4.720528,-34.235363,-14.772855,3.8296642,79.3155,-4.865867,-1.1808368,-5.6546755,-4.6705904,6.573436,-1.9165183,24.023638,-36.956806,41.17716,7.6806045,3.999139,2.3405309,-0.31604633,-22.668568,52.217564,52.661922,9.436173,2.2830663,-12.091196
15,0.4642796218395233,-1.4167015552520752,76.72071838378906,2.6320395265691263,5.908543007181747,-107.40173499682561,11.402013,-6.2468286,22.353199,6.6073065,-15.620927,-4.633102,-35.1422,-13.813972,3.6943538,79.006905,-5.6316514,-0.45406482,-6.0172386,-4.5865245,6.728696,-2.5319557,24.289158,-37.121178,40.39949,7.9304843,3.9906056,2.4164376,-0.17589283,-22.598259,51.950386,52.676434,9.568087,2.1967988,-12.168201
16,0.47264713048934937,-1.7029842138290405,76.62866973876953,2.532162954903117,5.949552921106913,-107.24946039999733,11.611359,-6.213553,22.109709,6.627796,-15.934889,-4.5669703,-36.0128,-13.02396,3.3850129,78.47787,-6.352252,0.1120092,-6.3673553,-4.5073442,6.890052,-3.1426313,24.54141,-37.244396,39.657867,8.238338,3.9921067,2.4924273,-0.03518984,-22.515156,51.699833,52.735664,9.636698,2.1400292,-12.208756
17,0.47113218903541565,-1.9997113943099976,76.54191589355469,2.4469162010240963,5.982745756972433,-107.10275157028838,11.817749,-6.1786766,21.92134,6.6437383,-16.223913,-4.527607,-36.836002,-12.439572,2.8678145,77.721275,-7.0416365,0.5048617,-6.714017,-4.4413853,7.062255,-3.7493484,24.775375,-37.323135,38.979027,8.6260195,3.9943247,2.5853317,0.10315767,-22.417864,51.461647,52.856762,9.601398,2.1174746,-12.194264
18,0.45506343245506287,-2.296309232711792,76.46202850341797,2.363920144416403,6.014833790282723,-106.9556939667892,12.022862,-6.134282,21.755293,6.6567492,-16.490356,-4.491887,-37.61302,-12.018319,2.1550407,76.722565,-7.657231,0.7569893,-7.058584,-4.3742576,7.2403383,-4.367232,24.989353,-37.37133,38.36509,9.07111,3.994075,2.698104,0.24362966,-22.305254,51.223488,53.03033,9.503952,2.108293,-12.137709
19,0.4415086507797241,-2.601227283477783,76.38903045654297,2.2704868502324924,6.057144292785373,-106.81586800904921,12.220198,-6.0725627,21.604506,6.670122,-16.73408,-4.4673886,-38.347946,-11.676931,1.3225974,75.49443,-8.177116,0.90046924,-7.3818736,-4.291433,7.412943,-4.992833,25.18288,-37.385174,37.77686,9.54246,4.014129,2.79079,0.38497278,-22.180527,51.01125,53.23158,9.406831,2.117827,-12.0719
20,0.4152557849884033,-2.912060260772705,76.32518768310547,2.1550514370987996,6.12065492026363,-106.69048274627634,12.40656,-5.9848113,21.460665,6.6835303,-16.954628,-4.4618015,-39.047787,-11.336377,0.44677395,74.05162,-8.582259,0.96512926,-7.6672215,-4.179464,7.5688753,-5.6183867,25.357046,-37.35639,37.17106,10.010261,4.0763764,2.8228726,0.52586806,-22.050413,50.851303,53.433685,9.370562,2.1516507,-12.029727
21,0.38983815908432007,-3.2335174083709717,76.26730346679688,2.0142244701189895,6.210897486264807,-106.57637548627987,12.575561,-5.8656344,21.317877,6.697694,-17.143776,-4.477284,-39.71606,-11.009851,-0.5086556,72.38988,-8.884524,0.9087307,-7.9057026,-4.0288653,7.703092,-6.2527585,25.505821,-37.28079,36.54347,10.474677,4.210165,2.7677813,0.67961276,-21.92498,50.742504,53.61325,9.428304,2.2361414,-12.025736
22,0.34981679916381836,-3.5702028274536133,76.21036529541016,1.85352317004616,6.3210713769917435,-106.47200982316447,12.7302475,-5.719902,21.182735,6.7124887,-17.304949,-4.510513,-40.335316,-10.711353,-1.5704958,70.496376,-9.0878,0.74609333,-8.105832,-3.8437572,7.8232093,-6.905397,25.62176,-37.166733,35.925835,10.94894,4.3940954,2.65189,0.8544249,-21.815075,50.667854,53.77092,9.540021,2.3614337,-12.040102
23,0.3100355565547943,-3.9147238731384277,76.1595687866211,1.6750952529138385,6.443645299075614,-106.38633125098904,12.881091,-5.55234,21.064402,6.7260714,-17.452879,-4.56112,-40.88865,-10.3731365,-2.647613,68.37549,-9.161615,0.5814323,-8.283959,-3.6437404,7.938969,-7.5325856,25.745205,-37.00896,35.27814,11.423492,4.5763674,2.5109954,1.0071671,-21.686953,50.651123,53.960083,9.66949,2.4754252,-12.055518
24,0.2723190188407898,-4.264614582061768,76.11064147949219,1.4805199404373948,6.571202342809922,-106.3277235595094,13.039417,-5.3678336,20.971575,6.7377625,-17.603651,-4.62834,-41.36263,-9.930847,-3.645673,66.02589,-9.070643,0.5142178,-8.444185,-3.4237015,8.057054,-8.149333,25.836386,-36.823357,34.644966,11.898174,4.7018523,2.3882155,1.1440663,-21.588993,50.702866,54.15491,9.790123,2.5328543,-12.052342
25,0.22512152791023254,-4.62668514251709,76.06126403808594,1.258407745725646,6.703148324124534,-106.3118336013244,13.207173,-5.1560025,20.915136,6.746694,-17.75758,-4.7205696,-41.749844,-9.353057,-4.557187,63.40602,-8.779098,0.5566152,-8.603088,-3.188788,8.183516,-8.690771,25.945686,-36.553238,33.95695,12.393136,4.7549953,2.2687786,1.2165463,-21.472818,50.870415,54.427063,9.932519,2.4895735,-12.046349
26,0.1818849742412567,-4.998763084411621,76.0096206665039,1.0127222153302888,6.8419107253462474,-106.32861573666769,13.379867,-4.919291,20.88658,6.754204,-17.907768,-4.8348536,-42.051937,-8.675692,-5.4248805,60.514877,-8.308247,0.6598144,-8.744713,-2.9326336,8.314263,-9.194521,26.049074,-36.223618,33.24405,12.903574,4.764412,2.142238,1.2619934,-21.366892,51.12187,54.72793,10.101306,2.3831093,-12.039364
27,0.13126644492149353,-5.383947372436523,75.95048522949219,0.7684323129988176,6.984343169076272,-106.34638548285523,13.558348,-4.682648,20.86389,6.759954,-18.056602,-4.953486,-42.27127,-7.9445095,-6.226379,57.40716,-7.7047434,0.82375884,-8.887932,-2.6769483,8.444841,-9.685406,26.1531,-35.883804,32.522327,13.380202,4.747966,2.0408354,1.2908568,-21.270344,51.41951,55.025486,10.222262,2.2777076,-11.997023
28,0.07381171733140945,-5.780038356781006,75.88701629638672,0.5516110693010678,7.127523660140298,-106.33355877738002,13.741844,-4.471296,20.825552,6.766073,-18.206861,-5.0587173,-42.412727,-7.209153,-6.9370093,54.139114,-7.015995,1.0467503,-9.046371,-2.445571,8.571005,-10.190818,26.266186,-35.590088,31.807766,13.771757,4.7247453,1.9971775,1.3198088,-21.181438,51.716236,55.284096,10.215509,2.2376342,-11.885402
29,0.022471124306321144,-6.182926177978516,75.81640625,0.3614833864837173,7.2723392545522385,-106.29136074600181,13.929156,-4.285811,20.774479,6.7729516,-18.36609,-5.137952,-42.46145,-6.4570775,-7.5449286,50.65236,-6.2217393,1.3309557,-9.212607,-2.2390618,8.694812,-10.718804,26.38834,-35.355442,31.096924,14.062314,4.688093,2.0289905,1.3482354,-21.101812,52.01501,55.488605,10.025949,2.2945645,-11.668634
30,-0.04835435748100281,-6.589730262756348,75.73941040039062,0.18988983929859296,7.417472074619846,-106.229584135517,14.123059,-4.117509,20.715075,6.7792315,-18.529953,-5.2026596,-42.406456,-5.677456,-8.057372,46.915882,-5.295153,1.6715132,-9.36261,-2.0450852,8.817216,-11.292993,26.487284,-35.18446,30.422285,14.279129,4.632768,2.1204534,1.3963066,-21.048763,52.304623,55.635704,9.699954,2.409597,-11.371626
31,-0.12531189620494843,-7.0015668869018555,75.65113067626953,0.053465858953703205,7.557069471419755,-106.12863794247012,14.331731,-3.9788,20.627373,6.786261,-18.687904,-5.271282,-42.259953,-4.9241247,-8.4808655,43.027744,-4.2797747,2.055504,-9.577517,-1.8904477,8.942955,-11.804651,26.650269,-34.99193,29.682383,14.433692,4.580999,2.2348888,1.4062673,-20.974617,52.63626,55.796814,9.337526,2.5356774,-11.058209
32,-0.20763663947582245,-7.421550750732422,75.55142974853516,-0.03307299320571088,7.684232701820862,-105.96717724274909,14.564365,-3.88079,20.489956,6.7913675,-18.8258,-5.3614182,-42.033287,-4.2489347,-8.827954,39.08375,-3.2151124,2.4722703,-9.818254,-1.7816398,9.071124,-12.328773,26.838264,-34.86069,28.953371,14.52972,4.555389,2.3583457,1.4439214,-20.90206,52.909126,55.936703,9.009423,2.633066,-10.784111
33,-0.2987968623638153,-7.856407165527344,75.43547821044922,-0.059273217238719866,7.800435816391837,-105.72569010148847,14.817591,-3.8300924,20.295067,6.796395,-18.940077,-5.4792466,-41.69591,-3.6562808,-9.097233,34.971077,-2.0002365,2.9734027,-10.077092,-1.7065567,9.189498,-12.946714,26.967577,-34.835945,28.320835,14.557583,4.5799,2.5026968,1.5417713,-20.862217,53.095867,56.029697,8.715764,2.704177,-10.559835
34,-0.3934176564216614,-8.308436393737793,75.30826568603516,-0.02188126028604215,7.89878229172102,-105.40417341461544,15.098988,-3.8307226,20.037973,6.798802,-19.03576,-5.612107,-41.223606,-3.1412737,-9.280588,30.643253,-0.6312397,3.5463524,-10.415308,-1.7066092,9.325406,-13.493563,27.214048,-34.82631,27.568443,14.494426,4.6419535,2.6643062,1.6237571,-20.797117,53.27873,56.119957,8.426896,2.7629688,-10.358732
35,-0.49235060811042786,-8.77803897857666,75.16962432861328,0.07830686938483432,7.960359788229089,-105.01251934377837,15.429291,-3.883043,19.703917,6.802956,-19.120733,-5.7496476,-40.645344,-2.7352629,-9.393458,26.314285,0.70017576,4.089228,-10.803315,-1.7687733,9.479741,-14.037335,27.474968,-34.850666,26.850819,14.405531,4.68963,2.8253071,1.7272506,-20.737286,53.420853,56.190033,8.161784,2.8009126,-10.176795
36,-0.5890752673149109,-9.254646301269531,75.01649475097656,0.23562504765287168,7.971296047575905,-104.56860170628308,15.826044,-3.9837704,19.285496,6.80694,-19.1986,-5.882687,-40.01798,-2.4612179,-9.459356,22.246078,1.7809522,4.50247,-11.243321,-1.8957219,9.657747,-14.554386,27.747278,-34.877613,26.206635,14.33951,4.674806,2.9628873,1.8447767,-20.680683,53.53827,56.254936,7.9528193,2.8063579,-10.013658
37,-0.6933916211128235,-9.756781578063965,74.84396362304688,0.45542540383465724,7.930675013473949,-104.08108592830516,16.29126,-4.142661,18.783451,6.8104877,-19.277386,-6.0115285,-39.371067,-2.3350081,-9.49521,18.464123,2.5131097,4.6881266,-11.736959,-2.1016755,9.8558855,-15.038612,28.030655,-34.888287,25.642693,14.322208,4.5651546,3.057117,1.9722403,-20.625708,53.64349,56.323452,7.8079457,2.7434473,-9.870138
38,-0.8008471727371216,-10.280858993530273,74.65928649902344,0.7384012421189353,7.842899223378239,-103.53873256781162,16.81646,-4.355127,18.19853,6.8158994,-19.352196,-6.1399355,-38.687782,-2.339366,-9.501477,14.880924,3.007724,4.733301,-12.283992,-2.3784044,10.066785,-15.51592,28.305185,-34.904896,25.165646,14.328243,4.390636,3.1255186,2.1177864,-20.57526,53.726837,56.38719,7.710263,2.6300857,-9.747226
39,-0.9176972508430481,-10.817729949951172,74.46498107910156,1.0543918401961136,7.7167625665761985,-102.95194171374143,17.39454,-4.5834074,17.546412,6.822456,-19.410343,-6.267454,-37.969223,-2.4224865,-9.476193,11.580599,3.3695154,4.8085356,-12.868221,-2.6905532,10.292441,-15.961003,28.603752,-34.941418,24.730238,14.318815,4.2032385,3.1991632,2.270055,-20.521513,53.77817,56.444542,7.657179,2.5333865,-9.643261
40,-1.033951997756958,-11.36656665802002,74.26766967773438,1.3634811646618543,7.570175179981322,-102.34351709351252,18.002779,-4.7799883,16.85776,6.8338504,-19.437662,-6.396219,-37.2016,-2.5219755,-9.412487,8.596774,3.739265,5.07191,-13.456834,-2.9838097,10.523911,-16.377226,28.915909,-35.01915,24.339777,14.265651,4.0519133,3.3106349,2.4314632,-20.463541,53.776104,56.487972,7.639043,2.521508,-9.55679
41,-1.1613208055496216,-11.928727149963379,74.06997680664062,1.6669147367183148,7.39928426507822,-101.71505408109027,18.651337,-4.9473424,16.13767,6.845704,-19.446545,-6.5212293,-36.75877,-2.711213,-9.299279,6.7504687,3.6374376,5.667771,-14.033856,-3.2515788,10.761397,-16.802773,29.2126,-35.170395,24.02772,14.1505165,3.955788,3.4844196,2.6142788,-20.404749,53.68277,56.493557,7.669374,2.6730416,-9.474521
42,-1.2948228120803833,-12.512137413024902,73.87237548828125,1.9573847520934553,7.2182286802968685,-101.08938773377228,19.324947,-5.085326,15.406467,6.8588357,-19.440239,-6.6486225,-37.00033,-3.0323658,-9.114899,6.7218533,2.6548343,6.4671636,-14.582081,-3.4979804,10.99739,-17.228073,29.51429,-35.383125,23.776855,13.986099,3.88694,3.700403,2.8144937,-20.339684,53.51058,56.472725,7.7427797,2.9311287,-9.401361
43,-1.4327552318572998,-13.10991096496582,73.68889617919922,2.1807306335826016,7.076191361847401,-100.52395275606725,19.967,-5.1469564,14.72384,6.8710413,-19.385513,-6.797677,-37.13818,-3.257358,-8.872056,6.7169094,1.8853778,7.2082014,-15.063305,-3.6604514,11.19555,-17.633451,29.7774,-35.60964,23.624193,13.82952,3.8181012,3.9238274,3.011156,-20.278244,53.33239,56.481064,7.8400884,3.1620188,-9.363851
44,-1.5695923566818237,-13.731654167175293,73.52201080322266,2.284193841436892,7.021860341233541,-100.072852917893,20.5271,-5.0892878,14.148038,6.877913,-19.252554,-6.988222,-37.211514,-3.2993023,-8.538822,6.727446,1.4765105,7.6335063,-15.441768,-3.6750538,11.322637,-17.99978,29.959412,-35.802597,23.606367,13.736877,3.722685,4.11958,3.1831467,-20.233526,53.224117,56.572388,7.9473276,3.2318308,-9.387987
45,-1.6965113878250122,-14.376656532287598,73.38268280029297,2.2390800374367394,7.0765564180945235,-99.77019873781155,20.985184,-4.8927727,13.724771,6.8833485,-19.052452,-7.240386,-37.20236,-3.0964155,-8.021969,6.757612,1.5220401,7.692576,-15.673156,-3.5360088,11.388949,-18.289572,30.176586,-35.982746,23.624128,13.671052,3.5881603,4.285353,3.3248773,-20.177284,53.197433,56.77876,8.0586,3.036429,-9.520497
46,-1.8259122371673584,-15.045778274536133,73.2584457397461,2.0770632214803935,7.210879111817691,-99.58110747991506,21.379986,-4.590017,13.418777,6.878916,-18.79383,-7.541822,-37.096207,-2.705193,-7.362405,6.812084,1.9257581,7.5256276,-15.815529,-3.2469807,11.3960905,-18.531773,30.318129,-36.11506,23.769892,13.665701,3.4232857,4.4284453,3.4375515,-20.140173,53.25777,57.07498,8.200621,2.672135,-9.735751
47,-1.9744044542312622,-15.70089340209961,73.17855072021484,1.8392289760106584,7.39691934804744,-99.45238019890925,21.731018,-4.21203,13.164769,6.871793,-18.452604,-7.866449,-37.193146,-2.2477715,-6.7159905,7.4267693,2.2631025,7.1591344,-15.893839,-2.8669155,11.368659,-18.719719,30.433945,-36.229324,23.990995,13.687682,3.2670925,4.5614367,3.5325162,-20.105936,53.31574,57.39476,8.331109,2.2959886,-9.941292
48,-2.117577075958252,-16.375221252441406,73.10761260986328,1.5652622676213843,7.608744025157417,-99.33351695957427,22.056149,-3.7864158,12.898547,6.8594856,-17.995646,-8.189586,-38.168304,-1.8793768,-6.2338514,9.928453,1.6884196,6.6072288,-15.960551,-2.4268472,11.318166,-18.83682,30.477211,-36.287426,24.297594,13.770961,3.1484337,4.682423,3.6094415,-20.089388,53.319267,57.67694,8.425164,2.0690196,-10.046384
49,-2.2748193740844727,-17.107730865478516,73.03829956054688,1.245478331149239,7.872824309480212,-99.22888236233524,22.327682,-3.2963126,12.628725,6.8469534,-17.444191,-8.508531,-39.095516,-1.490332,-6.0289917,12.292002,1.2941835,5.7074313,-16.000547,-1.9366546,11.221949,-18.886126,30.50838,-36.342857,24.665535,13.886179,3.083331,4.802595,3.6745203,-20.069155,53.235992,57.898067,8.460388,2.056125,-10.003313
50,-2.4378647804260254,-17.85967254638672,72.98834991455078,0.879932347188682,8.178221043140422,-99.14174902490784,22.563328,-2.7467048,12.362255,6.8319783,-16.804523,-8.837862,-40.0493,-1.0879899,-6.0091634,14.773623,1.000875,4.5072236,-15.970457,-1.3988959,11.103729,-18.891684,30.543734,-36.42753,25.083452,14.03423,3.0517905,4.91274,3.7418182,-20.015291,53.023037,58.098988,8.418174,2.163387,-9.862009
51,-2.619478940963745,-18.610963821411133,72.9780044555664,0.5178404219463993,8.458879543250562,-99.03608278599485,22.83192,-2.1948512,12.048593,6.809668,-16.030605,-9.175558,-40.892746,-0.7283901,-6.0938683,17.159,0.8222485,3.318623,-15.960423,-0.85418206,11.000995,-18.80889,30.545012,-36.455875,25.541477,14.193163,3.0522146,5.021456,3.7791054,-19.957191,52.82738,58.321014,8.3910055,2.309327,-9.702892
52,-2.816192865371704,-19.364654541015625,72.98379516601562,0.20903636558199254,8.634282200558255,-98.91995891510017,23.172419,-1.7024856,11.679675,6.8719945,-15.13195,-9.516352,-41.509674,-0.4339272,-6.154934,19.287209,0.7486962,2.454668,-15.933932,-0.37284246,10.978229,-18.650984,30.502195,-36.444492,26.020672,14.318321,3.0855663,5.1466913,3.7840283,-19.872196,52.670685,58.614346,8.419653,2.408289,-9.598981
53,-3.005662202835083,-20.139524459838867,72.99751281738281,-0.08730675632698852,8.729526049163487,-98.73760196566704,23.587917,-1.1939445,11.193389,6.9347897,-14.0601635,-9.869762,-41.8725,-0.20630406,-6.238829,21.039988,0.90668875,2.0328548,-15.951841,0.110375755,11.021572,-18.417368,30.40016,-36.374847,26.523293,14.435928,3.1634312,5.263464,3.758699,-19.768631,52.582855,58.981487,8.519716,2.4397593,-9.588609
54,-3.1982357501983643,-20.938514709472656,73.02337646484375,-0.3965700297401457,8.77687798434588,-98.51965273016407,24.036167,-0.6421486,10.633997,7.0161242,-12.844605,-10.234312,-42.07087,-0.020880373,-6.377183,22.577866,1.2308795,1.8626767,-15.984781,0.6196581,11.111203,-18.106674,30.244755,-36.255325,27.054342,14.559488,3.2815912,5.3736486,3.713827,-19.661798,52.526417,59.38408,8.661255,2.449117,-9.62516
55,-3.3766746520996094,-21.75946807861328,73.05625915527344,-0.6980904343711322,8.76391610674167,-98.33278136853723,24.523867,-0.11366113,10.093859,7.1269026,-11.462732,-10.592703,-42.13796,0.15127252,-6.5133033,24.021593,1.4773494,1.7952236,-15.985461,1.1128325,11.250711,-17.719137,30.041212,-36.094215,27.626202,14.62055,3.4151974,5.5299044,3.625308,-19.55856,52.509106,59.831547,8.857301,2.4507895,-9.659405
56,-3.5404391288757324,-22.596506118774414,73.09349060058594,-0.9696754073642254,8.677834702352365,-98.2355765030155,24.512194,0.41872668,9.651188,8.4566765,-10.516247,-10.926034,-42.102985,0.3386173,-6.5978913,25.477875,1.4088887,1.6909714,-15.918028,1.5475972,11.439215,-17.235844,29.787308,-35.883724,28.242596,14.568504,3.5391607,5.7842636,3.4635198,-19.461926,52.546665,60.339767,9.125152,2.4593995,-9.64266
57,-3.685276508331299,-23.435091018676758,73.13436126708984,-1.2259467980207495,8.49763016370559,-98.2538264371859,23.97047,0.95579135,9.297263,11.149542,-10.083814,-11.280968,-41.963516,0.56639236,-6.641735,26.999249,0.9165261,1.558729,-15.782647,1.9337152,11.697135,-16.619207,29.475105,-35.575115,28.894379,14.396122,3.6505647,6.1698112,3.208888,-19.376429,52.648537,60.9466,9.511273,2.457532,-9.560657
58,-3.815770149230957,-24.276174545288086,73.19042205810547,-1.4844526799498436,8.24387569776828,-98.34393769226998,23.46024,1.4551919,8.985854,13.93178,-9.502103,-11.634626,-41.71164,0.8289566,-6.6787477,28.509975,0.14658687,1.4615266,-15.606416,2.3062613,12.009138,-15.886741,29.101347,-35.184315,29.579718,14.133711,3.7598064,6.652051,2.8822315,-19.303885,52.807007,61.627094,9.994473,2.445726,-9.438984
59,-3.958547830581665,-25.117332458496094,73.26062774658203,-1.7316935180505049,7.967068771379529,-98.45701213147942,22.822477,1.952918,8.717693,16.963514,-8.832461,-11.869245,-41.362,1.1098506,-6.702541,29.904387,-0.7419129,1.343659,-15.395044,2.66671,12.320277,-15.126411,28.67717,-34.818497,30.330956,13.766041,3.8608296,7.1829476,2.5177116,-19.24306,53.00326,62.30771,10.482046,2.465091,-9.289705
60,-4.091702938079834,-25.958656311035156,73.34729766845703,-1.9590655479106351,7.721445737891769,-98.54166848914993,21.930023,2.477134,8.496231,20.333475,-8.101605,-11.879678,-40.931202,1.3886126,-6.711808,31.07587,-1.5900687,1.1475246,-15.153398,3.0204813,12.576101,-14.42608,28.223536,-34.5886,31.177814,13.272094,3.947742,7.7151637,2.1482368,-19.189585,53.21859,62.915245,10.88465,2.5557802,-9.125239
61,-4.234325408935547,-26.797887802124023,73.44438171386719,-2.1640372174323885,7.515178822596928,-98.61014603452622,20.763655,3.0191102,8.354064,24.102568,-7.307942,-11.551205,-40.419476,1.6766834,-6.678348,32.004333,-2.392305,0.8302808,-14.860978,3.363313,12.770418,-13.778485,27.753632,-34.50821,32.11873,12.6143875,4.0209746,8.283991,1.7804228,-19.138044,53.448036,63.45397,11.1849575,2.7390616,-8.937226
62,-4.385264873504639,-27.633541107177734,73.56369018554688,-2.3502021304887095,7.321731335681468,-98.68706408887311,19.433306,3.5656872,8.295707,28.119587,-6.394288,-10.969166,-39.825123,1.9841096,-6.6056857,32.75338,-3.2241344,0.4293787,-14.514163,3.689233,12.9289665,-13.135953,27.27087,-34.52358,33.12625,11.8113365,4.0792727,8.899703,1.397951,-19.085554,53.698063,63.956112,11.424382,2.9895833,-8.7233715
63,-4.552067279815674,-28.45696258544922,73.69602966308594,-2.5153104370670607,7.142892244772408,-98.74245104056779,17.999523,4.12635,8.281055,32.175297,-5.306802,-10.336943,-39.162296,2.279302,-6.533974,33.349625,-4.053157,0.00875281,-14.141999,3.9954426,13.046585,-12.523884,26.785984,-34.64214,34.190975,10.924669,4.1161165,9.4774885,0.99441403,-19.032719,53.967728,64.39568,11.601941,3.276226,-8.5049095
64,-4.718704700469971,-29.283109664916992,73.84642028808594,-2.6553549606735336,6.9797731825266816,-98.74683430324137,16.501461,4.7042933,8.260814,36.10894,-4.018366,-9.858357,-38.445007,2.5256968,-6.5012226,33.82277,-4.85104,-0.3655848,-13.771345,4.27582,13.120771,-11.966257,26.312277,-34.872402,35.298164,10.015073,4.129332,9.932426,0.56633997,-18.981611,54.254158,64.7383,11.718069,3.5683439,-8.302603
65,-4.882272720336914,-30.091936111450195,74.01546478271484,-2.742737585164287,6.834131060001794,-98.6729042031642,14.877469,5.2657547,8.170748,40.030457,-2.5057747,-9.565306,-37.669907,2.678243,-6.5110455,34.18583,-5.6403975,-0.6790373,-13.416794,4.5039215,13.1404295,-11.469943,25.862331,-35.24967,36.453392,9.029553,4.1227274,10.284013,0.12967406,-18.932272,54.567394,64.97094,11.787757,3.8505924,-8.140435
66,-5.0562744140625,-30.899200439453125,74.20065307617188,-2.7805740046831353,6.7014706543968625,-98.54966240617269,13.118435,5.804638,8.0547285,44.01628,-0.8081166,-9.3636675,-36.832706,2.7592206,-6.5321684,34.433113,-6.43462,-0.9623855,-13.055216,4.677133,13.11544,-11.0146475,25.441988,-35.756912,37.64879,7.953117,4.0982623,10.5623045,-0.32227555,-18.88352,54.909756,65.10912,11.811488,4.141131,-8.000412
67,-5.233388900756836,-31.6978759765625,74.3832015991211,-2.811640029874689,6.574198026315815,-98.42993272911559,11.328803,6.375066,8.012982,47.8838,0.9943931,-9.257527,-35.942783,2.8344564,-6.553986,34.55461,-7.1853867,-1.2175426,-12.662545,4.8273306,13.073781,-10.577401,25.051767,-36.315273,38.845608,6.909515,4.056793,10.697476,-0.81866056,-18.83722,55.248936,65.15658,11.743682,4.4603896,-7.840273
68,-5.417527675628662,-32.523494720458984,74.57206726074219,-2.8811487839330128,6.445210627311038,-98.3656143402304,9.608132,7.0512285,8.142287,51.46286,2.8146682,-9.2327585,-35.00954,2.974541,-6.56952,34.53906,-7.8418984,-1.4497705,-12.216694,4.991584,13.042692,-10.138955,24.689472,-36.847317,40.007977,6.019928,4.0026283,10.620381,-1.3923965,-18.798626,55.56114,65.11807,11.546373,4.8284755,-7.616973
69,-5.583042621612549,-33.3172607421875,74.75920104980469,-3.016364808367522,6.3166812483153,-98.37220199351512,7.9558473,7.9588885,8.571678,54.784447,4.852848,-9.323969,-34.027046,3.215846,-6.595378,34.35445,-8.377868,-1.6675631,-11.7091,5.1914263,13.028065,-9.703122,24.352873,-37.322834,41.13253,5.313732,3.9407988,10.241702,-2.0640397,-18.770649,55.818455,64.960266,11.177204,5.3324428,-7.240975
70,-5.734658718109131,-34.093101501464844,74.94396209716797,-3.195188984360756,6.189500679442626,-98.42283791023063,6.3198323,9.064553,9.201136,57.959656,7.062557,-9.489095,-32.988827,3.5240772,-6.6327124,34.00767,-8.81878,-1.8686283,-11.154006,5.41052,13.016876,-9.274521,24.0422,-37.781555,42.23418,4.7274423,3.8753705,9.621852,-2.810873,-18.755238,56.043877,64.68726,10.663203,5.931601,-6.75692
71,-5.874244213104248,-34.858097076416016,75.13864135742188,-3.383962792931217,6.056590674751871,-98.5047443591001,4.7231975,10.180939,9.792647,60.919388,8.98696,-9.622549,-31.908237,3.860188,-6.6503754,33.554348,-9.195398,-2.0437682,-10.565261,5.627964,13.00624,-8.837055,23.7585,-38.252647,43.304577,4.240701,3.8065693,8.916722,-3.6009448,-18.756847,56.291996,64.3551,10.078184,6.4567347,-6.325403
72,-6.0213847160339355,-35.613773345947266,75.32627868652344,-3.542155417131425,5.913352363954738,-98.60118185624653,3.174059,11.078697,10.116998,63.591183,10.171195,-9.6614065,-30.80836,4.1733894,-6.617561,33.065536,-9.546163,-2.182076,-9.960994,5.816818,12.991972,-8.371098,23.504095,-38.76077,44.332397,3.8374639,3.7313724,8.281322,-4.4024053,-18.781332,56.618004,64.01804,9.501946,6.743093,-6.111785
73,-6.161798000335693,-36.359004974365234,75.51343536376953,-3.6550624133602407,5.756606797602913,-98.72279611263912,1.6738324,11.637638,10.10696,65.9542,10.405764,-9.640075,-29.70375,4.452938,-6.512376,32.570503,-9.876869,-2.2910879,-9.324425,5.968955,12.974879,-7.8785553,23.283224,-39.32959,45.31267,3.4963417,3.63949,7.7354245,-5.2154036,-18.834517,57.092472,63.693237,8.912543,6.7133536,-6.187635
74,-6.3082122802734375,-37.10202407836914,75.69622039794922,-3.7375142669689674,5.5916546436982735,-98.87062008345315,0.20555559,11.953142,9.901314,68.05486,9.963833,-9.61266,-28.587965,4.7130027,-6.3553596,32.042416,-10.175611,-2.3737185,-8.657897,6.092644,12.955732,-7.36392,23.09767,-39.93528,46.246902,3.2325397,3.5334318,7.202633,-6.050076,-18.91727,57.667385,63.339306,8.280894,6.472304,-6.460493
75,-6.439661026000977,-37.83837890625,75.87890625,-3.7920395035167247,5.42811643641327,-99.01188351017817,-1.2548183,12.105418,9.584724,69.91191,9.117921,-9.557129,-27.455612,4.936227,-6.18144,31.472445,-10.456098,-2.4102657,-8.005564,6.184243,12.930877,-6.8202143,22.945257,-40.54158,47.139236,3.0796838,3.4271276,6.6946583,-6.9003344,-19.026823,58.23453,62.93,7.6972046,6.1291356,-6.850715
76,-6.5742387771606445,-38.57145309448242,76.05867767333984,-3.8237421471228648,5.27506097096552,-99.11602661417808,-2.7308378,12.187209,9.236506,71.54328,8.140717,-9.445544,-26.303082,5.108793,-6.025081,30.853096,-10.731473,-2.3800895,-7.409463,6.241426,12.895647,-6.2430353,22.820942,-41.114456,47.998775,3.0709395,3.3337414,6.223816,-7.7512116,-19.15843,58.669266,62.43888,7.2357917,5.790696,-7.2763896
77,-6.698553085327148,-39.308963775634766,76.23766326904297,-3.8243749352223815,5.140091376343002,-99.16152481587118,-4.2468157,12.1191845,8.770415,72.91477,7.0182667,-9.289799,-25.13475,5.2081056,-5.9023485,30.191214,-11.013729,-2.2616596,-6.8923683,6.2556233,12.841942,-5.62677,22.7211,-41.64825,48.828083,3.2945423,3.2487414,5.7794423,-8.609092,-19.312244,58.966278,61.875008,6.955182,5.429759,-7.7665095
78,-6.805471897125244,-40.05311584472656,76.42169952392578,-3.7965621051750835,5.016148734130749,-99.16901159498168,-5.784151,11.882415,8.18325,74.031525,5.63793,-9.097292,-23.949348,5.248767,-5.797557,29.486816,-11.293818,-2.070684,-6.4267745,6.232132,12.775217,-4.980415,22.644562,-42.16387,49.629898,3.7060246,3.1640925,5.3605227,-9.476759,-19.489862,59.178875,61.25026,6.797113,5.006753,-8.346695
79,-6.93363094329834,-40.82945251464844,76.614501953125,-3.75964255326821,4.891308456200922,-99.16876895139556,-7.2993517,11.668474,7.6670766,74.95308,4.13159,-8.830604,-22.726755,5.2702165,-5.696689,28.709814,-11.548561,-1.8418857,-5.9790545,6.1868434,12.709584,-4.321902,22.588535,-42.668644,50.41404,4.140918,3.0904605,4.994565,-10.346119,-19.689003,59.28697,60.555927,6.6834693,4.606841,-8.928328
80,-7.036778926849365,-41.5519905090332,76.78779602050781,-3.731277689847459,4.754695614452313,-99.19062436326455,-8.753573,11.671579,7.40619,75.736595,2.6279504,-8.45676,-21.4514,5.309527,-5.582661,27.837708,-11.759026,-1.6104273,-5.5125422,6.1345787,12.656631,-3.6707222,22.548622,-43.17235,51.192238,4.4360685,3.0407147,4.7087107,-11.21264,-19.905588,59.274105,59.78846,6.54601,4.315673,-9.423551
81,-7.1535749435424805,-42.319766998291016,76.9693603515625,-3.7082079783964885,4.601730402428983,-99.23344161447157,-10.136465,11.95101,7.4491663,76.39037,1.1016495,-7.9538016,-20.101088,5.3630867,-5.457745,26.84034,-11.920143,-1.3717519,-5.026002,6.06981,12.616693,-3.035608,22.522297,-43.701706,51.971077,4.532459,3.0320046,4.5281806,-12.085428,-20.136086,59.13378,58.94283,6.378963,4.1758,-9.808779
82,-7.26790189743042,-43.06169891357422,77.14009857177734,-3.680763658731609,4.439460216258743,-99.28419211752914,-11.468995,12.396962,7.686388,76.881226,-0.4979762,-7.3528056,-18.69123,5.411786,-5.326997,25.739,-12.043124,-1.1127225,-4.535342,5.985032,12.581399,-2.408035,22.507761,-44.24584,52.750534,4.5220923,3.0540156,4.43261,-12.9595585,-20.380302,58.867374,58.029995,6.2074823,4.134254,-10.130593
83,-7.386327743530273,-43.79307556152344,77.30104064941406,-3.653797175472172,4.275173174728846,-99.35318214121713,-12.761216,12.949865,8.065626,77.20089,-2.0792553,-6.7021766,-17.260689,5.465085,-5.1749377,24.584167,-12.130634,-0.8553312,-4.0291944,5.8905663,12.549149,-1.7834288,22.501263,-44.758503,53.531693,4.4696326,3.0793722,4.3808646,-13.833221,-20.639921,58.505135,57.07843,6.054166,4.1335793,-10.406452
84,-7.504014492034912,-44.530616760253906,77.45410919189453,-3.633506897652062,4.115951740606616,-99.45086599107212,-14.022605,13.555829,8.538736,77.342186,-3.5497441,-6.0447054,-15.847869,5.5330486,-4.9859314,23.426577,-12.185168,-0.62062436,-3.4998894,5.7990704,12.518417,-1.1544462,22.497969,-45.190243,54.31411,4.4399953,3.080297,4.3314586,-14.687753,-20.916164,58.056038,56.10557,5.9137797,4.117114,-10.654448
85,-7.614243984222412,-45.27528762817383,77.59780883789062,-3.621030844476464,3.961540453639286,-99.58813235804243,-15.24724,14.245912,9.14747,77.303825,-4.91635,-5.3441043,-14.461804,5.620384,-4.7475095,22.277721,-12.201829,-0.42033106,-2.9371188,5.7133665,12.489932,-0.51576304,22.493452,-45.53248,55.107376,4.4427366,3.0409098,4.2956147,-15.527448,-21.210596,57.499043,55.10881,5.8022404,4.09302,-10.859069
86,-7.726384162902832,-46.01046371459961,77.72893524169922,-3.6113698743998213,3.8092166140475903,-99.75691941266271,-16.42439,15.028261,9.9042425,77.08656,-6.223078,-4.6011076,-13.080784,5.717168,-4.468316,21.109262,-12.182487,-0.24051106,-2.3485909,5.627278,12.463066,0.12706754,22.48597,-45.809074,55.911545,4.447548,2.978522,4.288252,-16.361074,-21.524364,56.840767,54.083374,5.7200356,4.083668,-11.016971
87,-7.844542503356934,-46.755611419677734,77.85070037841797,-3.604978441647415,3.6618140879877155,-99.93872455430343,-17.560816,15.82459,10.720505,76.69092,-7.429525,-3.9054909,-11.703346,5.813416,-4.1659403,19.925608,-12.139107,-0.06283761,-1.752197,5.5419927,12.435016,0.7624264,22.476152,-46.021835,56.711735,4.457444,2.915275,4.273174,-17.192242,-21.857412,56.14912,53.05047,5.6590266,4.05325,-11.1645775
88,-7.937020301818848,-47.468849182128906,77.94865417480469,-3.6025781931897938,3.5221465016026547,-100.11562763680136,-18.667263,16.562202,11.509706,76.11684,-8.490594,-3.3393035,-10.32503,5.900742,-3.8582895,18.724222,-12.081161,0.13136156,-1.171508,5.4577026,12.403364,1.3863537,22.466099,-46.164204,57.487568,4.4774275,2.873582,4.213746,-18.001545,-22.20717,55.46944,52.020462,5.5759397,3.9666224,-11.339165
89,-8.037611961364746,-48.20805358886719,78.04269409179688,-3.6057122343037684,3.3878746597666765,-100.2939276263861,-19.73915,17.24906,12.278059,75.35789,-9.400416,-2.9707289,-8.943129,5.9811497,-3.5379179,17.504387,-12.005599,0.32943222,-0.60314935,5.3765745,12.3724785,1.9981675,22.457184,-46.241383,58.23461,4.5294805,2.8582275,4.0724816,-18.809483,-22.569803,54.836895,51.017212,5.5159574,3.7865074,-11.561199
90,-8.138294219970703,-48.95996856689453,78.12531280517578,-3.613318881964201,3.258548200023389,-100.48025026906602,-20.771032,17.918205,13.072894,74.41366,-10.177068,-2.7364554,-7.5597,6.056096,-3.198717,16.26653,-11.908394,0.5289437,-0.04145664,5.2971234,12.342581,2.6065924,22.448668,-46.249466,58.956673,4.6046834,2.857683,3.8776379,-19.608822,-22.941502,54.209343,50.025978,5.465495,3.5408933,-11.808072
91,-8.228726387023926,-49.70943832397461,78.19049835205078,-3.6217640929003387,3.1398912606819356,-100.65658683742367,-21.77582,18.537487,13.867179,73.29229,-10.809648,-2.5168085,-6.1763816,6.117944,-2.8614132,15.005655,-11.795817,0.7629815,0.50379753,5.2131557,12.308038,3.211162,22.440739,-46.17823,59.648983,4.6604605,2.8700829,3.6924047,-20.418022,-23.322996,53.60037,49.041794,5.404001,3.2901373,-12.051249
92,-8.311052322387695,-50.4542350769043,78.23981475830078,-3.627222878553906,3.0378392422492437,-100.80512362691886,-22.768051,19.073366,14.630761,72.00287,-11.291239,-2.1921306,-4.794639,6.1590385,-2.5469253,13.7147455,-11.673788,1.0638528,1.0178317,5.1179576,12.262083,3.8157268,22.43424,-46.012848,60.30461,4.654822,2.893444,3.5793183,-21.21705,-23.715717,52.989025,48.032734,5.2667646,3.0961225,-12.262888
93,-8.400651931762695,-51.19392395019531,78.2770004272461,-3.6202013376857725,2.960951226925428,-100.92187825937732,-23.772682,19.516422,15.360766,70.55586,-11.600859,-1.6509305,-3.4105997,6.1685357,-2.2560952,12.360821,-11.526892,1.4878194,1.5030758,4.997556,12.196959,4.419851,22.430433,-45.752926,60.931786,4.5803165,2.933488,3.5748572,-22.042048,-24.123697,52.399292,47.002373,5.063334,2.9818835,-12.414182
94,-8.501130104064941,-51.93091583251953,78.29457092285156,-3.6025434872646,2.9049333988109978,-101.01750689588614,-24.774004,19.883627,16.076574,68.944824,-11.755537,-0.98012656,-2.0213928,6.1506915,-1.978984,10.946671,-11.3520355,2.0017266,1.9639354,4.8553567,12.11764,5.02548,22.429743,-45.402767,61.527756,4.457729,2.9889581,3.638798,-22.869556,-24.547539,51.8155,45.94812,4.797429,2.9131448,-12.527482
95,-8.61544418334961,-52.66866683959961,78.28459167480469,-3.5894384052058124,2.856125217682184,-101.09616509190505,-25.726204,20.18181,16.778608,67.150276,-11.801856,-0.3573184,-0.6252955,6.124634,-1.7204884,9.509409,-11.1683445,2.5019054,2.3948035,4.710623,12.037343,5.637171,22.432583,-44.956303,62.069225,4.2909966,3.0490305,3.7193055,-23.634205,-24.986168,51.204056,44.85507,4.4566555,2.864006,-12.650893
96,-8.702743530273438,-53.41944122314453,78.26253509521484,-3.598428380883946,2.80033463082665,-101.16110754181894,-26.585106,20.419155,17.462492,65.14857,-11.780195,0.03764328,0.78196317,6.1132483,-1.4848607,8.082018,-10.995402,2.8837974,2.8087132,4.586071,11.982411,6.238197,22.441536,-44.42385,62.540085,4.082199,3.0992377,3.7668846,-24.478046,-25.44071,50.69167,43.836304,4.2445264,2.8060017,-12.830716
97,-8.789088249206543,-54.1600456237793,78.22148895263672,-3.6421456472684475,2.7300202612144506,-101.20977884504394,-27.336168,20.609196,18.122375,62.913456,-11.703335,0.13082954,1.9379355,6.122514,-1.3049948,7.2395563,-11.131707,3.1118562,3.18492,4.4961553,11.957701,6.8520784,22.454521,-43.748592,62.913376,3.8015797,3.1531086,3.7609658,-25.261366,-25.906523,50.17382,42.79809,4.0060983,2.7507246,-13.102217
98,-8.882225036621094,-54.91246032714844,78.1634750366211,-3.7139449052435274,2.6532004472446324,-101.2407314660052,-28.005623,20.747555,18.756212,60.45898,-11.542195,0.027033292,2.7398555,6.146507,-1.1885552,7.1739755,-11.680998,3.241075,3.5308259,4.4317946,11.954718,7.4751806,22.471241,-42.949883,63.20128,3.4580674,3.2134745,3.7309783,-26.035429,-26.383316,49.679764,41.762897,3.7724128,2.706369,-13.432424
99,-8.972066879272461,-55.67050552368164,78.08357238769531,-3.8074665977915285,2.576916654726785,-101.25806798623663,-28.6091,20.818726,19.361053,57.817383,-11.271308,-0.18450546,3.5475972,6.194222,-1.0897857,7.109315,-12.2377405,3.303427,3.8508463,4.3859177,11.955617,8.101152,22.491318,-42.109436,63.43468,3.1160645,3.2510138,3.6967034,-26.798002,-26.8684,49.207756,40.751183,3.5686421,2.6445224,-13.771015
100,-9.050556182861328,-56.453983306884766,77.98368072509766,-3.9145693586622827,2.508714032970572,-101.2663422037341,-29.161703,20.809645,19.933775,55.019344,-10.868976,-0.41209683,4.3479114,6.262078,-1.002163,7.0544324,-12.810869,3.3350348,4.152435,4.350244,11.940715,8.72136,22.51541,-41.31207,63.638626,2.8399525,3.244137,3.677818,-27.545639,-27.359322,48.753384,39.78642,3.4184756,2.536059,-14.067466
101,-9.122918128967285,-57.2423210144043,77.8581771850586,-4.0275686499328,2.4550143741094663,-101.26961374416594,-29.666084,20.712729,20.481846,52.034515,-10.310361,-0.6074236,5.1365066,6.341612,-0.915677,7.003748,-13.412295,3.3907104,4.4403615,4.315284,11.900421,9.343013,22.543196,-40.560368,63.816967,2.6800785,3.164616,3.6869354,-28.281746,-27.855394,48.31073,38.88641,3.3481636,2.3381994,-14.303071
102,-9.196170806884766,-58.02283477783203,77.70864868164062,-4.143187727362409,2.408201379788649,-101.26453813487181,-30.115652,20.538477,21.001665,48.864735,-9.619401,-0.819536,5.9190736,6.427851,-0.8357768,6.9640355,-14.036541,3.438931,4.711847,4.279021,11.849273,9.963465,22.573805,-39.820534,63.95975,2.5885453,3.032579,3.7111387,-29.006254,-28.356798,47.881245,38.036995,3.3368363,2.0769901,-14.50625
103,-9.29079532623291,-58.801944732666016,77.51632690429688,-4.276020946777316,2.352391939538685,-101.24223639594773,-30.513535,20.313454,21.459816,45.589607,-8.8432455,-1.104545,6.7033257,6.538439,-0.7819465,6.962198,-14.674819,3.3878548,4.960279,4.2591853,11.80444,10.560723,22.607212,-39.11472,64.07923,2.4896743,2.8930218,3.732106,-29.711887,-28.864016,47.474014,37.214954,3.3374572,1.8266356,-14.697349
104,-9.368361473083496,-59.58552551269531,77.32340240478516,-4.456919438628504,2.276375952863576,-101.19386563334498,-30.843288,20.06288,21.824175,42.233772,-8.003595,-1.5204654,7.507551,6.707166,-0.77074945,6.9899592,-15.297585,3.1469967,5.181756,4.2902627,11.776311,11.107632,22.644312,-38.47248,64.191666,2.302432,2.790765,3.7316895,-30.385427,-29.376966,47.09207,36.391422,3.3033144,1.6621449,-14.89707
105,-9.461702346801758,-60.382205963134766,77.11227416992188,-4.690134576270183,2.173263859235696,-101.11552333410107,-31.076054,19.76078,22.084957,38.681526,-7.02352,-2.119383,8.356836,6.9402037,-0.8049688,7.019466,-15.877928,2.6280632,5.3727117,4.3727074,11.7626095,11.609821,22.68808,-37.878235,64.2983,1.9648451,2.7374914,3.711052,-31.018213,-29.900688,46.74719,35.547237,3.2023253,1.625504,-15.132607
106,-9.559012413024902,-61.18015670776367,76.8843765258789,-4.96604563052316,2.047578126725782,-101.01431333432636,-31.201477,19.405443,22.259089,34.907085,-5.8968444,-2.853128,9.244761,7.2259574,-0.86890423,7.052096,-16.433825,1.9035496,5.5460997,4.4984746,11.76615,12.068637,22.741096,-37.330276,64.39212,1.5327293,2.7093954,3.6784623,-31.62903,-30.432043,46.428986,34.70789,3.0715227,1.671449,-15.38548
107,-9.63931941986084,-61.98476028442383,76.64908599853516,-5.2598838445294716,1.9085027170679494,-100.90961328246968,-31.229801,19.030025,22.395102,31.080563,-4.7526836,-3.6317706,10.156504,7.533082,-0.93503183,7.083329,-16.979895,1.1266675,5.7129846,4.646475,11.788579,12.474811,22.802004,-36.85825,64.47662,1.1059641,2.698302,3.6250613,-32.208755,-30.967018,46.114285,33.882942,2.9497778,1.739906,-15.607459
108,-9.700645446777344,-62.804527282714844,76.39812469482422,-5.546231464192764,1.7661054379264496,-100.82258194640785,-31.182076,18.665638,22.54917,27.390497,-3.7245882,-4.369964,11.074516,7.828339,-0.97471887,7.1112003,-17.531122,0.4501897,5.8861117,4.794864,11.828799,12.817627,22.866323,-36.49264,64.56008,0.78512245,2.6960082,3.5425718,-32.756298,-31.504013,45.788128,33.087727,2.8845959,1.7697408,-15.749807
109,-9.767152786254883,-63.621585845947266,76.12879180908203,-5.828757128720975,1.6111976364068952,-100.75453831758105,-31.041918,18.306963,22.743912,23.780285,-2.8555734,-5.070011,12.008788,8.118291,-0.99401325,7.1353726,-18.110476,-0.13471647,6.060428,4.9503865,11.8919115,13.094384,22.931942,-36.26242,64.64373,0.56364137,2.7094843,3.449026,-33.29139,-32.047955,45.44301,32.325752,2.9168854,1.7451775,-15.747904
110,-9.82458782196045,-64.450927734375,75.85501098632812,-6.128265194530164,1.4311223232756962,-100.70910430474946,-30.779526,17.948196,22.963285,20.143276,-2.0490873,-5.778281,12.975683,8.423864,-0.9840219,7.158553,-18.706354,-0.6940072,6.263319,5.139027,11.992155,13.289721,22.999178,-36.161404,64.73118,0.39897352,2.7396624,3.3435733,-33.792286,-32.587696,45.05006,31.591717,2.981191,1.7019416,-15.64409
111,-9.857975959777832,-65.28384399414062,75.57487487792969,-6.438129283143995,1.234919695154878,-100.7103935481144,-30.424192,17.620739,23.206081,16.65113,-1.2478616,-6.476942,13.962305,8.725434,-0.8980341,7.175922,-19.270962,-1.1623398,6.4952564,5.343204,12.10684,13.435704,23.0642,-36.118557,64.828156,0.3351248,2.7697763,3.1880164,-34.26282,-33.135674,44.702442,30.893373,3.0842054,1.6437268,-15.549047
112,-9.889859199523926,-66.1180419921875,75.2890625,-6.743848918886387,1.0421237237479366,-100.7712141036711,-30.034727,17.350735,23.459177,13.516551,-0.41851377,-7.142945,14.941982,8.99633,-0.7060313,7.1864157,-19.756496,-1.4747111,6.786484,5.5509796,12.23059,13.517938,23.120256,-36.093697,64.94759,0.42073748,2.7816703,2.9452786,-34.65224,-33.679382,44.389137,30.225258,3.1423004,1.583043,-15.57656
113,-9.907773971557617,-66.9573745727539,75.00660705566406,-7.031049493220022,0.8814888293874322,-100.887660535501,-29.653763,17.122179,23.758066,10.74845,0.4936243,-7.749891,15.878796,9.218203,-0.42726773,7.191803,-20.188782,-1.5797732,7.1166053,5.7444916,12.342241,13.535887,23.163788,-36.072716,65.09518,0.7200175,2.7518058,2.5582964,-35.00959,-34.219917,44.17051,29.612604,3.1654928,1.5064204,-15.785144
114,-9.94272518157959,-67.79367065429688,74.73770141601562,-7.300100404218309,0.7512645478891709,-101.03890520831676,-29.250208,16.89701,24.094994,8.221658,1.4710981,-8.313815,16.775982,9.394769,-0.093303144,7.194367,-20.578663,-1.5225487,7.4579606,5.9228845,12.438884,13.4934,23.193007,-36.072285,65.2697,1.1919081,2.6923442,2.0637484,-35.35278,-34.760036,44.04076,29.054407,3.1934946,1.412789,-16.106936
115,-9.96364688873291,-68.64330291748047,74.49703216552734,-7.545485535125995,0.6399289694827662,-101.19314252334543,-29.22372,16.84058,24.256231,6.926693,1.9231412,-8.868619,17.653639,9.522295,0.2839028,7.1934958,-20.859144,-1.3807422,7.7872252,6.074698,12.5165205,13.404251,23.204342,-36.082775,65.47601,1.7230331,2.6396937,1.5638204,-35.619186,-35.297905,43.950275,28.522995,3.2434924,1.3243058,-16.464714
116,-9.97799015045166,-69.509521484375,74.2789077758789,-7.7626346014491645,0.5347856822092287,-101.31806044886189,-29.52624,16.92994,24.161976,6.867168,1.7769974,-9.443205,18.531328,9.600177,0.6935354,7.1887174,-20.961899,-1.2321839,8.096523,6.19489,12.5796995,13.265839,23.193926,-36.109467,65.721535,2.200284,2.6336472,1.1602643,-35.699265,-35.812973,43.791348,27.974394,3.2789752,1.2683964,-16.782406
117,-9.989910125732422,-70.39022827148438,74.08100128173828,-7.985261679146737,0.4108275421163094,-101.41201256752005,-29.563328,16.95447,23.94031,6.860168,1.5914476,-10.235493,19.428356,9.671734,1.1642863,7.203298,-20.907253,-1.0982386,8.392078,6.323179,12.644862,13.069493,23.159126,-36.170624,66.02733,2.6336231,2.691946,0.8785145,-35.56912,-36.283813,43.534203,27.415165,3.2548304,1.2529641,-17.071428
118,-10.013904571533203,-71.2911605834961,73.89784240722656,-8.189329792016833,0.28790105084820483,-101.458370356288,-29.389513,16.88441,23.627995,6.903313,1.423503,-11.158308,20.296051,9.72106,1.6470612,7.294946,-20.756338,-0.9331635,8.6293745,6.427559,12.699509,12.828533,23.09937,-36.246143,66.3878,3.0705519,2.792514,0.66447985,-35.326748,-36.718662,43.277744,26.892506,3.2381957,1.2596908,-17.362656
119,-10.030500411987305,-72.21602630615234,73.73790740966797,-8.285700366924724,0.2265997440788198,-101.43553969179634,-29.119837,16.633049,23.264643,6.9833755,1.3826675,-11.812384,21.094246,9.6523905,2.0526876,7.409334,-20.450476,-0.71114045,8.791095,6.408536,12.713922,12.538732,23.015491,-36.314972,66.77394,3.453444,2.9150434,0.500261,-34.945194,-37.11209,42.986458,26.387854,3.2385294,1.2842314,-17.609081
120,-10.012063026428223,-73.1390609741211,73.63150787353516,-8.21226974196112,0.27081887427810863,-101.3174940963896,-29.16563,16.26215,22.76726,7.763087,1.2305671,-11.808545,21.771925,9.398824,2.2891023,7.554462,-19.957544,-0.41417864,8.857278,6.1954594,12.669505,12.202471,22.911764,-36.356857,67.14443,3.7250423,3.0457904,0.3684024,-34.396805,-37.454044,42.62321,25.888878,3.2609775,1.3217337,-17.762295
121,-10.00844669342041,-74.05307006835938,73.57317352294922,-7.93803455727208,0.4477968174407682,-101.09652581593876,-30.142473,15.965055,21.931376,10.636316,0.3162372,-10.888559,21.776613,8.941436,2.2412498,8.85003,-19.919641,-0.025943978,8.830483,5.7508354,12.551675,11.816575,22.790636,-36.347305,67.49648,3.8568347,3.184748,0.26806024,-33.639076,-37.727375,42.121315,25.376495,3.289896,1.3827311,-17.770657
122,-10.00795841217041,-75.01535034179688,73.52949523925781,-7.511614437609229,0.6975183912265099,-100.84110013513761,-31.229458,15.510237,21.029377,13.957779,-0.54965925,-9.3327875,20.992798,8.328832,2.0063164,11.666265,-20.528112,0.4353874,8.767955,5.132204,12.390601,11.397938,22.655327,-36.299477,67.83483,3.8834255,3.3404765,0.20709088,-32.70946,-37.926086,41.52851,24.875301,3.3302598,1.4661993,-17.669174
123,-10.010765075683594,-76.00894165039062,73.50330352783203,-6.981087789750203,0.9543064366501672,-100.62728176883319,-32.181473,14.925868,20.263195,17.120796,-1.1680471,-7.5555935,20.112352,7.5793085,1.798872,14.653892,-20.95846,0.93937796,8.725669,4.4008694,12.223178,10.96915,22.511496,-36.25184,68.13764,3.8439307,3.5054784,0.18054488,-31.680199,-38.053425,40.957527,24.426981,3.3971605,1.550748,-17.541824
124,-9.989584922790527,-77.01221466064453,73.50798797607422,-6.359241900084488,1.1911688429760854,-100.48723564144215,-32.81356,14.215177,19.803679,19.588095,-1.4044949,-5.9401608,19.113836,6.709799,1.6665392,17.883186,-21.137796,1.4681226,8.7226305,3.5784442,12.0690365,10.5357,22.365763,-36.251347,68.38925,3.7745762,3.6715748,0.18330215,-30.608196,-38.110546,40.498928,24.066046,3.488466,1.6158012,-17.476665
125,-9.971744537353516,-78.02046966552734,73.53377532958984,-5.561418977574225,1.464414592020328,-100.42159954852474,-33.114895,13.322909,19.734568,21.201036,-1.0899644,-4.4988804,17.931072,5.621879,1.5887835,21.408833,-21.105633,2.0615184,8.749494,2.5633955,11.889531,10.104093,22.218758,-36.298725,68.584694,3.6769843,3.8649678,0.24038802,-29.496717,-38.098648,40.189827,23.792595,3.6279483,1.6414396,-17.52568
126,-9.947839736938477,-79.0513687133789,73.58543395996094,-4.580535195321131,1.789500108994274,-100.39525295369346,-33.222546,12.274562,19.957813,22.347454,-0.4144697,-3.0269804,16.594017,4.3133397,1.555296,25.152401,-20.869015,2.7219768,8.775745,1.3452703,11.676375,9.670405,22.069462,-36.36949,68.73165,3.5324068,4.0801296,0.34553432,-28.327911,-38.01507,39.990273,23.592148,3.809289,1.6427258,-17.634552
127,-9.933919906616211,-80.07714080810547,73.63506317138672,-3.541676041023438,2.090165713176553,-100.36883014639315,-33.197697,11.183329,20.326399,23.336567,0.1911614,-1.5747197,15.214002,2.9511251,1.5964336,28.98089,-20.3083,3.3806953,8.775199,0.07589612,11.484279,9.22551,21.924004,-36.46615,68.832115,3.3563035,4.261848,0.44579163,-27.133644,-37.85448,39.873226,23.488407,3.9883018,1.6508627,-17.732151
128,-9.914682388305664,-81.11164855957031,73.69869232177734,-2.5799062201176612,2.284403171676282,-100.30928093207223,-33.089813,10.159545,20.668692,24.455336,0.31237713,-0.2069091,13.883603,1.714808,1.727267,32.80463,-19.316082,3.9690132,8.72211,-1.0856074,11.362672,8.76809,21.792505,-36.5892,68.8853,3.1606798,4.3559227,0.4872662,-25.942974,-37.61613,39.818893,23.500124,4.131657,1.6964307,-17.747936
129,-9.883584976196289,-82.14900970458984,73.75880432128906,-1.7291854117258472,2.3411778749000782,-100.21529794933414,-32.947388,9.235104,20.902151,25.885244,-0.26513842,1.1055323,12.637993,0.66152346,1.954986,36.641895,-17.772156,4.541854,8.61514,-2.1056151,11.321001,8.318404,21.682882,-36.725044,68.8774,2.9156682,4.3303933,0.4460853,-24.729605,-37.30146,39.824574,23.612862,4.222304,1.8037931,-17.67205
130,-9.86286735534668,-83.20805358886719,73.80220031738281,-0.9314933213803623,2.3055161320342785,-100.09865928151434,-32.73361,8.361965,21.072529,27.452423,-1.3056977,2.3720613,11.415221,-0.27955765,2.260854,40.544502,-15.770291,5.1196313,8.464806,-3.0560014,11.328596,7.8749847,21.597668,-36.87928,68.80376,2.623898,4.2214456,0.35187155,-23.486452,-36.91038,39.89739,23.822445,4.2783914,1.9514812,-17.53966
131,-9.829095840454102,-84.26266479492188,73.84300994873047,-0.18355378042465947,2.208333995218245,-99.9500934780215,-32.389946,7.52327,21.201519,28.929995,-2.5323188,3.4883626,10.155889,-1.1252246,2.6038148,44.484425,-13.528587,5.5861177,8.261697,-3.9382932,11.368941,7.4131975,21.53722,-37.070312,68.67672,2.3532488,4.077354,0.23034225,-22.253298,-36.44795,40.030342,24.147604,4.3170786,2.099993,-17.34751
132,-9.816540718078613,-85.30950927734375,73.89933776855469,0.5197507958983173,2.0808731509705387,-99.76072866333863,-31.863155,6.6854315,21.33481,30.079649,-3.6433759,4.353238,8.804588,-1.9017324,2.9354196,48.427883,-11.255048,5.825655,8.003313,-4.7546525,11.431292,6.899785,21.500689,-37.324352,68.51103,2.1704798,3.9454103,0.108499035,-21.093847,-35.921276,40.222404,24.626421,4.368854,2.2099273,-17.091587
133,-9.817341804504395,-86.3370590209961,73.96620178222656,1.1816619614929325,1.9040429136276136,-99.48312723774711,-31.114853,5.7943563,21.48694,30.819302,-4.5711074,4.90232,7.3176517,-2.5799954,3.2642424,52.527252,-8.943265,5.636547,7.651874,-5.505725,11.527652,6.3204327,21.488989,-37.680492,68.32188,2.0842106,3.8225677,-0.038122814,-19.942568,-35.335182,40.43128,25.22859,4.391559,2.2688715,-16.750113
134,-9.771530151367188,-87.36529541015625,74.05567169189453,1.795927712233624,1.6698738605394794,-99.13748457905673,-30.198488,4.8648243,21.638107,31.284071,-5.45625,5.201345,5.735826,-3.157786,3.576713,56.741604,-6.4812527,5.156965,7.2303524,-6.1906333,11.658618,5.6873255,21.501366,-38.12551,68.09786,2.0598447,3.688914,-0.2135805,-18.794138,-34.693153,40.66619,25.948633,4.3938794,2.2986999,-16.331217
135,-9.728283882141113,-88.38457489013672,74.14952850341797,2.3629662829022258,1.427216116401021,-98.81666338747836,-29.197042,3.956722,21.805998,31.55817,-6.3061504,5.3508854,4.109175,-3.7236826,3.815553,60.79112,-3.9481158,4.7512236,6.8000236,-6.817807,11.78154,5.0317354,21.530432,-38.58221,67.81506,2.1037138,3.5658545,-0.36031568,-17.70846,-34.009396,40.98154,26.783627,4.433231,2.313049,-15.877452
136,-9.697762489318848,-89.37191009521484,74.23069763183594,2.8745385424963072,1.226296804202587,-98.6064013996371,-28.1816,3.1388512,21.996183,31.71646,-7.127537,5.4486217,2.485852,-4.3637958,3.9477727,64.40112,-1.4428574,4.753393,6.411158,-7.379463,11.855221,4.384397,21.56506,-38.969883,67.45082,2.2223756,3.4760597,-0.4199167,-16.730265,-33.30281,41.425884,27.718346,4.5579095,2.327004,-15.432183
137,-9.67306137084961,-90.33493041992188,74.32109832763672,3.3229954389913794,1.0901619915226644,-98.53626835086197,-27.174435,2.4479272,22.22745,31.776176,-7.939168,5.4839187,0.81547505,-5.133901,3.9609003,67.58233,1.3329453,5.4087853,6.074808,-7.859074,11.868347,3.739064,21.59724,-39.281845,67.00344,2.46047,3.4334939,-0.3900345,-15.887781,-32.587597,42.02732,28.74953,4.838259,2.362479,-15.003089
138,-9.602659225463867,-91.3049545288086,74.43866729736328,3.7157609425743328,0.9909085299997362,-98.55454313677976,-26.132326,1.8346345,22.4979,31.68929,-8.728772,5.4205675,-0.93302214,-5.979425,3.9143538,70.50768,4.3034472,6.453933,5.760296,-8.258095,11.84794,3.0786796,21.624784,-39.552834,66.49007,2.8042123,3.4246387,-0.29587898,-15.151731,-31.869938,42.760433,29.880465,5.2439694,2.408634,-14.569546
139,-9.531500816345215,-92.24919128417969,74.57527160644531,4.07385932233313,0.9028238195194791,-98.62383143631716,-25.034079,1.243148,22.780869,31.445496,-9.457476,5.315633,-2.6991782,-6.8482623,3.867498,73.17963,6.7784142,7.4440603,5.4567137,-8.601493,11.812328,2.41053,21.646494,-39.767506,65.931465,3.1697998,3.4221137,-0.119605474,-14.470173,-31.15589,43.580994,31.099852,5.6609097,2.4312208,-14.130492
140,-9.461493492126465,-93.1618881225586,74.71613311767578,4.417882549025061,0.7992423749502799,-98.70566083787604,-23.864506,0.62321913,23.044445,31.045181,-10.089766,5.224531,-4.415418,-7.7275314,3.830519,75.58178,8.06334,7.914264,5.1525483,-8.9155,11.780564,1.7443087,21.662455,-39.906693,65.344444,3.4772968,3.3989716,0.15660685,-13.808573,-30.45225,44.454666,32.406372,5.9877915,2.3945189,-13.68499
141,-9.385883331298828,-94.07552337646484,74.86346435546875,4.7684965164615445,0.6775912802752617,-98.8306042379356,-22.594965,-0.042147238,23.316896,30.44783,-10.601476,5.147566,-6.073887,-8.705633,3.7777715,77.71657,7.697978,7.66295,4.8776226,-9.216018,11.760226,1.0716059,21.67217,-39.979557,64.7356,3.7199044,3.343251,0.55803996,-13.180347,-29.768286,45.406082,33.820614,6.2141643,2.2586846,-13.223632
142,-9.304400444030762,-94.98442077636719,75.01593780517578,5.106230831493744,0.5509214178067791,-99.00647267566397,-21.241707,-0.7179069,23.598095,29.670528,-11.0182085,5.057225,-7.70746,-9.763414,3.7031379,79.58763,6.1379814,6.967334,4.629936,-9.479527,11.743136,0.38854486,21.675726,-39.992207,64.094666,3.9360487,3.2728882,1.0685797,-12.588766,-29.109203,46.436924,35.326256,6.392083,2.0530066,-12.7490425
143,-9.213747024536133,-95.90744018554688,75.19083404541016,5.389256999557251,0.4152223692573728,-99.16107060970043,-19.852522,-1.3753326,23.810488,28.795341,-11.37404,4.965433,-9.302071,-10.727408,3.6287692,81.16788,4.07152,6.0896525,4.3530383,-9.67364,11.725469,-0.29015112,21.675741,-39.924984,63.418808,4.1127696,3.1988788,1.6435885,-11.991123,-28.47181,47.482323,36.86735,6.522953,1.8437903,-12.278749
144,-9.127119064331055,-96.82337951660156,75.3729248046875,5.581665933577697,0.26560163588979224,-99.2216397822371,-18.473347,-1.9855081,23.881548,27.904823,-11.703501,4.885611,-10.842338,-11.4578905,3.5493524,82.43194,2.1931152,5.260412,3.9917305,-9.774395,11.702106,-0.94981897,21.67879,-39.764893,62.6969,4.232948,3.138813,2.2379534,-11.359467,-27.850374,48.487297,38.401665,6.6164155,1.6965246,-11.83021
145,-9.05683422088623,-97.72740173339844,75.56006622314453,5.659524406810168,0.10096822147509278,-99.15972642271554,-17.117615,-2.5306644,23.785856,27.022388,-12.020396,4.8372607,-12.331635,-11.881691,3.4631631,83.35217,0.5401897,4.44603,3.5220542,-9.761053,11.6728525,-1.5914515,21.689722,-39.492516,61.915512,4.268351,3.1000142,2.8617861,-10.680306,-27.238049,49.432137,39.93122,6.638614,1.6277269,-11.396319
146,-8.998112678527832,-98.6195297241211,75.74786376953125,5.649030658506181,-0.07633824279715118,-99.01717831116203,-15.760442,-3.0182762,23.568113,26.114761,-12.310549,4.805751,-13.774405,-12.071135,3.3646314,83.95209,-1.202091,3.569789,2.9781456,-9.6554575,11.64142,-2.218443,21.711443,-39.1214,61.078247,4.235707,3.0724695,3.5307906,-9.978311,-26.633661,50.35159,41.48219,6.5992365,1.6011163,-10.971911
147,-8.945439338684082,-99.50418853759766,75.93550109863281,5.58800836323682,-0.2669209521981682,-98.82560481443804,-14.379919,-3.4720109,23.264008,25.15837,-12.55681,4.755774,-15.15002,-12.152899,3.214498,84.26853,-2.8651364,2.754594,2.3900816,-9.500663,11.609835,-2.8223834,21.748795,-38.69059,60.202976,4.1807933,3.0435584,4.2073874,-9.255558,-26.038378,51.251488,43.02922,6.5480814,1.6041611,-10.577339
148,-8.906182289123535,-100.39765930175781,76.12235260009766,5.515244334736082,-0.47161896793811164,-98.61683591065253,-12.95684,-3.9166641,22.907122,24.131567,-12.742264,4.653613,-16.437939,-12.263372,2.9682276,84.33889,-4.28388,2.115718,1.7905716,-9.337942,11.580605,-3.392117,21.80683,-38.23772,59.302494,4.15425,3.0023775,4.8542747,-8.5159645,-25.45672,52.137905,44.545673,6.5403886,1.6248548,-10.232618
149,-8.864166259765625,-101.2767105102539,76.3021011352539,5.429931941942992,-0.7038089130505609,-98.3801975732943,-11.472838,-4.355226,22.47203,23.023731,-12.851248,4.480379,-17.601988,-12.459648,2.5647185,84.139946,-5.4122124,1.72939,1.1740742,-9.167608,11.566703,-3.9234538,21.888056,-37.760773,58.376163,4.1680846,2.950661,5.5011983,-7.7492967,-24.891678,53.02029,46.029667,6.5840206,1.6588489,-9.969919
150,-8.835461616516113,-102.16215515136719,76.48504638671875,5.31525827888582,-0.958148146365726,-98.10421093793857,-9.941667,-4.769471,21.952265,21.851189,-12.897018,4.2579637,-18.657312,-12.673135,2.0287788,83.658875,-6.338523,1.5136852,0.5282366,-8.972038,11.565178,-4.4213095,21.993246,-37.24444,57.41264,4.196212,2.8937585,6.154472,-6.958453,-24.344711,53.89398,47.490826,6.654856,1.7131042,-9.769195
151,-8.810745239257812,-103.05967712402344,76.66291809082031,5.180550479951606,-1.2078614365639189,-97.81872083224373,-8.389869,-5.152423,21.408125,20.62504,-12.907576,4.0152493,-19.659533,-12.852794,1.443655,82.946556,-7.1016874,1.3441234,-0.12437714,-8.762382,11.554396,-4.892327,22.125448,-36.7119,56.409897,4.2264314,2.8262234,6.740776,-6.150223,-23.81772,54.72675,48.906178,6.74422,1.793741,-9.572438
152,-8.773982048034668,-103.94410705566406,76.835205078125,5.040919663518864,-1.425781554774723,-97.55416020439328,-6.847458,-5.5010433,20.9017,19.36104,-12.908865,3.7814093,-20.665802,-12.945147,0.8978701,82.05352,-7.7416425,1.0965956,-0.75729764,-8.5497265,11.513316,-5.3418036,22.28868,-36.187126,55.36389,4.2484508,2.7426605,7.186875,-5.3308334,-23.313974,55.48365,50.251568,6.8432665,1.9069571,-9.321402
153,-8.737903594970703,-104.84098052978516,76.9874038696289,4.894963937361073,-1.6131290241798693,-97.3225776858473,-5.303283,-5.8183217,20.45171,18.044443,-12.905301,3.5885978,-21.69439,-12.947736,0.39969417,80.99907,-8.22929,0.6971259,-1.3552598,-8.3341,11.442797,-5.7624907,22.485628,-35.665146,54.263058,4.2437773,2.6214044,7.4521055,-4.4887767,-22.836231,56.138397,51.501984,6.96688,2.0870364,-8.995823
154,-8.712691307067871,-105.72537231445312,77.11583709716797,4.739486812425113,-1.781108008191616,-97.10592297888626,-3.7493753,-6.1065116,20.026192,16.674713,-12.884575,3.415259,-22.71153,-12.883674,-0.0965055,79.75504,-8.559915,0.22526093,-1.9317833,-8.109262,11.354666,-6.1557536,22.717339,-35.141582,53.108696,4.2201595,2.4725494,7.582278,-3.6234455,-22.386395,56.711708,52.667957,7.113218,2.3203576,-8.628454
155,-8.685479164123535,-106.61006927490234,77.22602844238281,4.57284015020285,-1.9181118568224054,-96.89011332172569,-2.2200072,-6.3595085,19.611334,15.28834,-12.849942,3.2098281,-23.695044,-12.740721,-0.579113,78.28979,-8.810451,-0.21452312,-2.5045106,-7.8774967,11.243326,-6.535525,22.984436,-34.637493,51.91326,4.2111335,2.337363,7.634021,-2.7576957,-21.966305,57.23731,53.778267,7.2459297,2.5412648,-8.23997
156,-8.673910140991211,-107.48041534423828,77.32752990722656,4.398380894475943,-2.0125699127421175,-96.66058200199441,-0.7501975,-6.573447,19.193428,13.922284,-12.804274,2.9203513,-24.624748,-12.507258,-1.0350212,76.57147,-9.0545025,-0.51861465,-3.0913384,-7.639177,11.103141,-6.9190245,23.287518,-34.178406,50.69236,4.2462163,2.2569277,7.664108,-1.91363,-21.577444,57.748066,54.861855,7.3297915,2.6836534,-7.8507524
157,-8.672739028930664,-108.36196899414062,77.41880798339844,4.204855126484615,-2.0508440325557036,-96.40895512290548,0.6501815,-6.7355146,18.776388,12.558069,-12.737275,2.5024142,-25.50871,-12.150291,-1.445533,74.57278,-9.329175,-0.6492519,-3.7064612,-7.38389,10.921843,-7.3019466,23.62646,-33.763428,49.430233,4.331961,2.2527328,7.67608,-1.0987229,-21.220707,58.25836,55.9323,7.33975,2.7184856,-7.4469213
158,-8.674738883972168,-109.22684478759766,77.48762512207031,3.9963459889559667,-2.0417556775658467,-96.14246031525786,2.0036917,-6.8535523,18.365885,11.174154,-12.645922,1.9944541,-26.349224,-11.692562,-1.8220524,72.30764,-9.586377,-0.67038715,-4.339356,-7.111068,10.7064705,-7.675591,24.001192,-33.381092,48.122276,4.45335,2.2993846,7.6434617,-0.30271047,-20.896341,58.75114,56.971275,7.303391,2.6843202,-7.0238223
159,-8.650830268859863,-110.08103942871094,77.52774047851562,3.787816776271031,-2.0081992595763194,-95.87084940862074,3.322481,-6.952273,17.951319,9.80575,-12.546536,1.4690791,-27.117805,-11.206882,-2.1950786,69.80425,-9.772415,-0.63195366,-4.9700513,-6.837954,10.47998,-8.050867,24.412163,-33.042107,46.799797,4.608378,2.3672285,7.5777855,0.48255065,-20.604338,59.204105,57.957253,7.2561107,2.6160169,-6.615773
160,-8.634371757507324,-110.93476104736328,77.55620574951172,3.6026383187121542,-1.9729589007227388,-95.60482925859469,4.6220145,-7.059029,17.521465,8.485016,-12.454997,1.0000719,-27.787146,-10.760604,-2.5924406,67.09294,-9.834395,-0.57643056,-5.576182,-6.5861506,10.264749,-8.439051,24.859467,-32.757736,45.49469,4.7964334,2.4265718,7.4909096,1.2655677,-20.345001,59.593426,58.8707,7.2321105,2.5489683,-6.2570906
161,-8.62082576751709,-111.80655670166016,77.56745147705078,3.442792111026458,-1.9433559691369984,-95.34831790197164,5.8013167,-7.145572,17.07898,7.449715,-12.4868,0.59790134,-28.354189,-10.356843,-3.0099485,64.16294,-9.775233,-0.5375978,-6.1517096,-6.359204,10.068356,-8.849415,25.345394,-32.540565,44.20279,5.0217857,2.4761355,7.364143,2.0482793,-20.11914,59.90708,59.708397,7.24601,2.4715834,-5.9411044
162,-8.593114852905273,-112.68386840820312,77.55416870117188,3.302191074681082,-1.90747269207777,-95.09594538915306,6.531347,-7.104463,16.671682,7.3904505,-13.009891,0.22347623,-28.828516,-9.964404,-3.4311025,60.99834,-9.616401,-0.48326057,-6.7060647,-6.15169,9.879032,-9.273247,25.869995,-32.38453,42.908024,5.283888,2.5289738,7.198451,2.827079,-19.927427,60.15602,60.47798,7.275682,2.372127,-5.654996
163,-8.57692813873291,-113.54158782958984,77.51986694335938,3.1837183996053353,-1.8601554822139976,-94.8451778909181,7.2489552,-7.0870204,16.262175,7.335312,-13.535885,-0.11036112,-29.202507,-9.592513,-3.86896,57.617207,-9.329576,-0.35398293,-7.241617,-5.967679,9.689817,-9.700298,26.428146,-32.274624,41.630043,5.569966,2.5763237,7.0355463,3.6012833,-19.767643,60.355106,61.17027,7.304837,2.2864957,-5.42374
164,-8.571105003356934,-114.38695526123047,77.46260833740234,3.0940182955877966,-1.7962215353030992,-94.59292731447061,7.949058,-7.095677,15.865345,7.2878275,-14.088412,-0.4011457,-29.467682,-9.248839,-4.337752,54.028954,-8.883312,-0.0896248,-7.761754,-5.8105283,9.492931,-10.12079,27.010818,-32.19367,40.3927,5.8690166,2.6098824,6.917877,4.3711357,-19.635452,60.517605,61.779606,7.313961,2.2499912,-5.2724876
165,-8.56511402130127,-115.25286102294922,77.38921356201172,3.034049163623802,-1.713372202482414,-94.32626929552177,8.627497,-7.13584,15.470367,7.24395,-14.664967,-0.64517987,-29.595919,-8.940738,-4.844871,50.147903,-8.234953,0.33696577,-8.275097,-5.6819906,9.284325,-10.550831,27.61364,-32.15634,39.21842,6.198793,2.6155875,6.8577275,5.137628,-19.526268,60.659393,62.307182,7.3007607,2.2831194,-5.2428265
166,-8.558996200561523,-116.12997436523438,77.28922271728516,3.005114607726944,-1.6169313537244505,-94.04953152984925,9.289605,-7.2062035,15.072033,7.204759,-15.255329,-0.8453378,-29.58647,-8.653095,-5.3793674,45.964676,-7.394732,0.8950182,-8.779012,-5.5822725,9.0678625,-10.99352,28.234917,-32.165447,38.096325,6.560374,2.6016095,6.833029,5.898403,-19.437824,60.769066,62.763226,7.273526,2.3627093,-5.3102355
167,-8.54765510559082,-117.00102233886719,77.16378021240234,3.0062344000124317,-1.5132525792869724,-93.7838573046687,9.948691,-7.3072357,14.69266,7.1701145,-15.863711,-1.009329,-29.474443,-8.363262,-5.928142,41.600666,-6.4029436,1.5551684,-9.261135,-5.5104437,8.847923,-11.427316,28.868832,-32.18811,37.00787,6.91404,2.5929055,6.834501,6.647598,-19.369137,60.82094,63.152943,7.231386,2.4590805,-5.4007845
168,-8.532726287841797,-117.88046264648438,77.0099868774414,3.036614751385628,-1.4090178949392804,-93.54877657073816,10.6195965,-7.4394717,14.352954,7.1374493,-16.492619,-1.1449966,-29.295366,-8.056475,-6.477784,37.17512,-5.3006973,2.2841756,-9.710784,-5.4664435,8.628776,-11.827508,29.50728,-32.18779,35.93491,7.22468,2.6145995,6.8528256,7.3786273,-19.321955,60.78883,63.48482,7.1720877,2.5422459,-5.440504
169,-8.524406433105469,-118.76409149169922,76.82866668701172,3.097903420412252,-1.3036288315735427,-93.34557356747301,11.30432,-7.602999,14.062351,7.106921,-17.15656,-1.2527049,-29.035446,-7.722844,-7.016834,32.59269,-4.000026,3.0782247,-10.129629,-5.450099,8.405869,-12.194784,30.145435,-32.16051,34.878887,7.4873962,2.6792393,6.902574,8.099226,-19.298962,60.64431,63.751266,7.0659065,2.6124632,-5.402546
170,-8.512697219848633,-119.657470703125,76.6219253540039,3.2012358313643636,-1.2041489938240832,-93.15049284081006,12.005447,-7.814325,13.792651,7.0787473,-17.845348,-1.3271537,-28.641699,-7.3914585,-7.550352,27.750853,-2.4742339,3.9509454,-10.533866,-5.4748516,8.183595,-12.544371,30.781994,-32.124763,33.85451,7.7228603,2.7717142,6.982815,8.81277,-19.301498,60.405853,63.947437,6.924197,2.6830962,-5.329242
171,-8.497221946716309,-120.5505142211914,76.38107299804688,3.3556988761653495,-1.1341975511094913,-92.94020462263107,12.745314,-8.07986,13.499276,7.0533996,-18.535856,-1.3677348,-28.104935,-7.107105,-8.104236,22.796772,-0.8723667,4.8970275,-10.942738,-5.554153,7.984466,-12.880109,31.415842,-32.08049,32.869987,7.9261994,2.874787,7.0601683,9.511993,-19.32742,60.116993,64.078094,6.8024287,2.7444837,-5.249824
172,-8.487055778503418,-121.4569320678711,76.10962677001953,3.5947378847375444,-1.122333950361998,-92.69656324140662,13.540374,-8.433059,13.141391,7.0587053,-19.22043,-1.3710895,-27.417824,-6.929857,-8.6943865,17.89344,0.6533485,5.919836,-11.37215,-5.7299604,7.8295383,-13.193366,32.046654,-32.01913,31.925314,8.100149,2.9711385,7.1009426,10.189442,-19.371298,59.82324,64.15231,6.7553306,2.7872057,-5.194186
173,-8.477046966552734,-122.36660766601562,75.80530548095703,3.944665073543802,-1.19081502218552,-92.38905314050947,14.425244,-8.9073105,12.6822,7.0737295,-19.901781,-1.3200786,-26.496624,-6.884903,-9.354529,12.86532,2.1268177,7.1494427,-11.854671,-6.031728,7.723486,-13.488844,32.67857,-31.934767,31.01776,8.252149,3.0662837,7.0731454,10.854666,-19.43114,59.522526,64.16398,6.816842,2.7942905,-5.172642
174,-8.471230506896973,-123.29034423828125,75.47007751464844,4.415398050909524,-1.3443025853762736,-91.99404205662415,15.411182,-9.508307,12.096037,7.088655,-20.577097,-1.2151625,-25.157494,-6.9486794,-10.12488,7.2798986,3.8340237,8.556192,-12.415559,-6.4723105,7.661333,-13.762708,33.31534,-31.82919,30.144007,8.380103,3.1665146,6.9997215,11.511855,-19.506622,59.196323,64.11311,6.950112,2.775397,-5.169761
175,-8.468673706054688,-124.21404266357422,75.12419128417969,4.934448812041491,-1.543349030740854,-91.55188645152762,16.449347,-10.14391,11.413587,7.1042175,-21.200888,-1.0953394,-25.904135,-7.484965,-10.716477,6.520964,3.057044,9.890383,-13.017281,-6.9801674,7.632701,-14.008228,33.952892,-31.71102,29.315512,8.460209,3.2541962,6.933129,12.131361,-19.592167,58.874794,64.02729,7.1101027,2.7602832,-5.1748333
176,-8.481600761413574,-125.1334228515625,74.78385925292969,5.421549395474277,-1.726493503134395,-91.1326160153178,17.47208,-10.718539,10.704621,7.1104245,-21.725723,-1.0012476,-26.792189,-8.049982,-11.357664,6.431194,2.1157818,10.890649,-13.591386,-7.4627333,7.6149197,-14.211936,34.57957,-31.581888,28.542416,8.477354,3.3118174,6.9276676,12.676715,-19.678259,58.58866,63.94677,7.2510524,2.778143,-5.1763783
177,-8.495713233947754,-126.05245971679688,74.47078704833984,5.779692517003241,-1.8516107400801434,-90.81819592052994,18.419134,-11.12604,10.068023,7.140026,-22.179962,-0.9561783,-27.531713,-8.43487,-12.162224,6.303336,1.3905251,11.412592,-14.031589,-7.768227,7.562994,-14.587038,34.936275,-31.533585,28.141191,8.4727955,3.317144,7.024772,13.138176,-19.721891,58.35432,63.97844,7.3921475,2.8504071,-5.186547
178,-8.516554832458496,-126.96580505371094,74.17633056640625,6.127503301373573,-1.9361187565830833,-90.5600407081462,19.327147,-11.511688,9.447258,7.151119,-22.553701,-0.9249718,-28.216425,-8.799895,-13.0602045,6.3009486,0.7433404,11.631925,-14.379281,-8.076084,7.5200133,-14.950404,35.34384,-31.524744,27.752394,8.362369,3.298071,7.180831,13.547809,-19.765556,58.10917,63.974377,7.516616,2.9588368,-5.197809
179,-8.535866737365723,-127.87626647949219,73.91499328613281,6.38116656187669,-1.9758210016567066,-90.37066148386023,20.188408,-11.782074,8.885686,7.162365,-22.839985,-0.9360001,-28.719276,-9.012852,-13.976924,6.2501407,0.2672198,11.681315,-14.657312,-8.285312,7.4804697,-15.255355,35.732178,-31.487915,27.419668,8.221652,3.26123,7.362256,13.881508,-19.799002,57.88372,63.99617,7.629117,3.0626526,-5.1980476
180,-8.557332038879395,-128.78082275390625,73.67402648925781,6.598091631033377,-1.9775499831116348,-90.20477643250231,21.004585,-12.000121,8.34404,7.181076,-23.014128,-0.9856898,-29.06718,-9.158666,-14.76299,6.281201,-0.08624709,11.722839,-14.90868,-8.4622,7.4169183,-15.407427,36.10881,-31.374613,27.092653,8.120952,3.2169785,7.531119,14.159205,-19.820225,57.65906,64.04303,7.716504,3.122069,-5.1703115
181,-8.580791473388672,-129.68670654296875,73.45500946044922,6.772090518020961,-1.9309559909521448,-90.07011918390594,21.76011,-12.156654,7.826079,7.217901,-23.099144,-1.0797497,-29.198088,-9.2071705,-15.482164,6.3253326,-0.26059607,11.792965,-15.134935,-8.585419,7.3160944,-15.471455,36.418446,-31.183573,26.869455,8.073807,3.1439443,7.678389,14.367334,-19.824678,57.44763,64.15429,7.773355,3.0943403,-5.086895
182,-8.60948371887207,-130.61004638671875,73.25741577148438,6.871448963772855,-1.8618171174221683,-89.99227333744528,22.497355,-12.222539,7.3582163,7.246524,-23.091927,-1.2212245,-29.09669,-9.103771,-16.183502,6.3558674,-0.2625347,11.801448,-15.321213,-8.64722,7.2655544,-15.293448,36.83612,-30.854284,26.470629,8.007394,3.0727644,7.818618,14.4685135,-19.80944,57.248188,64.29637,7.7877097,3.017244,-4.9644127
183,-8.63477897644043,-131.55360412597656,73.08314514160156,6.8941911171304575,-1.7448135333607426,-89.97154272285626,23.181614,-12.1974,6.970658,7.2834206,-22.96401,-1.4078443,-28.890835,-8.842327,-16.692469,6.421065,-0.1469587,11.709825,-15.4585085,-8.618555,7.1753235,-15.010294,37.156876,-30.46213,26.185719,7.9933953,3.0017316,7.962086,14.512508,-19.7737,57.06737,64.48591,7.803208,2.9516232,-4.8559637
184,-8.648991584777832,-132.52268981933594,72.93456268310547,6.807781136932027,-1.605762721551563,-90.03034816527276,23.851849,-12.050648,6.712581,7.3241096,-22.683025,-1.6456386,-28.612541,-8.37687,-16.847914,6.4955997,0.06265599,11.473251,-15.561923,-8.470175,7.1142025,-14.492786,37.501064,-29.936321,25.822245,7.9810653,2.9815872,8.099722,14.458029,-19.70231,56.885544,64.722046,7.800474,2.9665961,-4.814067
185,-8.660852432250977,-133.51776123046875,72.81520080566406,6.579572949205914,-1.4548934098203945,-90.18508163947055,24.524302,-11.756017,6.626049,7.3793573,-22.303238,-1.9398847,-28.181091,-7.6659837,-16.531605,6.551789,0.34976387,11.2497425,-15.570281,-8.159884,7.0665617,-13.85695,37.72847,-29.378073,25.553589,8.00636,3.0271716,8.257386,14.368528,-19.61576,56.670856,64.998215,7.768056,3.0893111,-4.8573146
186,-8.680258750915527,-134.50770568847656,72.74114227294922,6.270332662786987,-1.2979460564022935,-90.39847506158081,25.201609,-11.376099,6.6463733,7.4404864,-21.815598,-2.2790923,-27.617393,-6.8106394,-15.836905,6.676833,0.698913,11.027306,-15.567596,-7.7602677,7.0431356,-13.003374,37.933945,-28.676691,25.253624,8.058828,3.1190376,8.406649,14.168301,-19.466818,56.467484,65.37796,7.701957,3.2777991,-4.9579015
187,-8.705801010131836,-135.5215606689453,72.69773864746094,5.839358600177766,-1.130000258934344,-90.6806879319861,25.85474,-10.867871,6.772768,7.523353,-21.129837,-2.67442,-27.016188,-5.7736135,-14.969651,6.790038,1.2137566,10.464519,-15.451473,-7.23084,7.035291,-12.100974,38.01187,-28.013645,25.069416,8.133618,3.2256112,8.563209,13.949053,-19.288227,56.214897,65.75126,7.658314,3.5057788,-5.0960274
188,-8.734636306762695,-136.54830932617188,72.70053100585938,5.311807415741283,-0.9549667325076807,-91.0005353094708,26.46503,-10.250212,6.9474926,7.638369,-20.145935,-3.1230667,-26.506914,-4.6169114,-14.128087,6.8859963,1.9611406,9.225007,-15.233611,-6.59721,7.0515943,-11.285749,37.973915,-27.484528,25.073439,8.161158,3.3176033,8.716094,13.739233,-19.11581,55.89716,66.01345,7.6829815,3.7519,-5.253776
189,-8.781511306762695,-137.5896453857422,72.75838470458984,4.611076314793789,-0.7275883344569626,-91.35655610867086,26.785067,-9.411836,7.248144,8.234258,-19.14101,-3.5860174,-27.41695,-3.5520363,-13.24764,9.647809,1.6753427,6.824205,-14.940285,-5.7698145,7.0679603,-10.465914,37.823395,-27.01961,25.199446,8.171445,3.3890512,8.866588,13.490285,-18.881456,55.50315,66.23976,7.7676134,4.043091,-5.444713
190,-8.827705383300781,-138.6385498046875,72.84305572509766,3.7181640801566913,-0.4561573352395645,-91.70394818072907,25.466799,-8.127706,7.826743,12.202253,-19.67243,-4.093476,-28.365597,-2.2576678,-12.506812,12.25292,1.7842407,3.5515943,-14.600321,-4.735993,7.0841904,-9.640569,37.568615,-26.640831,25.440155,8.167556,3.4563859,9.022477,13.2385,-18.621775,55.02277,66.40155,7.891206,4.382261,-5.671556
191,-8.875144004821777,-139.705322265625,72.93443298339844,2.737774198277309,-0.21069199729670718,-91.96564684589428,24.14013,-6.698546,8.240776,16.20185,-19.849686,-4.7257166,-29.137682,-0.9273574,-12.092042,14.525763,2.0909414,0.23562443,-14.2992325,-3.614976,7.128855,-8.874958,37.221043,-26.36413,25.834066,8.134337,3.5220664,9.151993,12.970158,-18.345337,54.533356,66.526505,8.086782,4.692082,-5.912317
192,-8.941967964172363,-140.77883911132812,73.01758575439453,1.8102327495763373,-0.06562264855881306,-92.09704430908869,22.831621,-5.282634,8.366228,20.269146,-19.57517,-5.575583,-29.604534,0.21669538,-12.023892,16.51071,2.241951,-2.2880943,-14.074891,-2.5675428,7.227242,-8.142343,36.79452,-26.168964,26.345251,8.1015415,3.5870526,9.228235,12.685915,-18.064919,54.099068,66.62783,8.382965,4.896784,-6.1428614
193,-9.013882637023926,-141.855712890625,73.08470916748047,0.9706192147643231,-0.03761793292888895,-92.08077325232343,21.571003,-3.9322426,8.1814785,24.40421,-18.782616,-6.850184,-29.737562,1.0780594,-12.274579,18.277264,2.1083627,-3.6997387,-13.946409,-1.6334552,7.384639,-7.450282,36.302284,-26.049704,26.98885,8.060002,3.6551175,9.235036,12.4001,-17.788479,53.72061,66.686195,8.861088,4.972413,-6.384693
194,-9.076504707336426,-142.9254913330078,73.13468170166016,0.1581318551136501,-0.07757695133731685,-91.97837403259716,20.293964,-2.616635,7.7687564,28.65712,-17.587826,-8.452621,-29.655409,1.7393873,-12.724234,19.934708,1.7746377,-4.5033245,-13.859472,-0.7400025,7.5822763,-6.752673,35.749523,-25.985846,27.724895,8.01491,3.7244818,9.190351,12.105372,-17.518583,53.373077,66.68959,9.481931,4.9602118,-6.6387663
195,-9.137138366699219,-143.98562622070312,73.1837158203125,-0.6076329750525861,-0.17058643577437804,-91.87844837539599,18.96945,-1.4179759,7.1830835,32.970493,-16.081692,-10.028783,-29.431004,2.274484,-13.177347,21.533113,1.2528036,-5.069353,-13.743581,0.09836063,7.8207803,-6.081771,35.146507,-25.99411,28.553478,7.941393,3.787465,9.118159,11.753915,-17.262856,53.0945,66.66672,10.091886,4.8844285,-6.851039
196,-9.187182426452637,-145.0377960205078,73.24762725830078,-1.3007740482918273,-0.30599753304610977,-91.85472375883495,17.574825,-0.40280965,6.4848943,37.27591,-14.330027,-11.2343235,-29.11899,2.8022892,-13.47078,23.044483,0.5953489,-5.7415814,-13.541539,0.8672061,8.100795,-5.456604,34.505463,-26.084162,29.463081,7.819375,3.8366845,9.042033,11.301194,-17.031696,52.923447,66.64029,10.538271,4.7717366,-6.967935
197,-9.23040771484375,-146.0778350830078,73.31686401367188,-1.8949472188157344,-0.5161206580139351,-91.95471951739975,16.09264,0.34885815,5.6481743,41.692867,-12.263864,-11.842036,-28.744444,3.3978167,-13.529642,24.512856,-0.21597181,-6.5754547,-13.215353,1.5392712,8.451657,-4.855372,33.828503,-26.229351,30.440723,7.6389685,3.8801296,8.963854,10.733617,-16.834492,52.894047,66.61402,10.781268,4.608379,-6.944096
198,-9.258260726928711,-147.1208038330078,73.40782165527344,-2.3964712025607042,-0.7979413131346814,-92.13238953645781,14.549092,0.84907556,4.6940536,46.189392,-9.844912,-12.140263,-28.291111,4.01883,-13.441436,25.928873,-1.1618536,-7.3734746,-12.805476,2.1218598,8.860125,-4.258754,33.11811,-26.421265,31.48121,7.4118886,3.918787,8.872474,10.078325,-16.674236,52.984837,66.5624,10.903972,4.3905344,-6.8168616
199,-9.280838966369629,-148.1548309326172,73.51339721679688,-2.8367507592351893,-1.0911173276409962,-92.31763231887774,12.966775,1.201689,3.7364218,50.51593,-7.2051516,-12.522064,-27.740341,4.6313276,-13.3110075,27.155684,-2.1399772,-8.097909,-12.373117,2.648651,9.267088,-3.6981122,32.391605,-26.702833,32.59053,7.144507,3.934993,8.772156,9.355465,-16.547771,53.148445,66.4605,10.937388,4.159504,-6.657527
200,-9.309520721435547,-149.16790771484375,73.62313842773438,-3.2523111703357426,-1.3346439940831611,-92.44332313474753,11.34611,1.5336654,2.8521128,54.47561,-4.517406,-13.333941,-27.071642,5.187027,-13.241056,28.065878,-3.062728,-8.715732,-11.973467,3.1493392,9.61688,-3.2118168,31.67595,-27.124334,33.777622,6.8342586,3.9113955,8.667156,8.582983,-16.448208,53.33038,66.28843,10.907213,3.9555066,-6.537944
201,-9.339963912963867,-150.17332458496094,73.75337219238281,-3.649948517460776,-1.522538682529788,-92.50134884278772,9.620665,1.8592751,1.9914442,58.15568,-1.4490485,-14.822944,-26.25622,5.674605,-13.263827,28.610823,-3.9399073,-9.2226925,-11.609224,3.6199613,9.911769,-2.7964613,30.991518,-27.698072,35.03816,6.458816,3.8377178,8.577575,7.749416,-16.368275,53.554714,66.043465,10.824817,3.7806897,-6.457262
202,-9.341957092285156,-151.15118408203125,73.88941955566406,-3.8058113721783813,-1.658120826634642,-92.49460589772225,7.756365,2.2484577,1.7950492,61.619053,2.0255995,-15.000033,-25.515734,5.842768,-13.220355,29.25042,-4.98857,-9.579494,-11.276302,3.8555002,10.120947,-2.4248369,30.344595,-28.39663,36.355278,6.0161943,3.7259545,8.493696,6.8481126,-16.303175,53.83844,65.7345,10.674812,3.6177487,-6.384516
203,-9.359567642211914,-152.11383056640625,74.03361511230469,-3.8672706728465034,-1.7491610846539702,-92.4419209662824,5.8266487,2.7871518,1.8611419,64.82179,5.064798,-15.000033,-24.762867,5.8981767,-13.178934,29.778067,-6.044048,-9.839052,-10.96183,3.9864423,10.273575,-2.0890582,29.73738,-29.20316,37.709618,5.541319,3.5939236,8.37462,5.907179,-16.249542,54.110474,65.36609,10.438394,3.4694612,-6.344391
204,-9.384265899658203,-153.06256103515625,74.18997955322266,-3.9841216494649507,-1.8031304409608664,-92.36834297911429,3.9313014,3.4778326,1.9062749,67.677185,6.8130198,-15.000033,-23.921082,6.0374055,-13.184537,30.00652,-6.947071,-10.040129,-10.641629,4.1547093,10.395451,-1.7896963,29.168533,-30.108952,39.08854,5.067086,3.4598877,8.1803255,4.9553566,-16.20626,54.2991,64.94078,10.100162,3.3400033,-6.3616667
205,-9.423828125,-153.99346923828125,74.35641479492188,-4.186065536187661,-1.7911927561411098,-92.23050566978984,2.0676148,4.27314,1.8023263,70.154274,6.7878413,-15.000033,-22.99575,6.269025,-13.287385,29.890493,-7.684068,-10.168248,-10.342162,4.3882966,10.462146,-1.5615227,28.642271,-31.16587,40.522537,4.5294886,3.3208735,7.906293,4.001941,-16.171469,54.380386,64.440285,9.594047,3.2430263,-6.4370365
206,-9.472779273986816,-154.9138946533203,74.52715301513672,-4.436976743752101,-1.7231475087471082,-92.04322611501411,0.1903732,5.1393456,1.5950656,72.31819,5.5092955,-15.000033,-21.989647,6.551714,-13.4625,29.469194,-8.301478,-10.217302,-10.049398,4.6482935,10.4788265,-1.398262,28.158928,-32.367577,42.012478,3.9302793,3.1721277,7.5714164,3.032606,-16.145124,54.38708,63.87232,8.946629,3.1727526,-6.5597177
207,-9.535792350769043,-155.8157958984375,74.69772338867188,-4.702967720887345,-1.6573068173302095,-91.90859697247669,-1.6541171,6.0071316,1.3340619,74.171555,3.6509745,-15.000033,-20.8889,6.905594,-13.591533,28.818434,-8.794858,-10.215731,-9.692852,4.907659,10.491336,-1.2338243,27.705969,-33.609703,43.497852,3.4083009,3.0289795,7.171629,2.039283,-16.131878,54.338272,63.275402,8.283575,3.1051319,-6.737506
208,-9.60802936553955,-156.7149658203125,74.87794494628906,-4.951102806399422,-1.6531884376587989,-91.93063867177942,-3.417041,6.8235984,1.0825424,75.72192,1.885677,-15.000033,-19.68666,7.3498416,-13.556053,28.024069,-9.162111,-10.19645,-9.204224,5.1448565,10.54514,-1.0040277,27.26529,-34.784813,44.92284,3.106394,2.9044409,6.7039795,1.0109034,-16.14102,54.26175,62.68934,7.7339873,3.0161119,-6.97777
209,-9.680425643920898,-157.6201934814453,75.0758285522461,-5.192439651287451,-1.7334646483662894,-92.15851476983069,-5.0952883,7.5168414,0.7570939,76.962395,0.19901825,-15.000033,-18.346088,7.9259653,-13.306556,27.04059,-9.358467,-10.152873,-8.542002,5.3738894,10.658921,-0.7164662,26.825777,-35.905525,46.30728,3.0640311,2.7829106,6.1405287,-0.06590668,-16.182209,54.172665,62.118763,7.34804,2.881242,-7.2970734
210,-9.751669883728027,-158.51905822753906,75.27529907226562,-5.430752561985809,-1.8653044217192534,-92.53401663598069,-6.7113457,8.152144,0.3768484,77.8941,-1.6957587,-15.000033,-16.872759,8.604019,-12.892091,25.83159,-9.390519,-10.075141,-7.7493463,5.6030316,10.800336,-0.40532646,26.385141,-37.01303,47.683525,3.2096553,2.6598434,5.493298,-1.1790017,-16.259466,54.06262,61.536217,7.0552335,2.720977,-7.685848
211,-9.806960105895996,-159.4191436767578,75.47564697265625,-5.563676724558177,-2.016333775211903,-92.98120856073315,-8.257661,8.936572,0.35792005,78.5134,-3.518975,-14.572322,-15.408368,9.179069,-12.339385,24.67935,-9.427803,-9.971036,-6.9038515,5.7363153,10.926535,-0.045823324,25.940054,-38.043762,49.012897,3.5183873,2.5618088,4.820156,-2.2996824,-16.372587,53.919968,60.934273,6.79567,2.5776606,-8.112219
212,-9.829687118530273,-160.32516479492188,75.68600463867188,-5.483628026614402,-2.152713482433451,-93.41592199990912,-9.709104,10.106317,1.2029152,78.80635,-5.0160418,-12.976241,-14.098518,9.442112,-11.697304,23.868444,-9.645824,-9.841652,-6.095416,5.676996,11.003475,0.3937209,25.488152,-38.92507,50.250404,3.970286,2.5158386,4.1775246,-3.408526,-16.51914,53.742374,60.312973,6.5152216,2.4934986,-8.544475
213,-9.84315013885498,-161.23777770996094,75.8906021118164,-5.383839545465749,-2.3134870559886327,-93.90463249694662,-10.973445,11.535809,2.4150922,78.81643,-6.19648,-11.763144,-12.738301,9.682542,-10.996244,23.015917,-9.854427,-9.755236,-5.275577,5.599666,11.083775,0.9419445,25.026821,-39.635147,51.373627,4.6512427,2.5379033,3.5598125,-4.509543,-16.697367,53.54905,59.69863,6.193486,2.483793,-8.99055
214,-9.864439010620117,-162.1377410888672,76.08563995361328,-5.251075999675542,-2.5011127299330167,-94.46287197861471,-12.051955,13.153167,3.9628146,78.53671,-7.1930637,-10.73965,-11.331243,9.893276,-10.212044,22.128017,-10.042683,-9.6854725,-4.424784,5.494184,11.171455,1.5778863,24.555868,-40.210514,52.40913,5.5452905,2.6048079,2.9419293,-5.615821,-16.907198,53.34426,59.08925,5.863947,2.5250385,-9.460991
215,-9.872659683227539,-163.04049682617188,76.27509307861328,-5.109719890835297,-2.6878854506610814,-95.03748890999746,-13.017233,14.773499,5.5997643,78.02267,-8.086832,-9.809197,-9.899775,10.077759,-9.394467,21.191788,-10.203399,-9.620851,-3.5826979,5.3842134,11.25249,2.2656639,24.079218,-40.666542,53.376503,6.477466,2.689705,2.3497622,-6.7156997,-17.14748,53.100307,58.437115,5.5530334,2.6019518,-9.927177
216,-9.897146224975586,-163.95018005371094,76.45916748046875,-4.986684548337004,-2.845407727921891,-95.57326903367326,-13.974207,16.213915,7.0601974,77.32774,-8.952709,-8.869593,-8.467509,10.243024,-8.595228,20.19122,-10.3276005,-9.550391,-2.7910933,5.2923036,11.311491,2.9714165,23.603868,-41.017017,54.290745,7.270981,2.7703307,1.8102425,-7.7965426,-17.417007,52.786682,57.69395,5.2847085,2.698405,-10.361104
217,-9.91482925415039,-164.85791015625,76.63214874267578,-4.8907254660534125,-2.9756330631601826,-96.06384044862848,-14.953392,17.475853,8.32025,76.46193,-9.820788,-7.86068,-7.021979,10.3981495,-7.810541,19.10472,-10.403358,-9.483226,-2.0575595,5.221224,11.348897,3.7061079,23.133337,-41.244488,55.135853,7.925259,2.857064,1.3204315,-8.861904,-17.716507,52.382957,56.848248,5.083673,2.8343923,-10.758142
218,-9.923257827758789,-165.7662811279297,76.78256225585938,-4.809216814131312,-3.08994312511268,-96.53401043934386,-15.911048,18.632668,9.511193,75.39678,-10.644749,-6.8497386,-5.5575304,10.535852,-7.021219,17.946283,-10.437367,-9.416421,-1.3631761,5.1591077,11.371224,4.485206,22.668121,-41.349285,55.89994,8.517747,2.9592395,0.8685246,-9.913101,-18.046923,51.905853,55.923008,4.9258227,3.0096183,-11.1320915
219,-9.926753997802734,-166.66229248046875,76.91606903076172,-4.736099208711642,-3.1744563986591636,-96.97506397301699,-16.865938,19.62064,10.582377,74.12305,-11.377071,-5.91406,-4.1077204,10.6451645,-6.2579503,16.749456,-10.450252,-9.326433,-0.70984054,5.104297,11.370395,5.2821965,22.211184,-41.369694,56.603886,8.99021,3.0574708,0.46990487,-10.94932,-18.409243,51.393764,54.933247,4.7777777,3.1770308,-11.483036
220,-9.92434024810791,-167.56101989746094,77.02738189697266,-4.672520858585233,-3.2156407247324132,-97.378657186117,-17.838373,20.383034,11.481814,72.630844,-11.964838,-5.1242814,-2.7105258,10.717112,-5.5524373,15.556489,-10.463808,-9.195198,-0.09823053,5.054539,11.338625,6.071045,21.766853,-41.343018,57.269253,9.284881,3.1328323,0.14046173,-11.962114,-18.803812,50.876354,53.88902,4.5967383,3.290094,-11.811088
221,-9.922322273254395,-168.45973205566406,77.12574005126953,-4.613439718510855,-3.1991480634759397,-97.7344694890535,-18.867115,20.886799,12.163102,70.90602,-12.393414,-4.4614162,-1.3729795,10.748511,-4.9180546,14.342277,-10.468351,-9.019211,0.46347624,5.004497,11.264327,6.853835,21.337416,-41.26425,57.889942,9.375222,3.1947825,-0.117724404,-12.947191,-19.231098,50.34803,52.780235,4.364392,3.338099,-12.122677
222,-9.918865203857422,-169.3529815673828,77.2041244506836,-4.5641026366391575,-3.1363605297145805,-98.05020310603538,-19.936876,21.180742,12.662613,68.95359,-12.682665,-3.8847005,-0.070104316,10.751512,-4.3370023,13.082611,-10.455149,-8.816236,0.97836083,4.9562116,11.155551,7.6442704,20.923218,-41.11768,58.45309,9.29606,3.251257,-0.31228876,-13.9086895,-19.691755,49.79675,51.604237,4.1040864,3.3455184,-12.41588
223,-9.916559219360352,-170.24964904785156,77.26321411132812,-4.5300492755641235,-3.0523276275380984,-98.34449911918955,-20.987125,21.335121,13.05219,66.79234,-12.828924,-3.42879,1.1953583,10.740619,-3.7953138,11.850174,-10.45665,-8.602715,1.4639063,4.91833,11.034056,8.430364,20.526829,-40.92815,58.972378,9.076908,3.2814105,-0.44128987,-14.853492,-20.185692,49.245216,50.381393,3.8401058,3.3188882,-12.678263
224,-9.910110473632812,-171.14154052734375,77.29627227783203,-4.5194965052518965,-2.972253932399715,-98.63591242921022,-21.956816,21.418713,13.404766,64.43838,-12.826766,-3.1313262,2.4348395,10.730317,-3.276032,10.687993,-10.4949,-8.393604,1.9386379,4.899217,10.921623,9.19995,20.15154,-40.71995,59.460262,8.747554,3.2637005,-0.5033934,-15.792098,-20.71191,48.71968,49.13401,3.602682,3.2637239,-12.897296
225,-9.912291526794434,-172.0262451171875,77.3041763305664,-4.526559482095972,-2.8976995880514536,-98.92856371988371,-22.843616,21.428537,13.6987295,61.872208,-12.647521,-3.02009,3.6407826,10.718829,-2.7775173,9.614198,-10.579034,-8.195502,2.4062724,4.8952336,10.82364,9.951956,19.800549,-40.48528,59.91022,8.234374,3.17572,-0.4767125,-16.728407,-21.270502,48.21778,47.855385,3.4021163,3.159385,-13.059638
226,-9.907135963439941,-172.92111206054688,77.29071044921875,-4.552655314914771,-2.817858656335479,-99.21381232560631,-23.67123,21.345108,13.905538,59.08633,-12.298974,-3.058511,4.812123,10.703324,-2.306376,8.601248,-10.696861,-8.004627,2.8584046,4.902934,10.729215,10.695111,19.474802,-40.214752,60.313004,7.5488186,3.033141,-0.37118155,-17.655725,-21.861311,47.7286,46.535908,3.2215087,3.0095243,-13.175686
227,-9.907092094421387,-173.81394958496094,77.25292205810547,-4.60121168585488,-2.737551560109044,-99.49131601698788,-24.418598,21.208546,14.089426,56.11187,-11.8306265,-3.1910434,5.9563556,10.694517,-1.8596914,7.648878,-10.851187,-7.816194,3.2955441,4.929783,10.635044,11.4305,19.173607,-39.92978,60.679726,6.848503,2.8718514,-0.23208334,-18.571583,-22.48226,47.266167,45.196796,3.049334,2.8561943,-13.269007
228,-9.914451599121094,-174.7046661376953,77.17687225341797,-4.644905994846447,-2.6618415248224268,-99.76698958976516,-25.07365,21.035952,14.337289,53.00851,-11.304365,-3.36188,6.939018,10.664825,-1.4527196,7.055625,-11.195003,-7.619336,3.7238688,4.950228,10.5390215,12.157171,18.894583,-39.65283,61.025135,6.2893004,2.7293925,-0.102713905,-19.46238,-23.128521,46.83367,43.853897,2.8591018,2.7419455,-13.3630705
229,-9.914833068847656,-175.61021423339844,77.07218170166016,-4.714023030513972,-2.592987233384302,-100.04249448997129,-25.624414,20.876795,14.650435,49.72994,-10.69516,-3.5018418,7.650027,10.646126,-1.1128724,7.0506363,-11.847655,-7.4061255,4.14481,4.9959064,10.436616,12.88094,18.635384,-39.38329,61.354336,5.9148126,2.6075275,0.015168555,-20.328354,-23.79701,46.430386,42.503826,2.628405,2.6891263,-13.451626
230,-9.914898872375488,-176.51730346679688,76.94466400146484,-4.81997187184328,-2.5282832056434064,-100.31370478114874,-26.079811,20.720081,14.977057,46.253914,-9.979679,-3.6567729,8.356078,10.66103,-0.795052,7.06875,-12.512,-7.1837792,4.5540376,5.0778537,10.328821,13.598129,18.395067,-39.111027,61.662895,5.6402764,2.4893506,0.14276852,-21.18185,-24.487045,46.05901,41.14714,2.3781953,2.6708317,-13.526432
231,-9.923629760742188,-177.42861938476562,76.79183197021484,-4.952599303990477,-2.4626924386743996,-100.57430889704183,-26.444513,20.523134,15.303294,42.611736,-9.191801,-3.9445012,9.065278,10.698323,-0.49061015,7.08587,-13.178809,-6.959671,4.9466505,5.180919,10.216796,14.294195,18.172987,-38.841766,61.950386,5.432917,2.3858595,0.27203086,-22.026262,-25.195402,45.72569,39.804085,2.1511738,2.6559184,-13.607717
232,-9.941729545593262,-178.34027099609375,76.62493896484375,-5.100224512374404,-2.391993849208809,-100.8187367348444,-26.716496,20.249468,15.614092,38.818817,-8.358482,-4.479005,9.778249,10.747755,-0.1916598,7.097781,-13.849239,-6.740515,5.3177676,5.291499,10.102144,14.954353,17.96848,-38.58275,62.21798,5.257908,2.3079882,0.3946089,-22.841648,-25.915993,45.418613,38.48256,1.9658297,2.6134953,-13.716639
233,-9.95976734161377,-179.2535858154297,76.44142150878906,-5.273658441891467,-2.320619337643589,-101.05041979757381,-26.87752,19.89454,15.8814335,34.76993,-7.427878,-5.296939,10.495383,10.821536,0.10601222,7.1171103,-14.533228,-6.523025,5.671568,5.416196,9.98598,15.578794,17.783535,-38.33605,62.462307,5.1225047,2.2647214,0.5124948,-23.656857,-26.646555,45.159,37.201996,1.8557174,2.5214376,-13.86744
234,-9.975543022155762,-180.18336486816406,76.24371337890625,-5.476298676126235,-2.255399495647133,-101.27928166825791,-26.895536,19.502888,16.119808,30.420612,-6.379492,-6.3186784,11.229301,10.925103,0.40804246,7.130822,-15.220256,-6.3034735,6.014373,5.56362,9.870348,16.178427,17.618029,-38.095024,62.681194,5.039415,2.2500067,0.62869155,-24.437616,-27.384321,44.922028,35.932144,1.7699531,2.4007928,-14.046658
235,-9.98422622680664,-181.11175537109375,76.0322265625,-5.6973698887961834,-2.2005729526580713,-101.51357527109106,-26.727654,19.104687,16.392567,25.839104,-5.2645917,-7.489797,11.9791975,11.041065,0.72584784,7.143043,-15.904643,-6.087922,6.3601847,5.72519,9.771104,16.740948,17.470032,-37.86199,62.88615,4.9820485,2.246991,0.7394816,-25.280264,-28.129213,44.757713,34.753036,1.777235,2.2825031,-14.230953
236,-9.99809741973877,-182.04678344726562,75.79894256591797,-5.930477982269986,-2.165560928308679,-101.76667563204943,-26.32663,18.720081,16.774036,21.088282,-4.1213365,-8.770741,12.753226,11.160281,1.0775477,7.153534,-16.578552,-5.883742,6.712289,5.903137,9.694452,17.271059,17.33061,-37.63,63.08489,4.9243255,2.2433343,0.83829236,-26.042639,-28.874445,44.574574,33.582005,1.7519253,2.2000122,-14.398982
237,-10.000244140625,-182.99179077148438,75.54959106445312,-6.208303874676318,-2.175452435993818,-102.06939956334446,-25.568089,18.339087,17.277102,15.8718815,-2.8729794,-10.274422,13.580386,11.316548,1.5030217,7.159267,-17.25576,-5.6939163,7.101389,6.137383,9.65971,17.77464,17.194876,-37.396732,63.271576,4.8743677,2.2370348,0.94257253,-26.789772,-29.621887,44.39581,32.457844,1.7287602,2.16311,-14.546331
238,-10.00627326965332,-183.93560791015625,75.2750015258789,-6.597062249606441,-2.279236694541039,-102.47697605051863,-24.304745,18.022099,17.93967,9.936751,-1.3564941,-12.011559,14.516513,11.582737,2.0697997,7.155755,-17.926598,-5.526642,7.5801435,6.504839,9.6898985,18.265263,17.059818,-37.164524,63.437565,4.841894,2.2357566,1.051063,-27.528605,-30.374735,44.23723,31.382952,1.7203499,2.1553686,-14.678888
239,-9.99837875366211,-184.89208984375,74.98115539550781,-7.082036579848281,-2.478752152235736,-102.98942553900154,-24.119675,18.288633,18.375715,6.843601,-1.2870305,-13.786063,15.560072,11.940227,2.7806504,7.1462426,-18.553614,-5.3846283,8.157637,6.997336,9.780598,18.727972,16.923218,-36.947674,63.604282,4.802658,2.2383857,1.1317481,-28.233942,-31.13117,44.108322,30.363308,1.7349559,2.1678786,-14.79144
240,-9.980810165405273,-185.84783935546875,74.68858337402344,-7.539064997663762,-2.6877532045638435,-103.47864707241119,-25.032967,18.914797,18.654787,6.599942,-2.4948978,-15.000033,16.611835,12.238456,3.4850144,7.146221,-19.119253,-5.2416887,8.711624,7.4709435,9.876112,19.13182,16.783548,-36.754692,63.81045,4.73062,2.2437568,1.1507356,-28.841036,-31.888365,44.00149,29.375618,1.7614213,2.1872962,-14.886489
241,-9.932998657226562,-186.81231689453125,74.40696716308594,-7.885568771598265,-2.827953157450878,-103.83179344813902,-25.843977,19.232443,19.185574,6.382034,-3.4744875,-15.000033,17.580555,12.377014,4.0380845,7.1735663,-19.673431,-5.0745053,9.095416,7.7963505,9.900328,19.548885,16.702667,-36.562416,64.00632,4.586609,2.2535,1.0755677,-29.621122,-32.291023,44.00949,28.86267,1.7682234,2.1934092,-14.975136
