liuchenxu125/GMR/soma-retargeter/assets/motions/csv/small_light_one_hand_pick_up_front_low_002__A507.csv
Frame,root_translateX,root_translateY,root_translateZ,root_rotateX,root_rotateY,root_rotateZ,left_hip_pitch_joint_dof,left_hip_roll_joint_dof,left_hip_yaw_joint_dof,left_knee_joint_dof,left_ankle_pitch_joint_dof,left_ankle_roll_joint_dof,right_hip_pitch_joint_dof,right_hip_roll_joint_dof,right_hip_yaw_joint_dof,right_knee_joint_dof,right_ankle_pitch_joint_dof,right_ankle_roll_joint_dof,waist_yaw_joint_dof,waist_roll_joint_dof,waist_pitch_joint_dof,left_shoulder_pitch_joint_dof,left_shoulder_roll_joint_dof,left_shoulder_yaw_joint_dof,left_elbow_joint_dof,left_wrist_roll_joint_dof,left_wrist_pitch_joint_dof,left_wrist_yaw_joint_dof,right_shoulder_pitch_joint_dof,right_shoulder_roll_joint_dof,right_shoulder_yaw_joint_dof,right_elbow_joint_dof,right_wrist_roll_joint_dof,right_wrist_pitch_joint_dof,right_wrist_yaw_joint_dof
0,-0.056598957628011703,2.0421667098999023,78.41751861572266,0.01821817559919449,0.037921289854248814,-88.70927033882442,0.86851275,2.4439232,8.618109,8.200497,-9.34348,-1.8995041,1.156819,-2.8012626,-6.883683,8.515539,-10.608788,2.254407,-1.5013162,1.9012018,5.0627537,0.42842266,11.184102,-18.931564,67.7503,-4.2875547,-1.7377417,-4.259104,0.2131417,-9.704188,6.3892546,62.61338,-15.712655,0.8480319,-5.065674
1,-0.05637003481388092,2.042736768722534,78.41741180419922,0.017476417155718314,0.03196813437728391,-88.71099096437791,0.87345535,2.4444797,8.617534,8.205175,-9.347174,-1.8958397,1.1635312,-2.801003,-6.883389,8.516402,-10.611514,2.256935,-1.5118331,1.8985212,5.0712914,0.43484646,11.189719,-18.939796,67.748314,-4.3225684,-1.7411923,-4.2542334,0.2080599,-9.702623,6.393171,62.621193,-15.733004,0.84229493,-5.0698476
2,-0.0574483759701252,2.041325807571411,78.41719818115234,0.018664943696014357,0.025752079532716222,-88.71266770740351,0.8782551,2.4453013,8.616704,8.210774,-9.3515005,-1.8919091,1.1715629,-2.8005793,-6.8832498,8.515335,-10.613573,2.259771,-1.522316,1.89654,5.0796347,0.43985692,11.194844,-18.949984,67.7484,-4.360142,-1.7455052,-4.24813,0.20279329,-9.701266,6.397639,62.63006,-15.754015,0.83628994,-5.074113
3,-0.05918538570404053,2.0416877269744873,78.41566467285156,0.019759139734037746,0.020229166624133654,-88.71435880133302,0.88264334,2.4460394,8.616211,8.2161455,-9.355733,-1.8885264,1.1782656,-2.8001046,-6.8829436,8.515365,-10.615853,2.262048,-1.5281609,1.8920285,5.0843587,0.44995514,11.2080765,-18.970499,67.74353,-4.4021726,-1.7480307,-4.243144,0.19927704,-9.697709,6.4022646,62.640522,-15.76825,0.83067423,-5.0795994
4,-0.061845798045396805,2.042001724243164,78.4134521484375,0.01947665254158058,0.016279306790050758,-88.71624330156871,0.8870348,2.4466136,8.616882,8.218117,-9.357925,-1.8863797,1.1834948,-2.799721,-6.8818326,8.515008,-10.617169,2.263057,-1.5322632,1.8924472,5.087826,0.45472157,11.212172,-18.975441,67.74681,-4.421882,-1.7477403,-4.2406683,0.19975252,-9.696659,6.4027286,62.64371,-15.778768,0.82744396,-5.0839972
5,-0.0619509257376194,2.0405545234680176,78.41168975830078,0.01940727963840818,0.013972592283381689,-88.71827713732495,0.8903068,2.4474804,8.61914,8.219537,-9.359508,-1.8857995,1.1865113,-2.7989237,-6.879663,8.51566,-10.617742,2.2620294,-1.5273113,1.8950064,5.085708,0.46557432,11.22017,-18.98318,67.74523,-4.431771,-1.7419233,-4.241815,0.20752957,-9.694386,6.3994184,62.64218,-15.77741,0.8277761,-5.0888147
6,-0.06250292807817459,2.039104461669922,78.41082763671875,0.019858398840943453,0.012923468763308884,-88.7202961572638,0.8923276,2.4483993,8.622325,8.22156,-9.361555,-1.8863271,1.1868067,-2.7982373,-6.876859,8.519481,-10.619229,2.2596185,-1.5197028,1.8999498,5.08058,0.47149065,11.2259035,-18.983423,67.75244,-4.4285297,-1.7341243,-4.2458344,0.21458037,-9.692295,6.3944592,62.641716,-15.768498,0.83062243,-5.093521
7,-0.06093793362379074,2.0373148918151855,78.41165161132812,0.019370293432422952,0.01294559843481379,-88.72213158564969,0.89427775,2.4491444,8.625625,8.220574,-9.361443,-1.887665,1.185829,-2.7977173,-6.874089,8.522942,-10.620137,2.2569668,-1.5122815,1.9070679,5.0747776,0.47781286,11.228055,-18.982132,67.75995,-4.4187512,-1.725331,-4.2496967,0.22212154,-9.691415,6.3908916,62.638577,-15.75573,0.8324487,-5.098037
8,-0.06109754741191864,2.0373997688293457,78.41361236572266,0.019094399705259855,0.013915358050583405,-88.7237157049148,0.8955335,2.4498973,8.627915,8.219409,-9.361587,-1.8895948,1.1857119,-2.7968726,-6.872327,8.523519,-10.620536,2.255142,-1.503346,1.9105526,5.0666914,0.488241,11.234739,-18.979279,67.765045,-4.39878,-1.7175273,-4.2567205,0.23805329,-9.6886215,6.3787823,62.628418,-15.747187,0.8286867,-5.0994906
9,-0.062421225011348724,2.035214900970459,78.41455841064453,0.017843866350749207,0.016020073702191343,-88.72401017460133,0.8959003,2.451091,8.6277895,8.217007,-9.36101,-1.8930464,1.1843882,-2.7955194,-6.8731146,8.523598,-10.621031,2.2541711,-1.5017146,1.9138055,5.0611377,0.49710515,11.241978,-18.978817,67.771545,-4.374845,-1.7118624,-4.2627554,0.2464373,-9.685654,6.36998,62.620945,-15.73544,0.8154022,-5.10054
10,-0.06157318875193596,2.0331671237945557,78.416015625,0.017574774370124276,0.01953261816139262,-88.72372468668391,0.89452213,2.4528089,8.626261,8.214503,-9.359997,-1.8978572,1.1840146,-2.7935004,-6.8755,8.519558,-10.620093,2.2535322,-1.5042677,1.9174235,5.0531917,0.5056889,11.246955,-18.978592,67.782585,-4.344439,-1.7073065,-4.269791,0.2486408,-9.6836405,6.3644667,62.620388,-15.718107,0.79482466,-5.101341
11,-0.06288297474384308,2.0302515029907227,78.41594696044922,0.016401776422897998,0.022393079734007663,-88.72263293123511,0.89371103,2.454025,8.624115,8.211973,-9.359171,-1.901997,1.1843457,-2.7917602,-6.8782578,8.515395,-10.619327,2.253593,-1.5072101,1.9166449,5.0477457,0.51719916,11.260643,-18.978586,67.78867,-4.318183,-1.7058377,-4.276932,0.24903537,-9.677829,6.357378,62.61944,-15.70389,0.7746277,-5.099538
12,-0.0625123530626297,2.0278820991516113,78.41590881347656,0.01547929522276604,0.022672441561016284,-88.72110677656265,0.89510083,2.4542239,8.622337,8.210992,-9.359881,-1.9033363,1.186183,-2.7914522,-6.879834,8.514899,-10.621336,2.2548046,-1.5110794,1.9201996,5.0453725,0.5224016,11.263256,-18.978106,67.803085,-4.3068137,-1.7094632,-4.274881,0.24863344,-9.676769,6.3562427,62.61708,-15.695323,0.7649345,-5.097212
13,-0.06367380172014236,2.025893449783325,78.41419982910156,0.016978453749936555,0.018588626559756787,-88.71833947735081,0.89916563,2.4527636,8.620383,8.214112,-9.363627,-1.9002569,1.1937144,-2.7926598,-6.880267,8.512923,-10.623397,2.2578712,-1.5140185,1.918615,5.0472827,0.53135115,11.269127,-18.974178,67.817535,-4.313129,-1.726495,-4.2665997,0.24965008,-9.674319,6.3538413,62.612675,-15.6991005,0.7648956,-5.0865703
14,-0.06384479999542236,2.023470878601074,78.41292572021484,0.01867261780238708,0.011539857870305828,-88.71494492526172,0.9059751,2.4501615,8.618556,8.218223,-9.3686495,-1.8942534,1.2030818,-2.7950628,-6.879551,8.514171,-10.627764,2.2622652,-1.5173292,1.9153273,5.0552034,0.53862375,11.276859,-18.968111,67.83219,-4.334648,-1.750427,-4.2531605,0.24956755,-9.670919,6.352911,62.604336,-15.71093,0.7739781,-5.072405
15,-0.06396462768316269,2.0232295989990234,78.41150665283203,0.021402926381722958,0.004596400656641272,-88.71107713493089,0.91209507,2.4474773,8.616459,8.223272,-9.374108,-1.8879502,1.2124363,-2.797877,-6.8792276,8.515396,-10.632176,2.2669082,-1.5219266,1.9110386,5.0646057,0.548803,11.287294,-18.961634,67.84038,-4.3588104,-1.7727675,-4.2380176,0.24745221,-9.666313,6.355001,62.597076,-15.724601,0.78516626,-5.059357
16,-0.06485457718372345,2.0240116119384766,78.41017150878906,0.02280407976699939,0.0017816878351969373,-88.70750347240744,0.9148103,2.445358,8.614477,8.225582,-9.377168,-1.8839796,1.2175093,-2.7999437,-6.8802786,8.515768,-10.634981,2.2704651,-1.5218829,1.9122878,5.0680943,0.55160296,11.289362,-18.961266,67.852554,-4.372202,-1.7840253,-4.2245693,0.24627446,-9.665506,6.356301,62.595867,-15.732928,0.79121375,-5.0533504
17,-0.06431686133146286,2.0227463245391846,78.41094970703125,0.02297599765870882,0.0034198427221424745,-88.70331070707974,0.9141875,2.4439263,8.611931,8.22418,-9.377192,-1.8834869,1.2193351,-2.801449,-6.8841863,8.512706,-10.634799,2.2730434,-1.5274092,1.906149,5.0669856,0.56446946,11.310122,-18.96868,67.84864,-4.3848505,-1.7837734,-4.2122984,0.23831582,-9.657944,6.3725066,62.60501,-15.733835,0.795996,-5.0541525
18,-0.06287897378206253,2.0206730365753174,78.41216278076172,0.022878590658670914,0.009158403865729947,-88.69915099035983,0.9090644,2.4429412,8.609398,8.222454,-9.376122,-1.8848388,1.2165917,-2.802554,-6.889466,8.509587,-10.63343,2.2751782,-1.5270691,1.9054251,5.061056,0.56960684,11.324371,-18.98378,67.847435,-4.3889604,-1.7724719,-4.198654,0.23128302,-9.65366,6.3868227,62.619247,-15.733649,0.7990477,-5.060799
19,-0.06190203130245209,2.0175657272338867,78.4140853881836,0.022724534241077725,0.01508566241803361,-88.69505398028663,0.9054291,2.4420555,8.606716,8.217208,-9.373289,-1.8868582,1.2138406,-2.8035676,-6.8950796,8.506125,-10.631839,2.2763493,-1.5254439,1.9038255,5.05504,0.57910573,11.34289,-19.002348,67.8385,-4.3941126,-1.7588484,-4.1899877,0.22621258,-9.648655,6.401424,62.63249,-15.72666,0.7969437,-5.0698586
20,-0.0609651654958725,2.0161869525909424,78.41494750976562,0.02234740631768414,0.017747533865933498,-88.69127162717142,0.9036141,2.441843,8.603539,8.216326,-9.373775,-1.8882666,1.21339,-2.8040612,-6.8999376,8.506134,-10.633374,2.2760434,-1.5240465,1.9075315,5.0523,0.578896,11.348764,-19.008722,67.844826,-4.3915367,-1.7526478,-4.188177,0.22239488,-9.647247,6.4064946,62.641975,-15.716336,0.78567183,-5.078365
21,-0.06051570922136307,2.013152599334717,78.41389465332031,0.021012709597530415,0.015193290216008265,-88.68809414342867,0.90671235,2.4422703,8.599743,8.218448,-9.377707,-1.8884654,1.2192218,-2.8038855,-6.903584,8.505342,-10.636213,2.273351,-1.5225744,1.9114006,5.053002,0.5819188,11.354218,-19.009176,67.85265,-4.3920717,-1.7546097,-4.199969,0.22342668,-9.645774,6.4073095,62.64543,-15.688853,0.7579551,-5.088772
22,-0.06074796989560127,2.0121188163757324,78.4124984741211,0.020651269183086917,0.009736264924364546,-88.68528415765782,0.9124274,2.4433115,8.595465,8.222894,-9.384206,-1.8881649,1.2253851,-2.803415,-6.906516,8.511071,-10.643773,2.268749,-1.5218381,1.916314,5.0561557,0.5861574,11.357634,-19.004854,67.861046,-4.3928733,-1.7602649,-4.2207823,0.22661619,-9.644656,6.404487,62.644367,-15.651292,0.7199105,-5.1007524
23,-0.06020939350128174,2.010331392288208,78.41068267822266,0.018865701038488853,0.003964093702321366,-88.68235822713982,0.9183996,2.4443495,8.591047,8.226869,-9.390059,-1.8883111,1.2348174,-2.8025227,-6.909642,8.510826,-10.648046,2.263998,-1.5205424,1.9209555,5.06069,0.5901949,11.364452,-18.995499,67.86855,-4.389551,-1.7686578,-4.245026,0.23020357,-9.642125,6.3986526,62.643295,-15.613537,0.67963284,-5.1125264
24,-0.05979730188846588,2.0090770721435547,78.4098892211914,0.01799889868579697,0.0014649732510175234,-88.67893902294448,0.92197824,2.4438536,8.586954,8.227626,-9.393059,-1.8895576,1.2379318,-2.8031151,-6.9130626,8.5154505,-10.653237,2.2608721,-1.5204837,1.9229301,5.0656533,0.5949673,11.374941,-18.985712,67.86909,-4.383817,-1.7767351,-4.263275,0.22903782,-9.637911,6.392626,62.641613,-15.590482,0.65517396,-5.1194854
25,-0.05815469101071358,2.007586717605591,78.40972900390625,0.017652136953573365,0.003580123694171564,-88.6749877346788,0.9220406,2.4414124,8.583733,8.222703,-9.390842,-1.8932923,1.2374802,-2.8052487,-6.9169936,8.515799,-10.65358,2.2594435,-1.520448,1.9295168,5.0652795,0.59811974,11.376611,-18.985674,67.86913,-4.380284,-1.7839593,-4.2652116,0.22605841,-9.637237,6.391718,62.64074,-15.581368,0.6542543,-5.1225142
26,-0.05620114877820015,2.005520820617676,78.40885925292969,0.017824814890654253,0.008962184491144751,-88.67008926073991,0.9191558,2.4376726,8.580182,8.215224,-9.385862,-1.8986791,1.2331536,-2.8083522,-6.921917,8.51673,-10.652718,2.2588837,-1.5198336,1.9370595,5.0618043,0.60204023,11.379883,-18.990257,67.867195,-4.3766413,-1.7949721,-4.2596254,0.21729854,-9.636041,6.3907714,62.6453,-15.578737,0.6668628,-5.1237636
27,-0.054493632167577744,2.0036275386810303,78.4087142944336,0.018198557758243326,0.015136724475093597,-88.66526800149745,0.91571647,2.4335027,8.57688,8.2073555,-9.380424,-1.9034133,1.2292773,-2.8117414,-6.9266057,8.5142,-10.64964,2.2596953,-1.5107851,1.9391973,5.0568776,0.60899276,11.395354,-19.01268,67.85645,-4.384364,-1.8031666,-4.25356,0.20887528,-9.630256,6.3845005,62.65089,-15.580108,0.6833447,-5.1234097
28,-0.05249222740530968,2.003098487854004,78.4095687866211,0.01938322331443021,0.02006213066323155,-88.66091515293024,0.9122125,2.4295957,8.573337,8.203188,-9.377051,-1.9049829,1.2263243,-2.81507,-6.930728,8.513185,-10.64844,2.2625854,-1.5077757,1.943339,5.05433,0.6107085,11.401788,-19.019733,67.85324,-4.3852987,-1.808545,-4.252411,0.20438103,-9.627471,6.3834376,62.648876,-15.584763,0.6955675,-5.1233916
29,-0.052449073642492294,2.001570463180542,78.4103775024414,0.02006554013225499,0.024169674196241605,-88.65732071831181,0.9085152,2.4259317,8.56927,8.20317,-9.375973,-1.9016309,1.2260989,-2.8182585,-6.934211,8.508833,-10.646315,2.2688975,-1.5034577,1.9443029,5.052962,0.6139482,11.408269,-19.026985,67.84629,-4.3934774,-1.8080577,-4.2600713,0.1990781,-9.624481,6.382691,62.646698,-15.591169,0.7005747,-5.1252584
30,-0.05066924914717674,2.000206470489502,78.4123764038086,0.022646807443641868,0.0277306499029581,-88.65427664549061,0.90494984,2.4222708,8.565107,8.205051,-9.375855,-1.8950763,1.2266634,-2.8216715,-6.9370193,8.50421,-10.644515,2.277931,-1.5000646,1.9456435,5.052147,0.61404854,11.409946,-19.027939,67.84371,-4.3996744,-1.8050826,-4.2715354,0.19640774,-9.623577,6.3833084,62.640644,-15.601101,0.7026864,-5.1264224
31,-0.04807545244693756,1.997599720954895,78.4134292602539,0.023308401583513404,0.030762644662909417,-88.65081749389522,0.9018209,2.4185529,8.560547,8.207376,-9.376233,-1.8879651,1.2288212,-2.824931,-6.940143,8.497776,-10.642515,2.2870073,-1.4982333,1.9456357,5.0529428,0.61418,11.413795,-19.028444,67.83843,-4.4066772,-1.8000898,-4.284773,0.19136819,-9.621394,6.385371,62.634895,-15.613276,0.7050215,-5.127733
32,-0.04582517221570015,1.9940249919891357,78.4128189086914,0.025162498042303482,0.031330201751339014,-88.64776916094242,0.9019611,2.415429,8.55739,8.208576,-9.377254,-1.8831772,1.2320404,-2.8277617,-6.942302,8.49499,-10.643778,2.293391,-1.4957516,1.9450468,5.0539346,0.61468625,11.419236,-19.028214,67.83538,-4.4060125,-1.7979424,-4.2911973,0.18738426,-9.618015,6.3876123,62.6305,-15.622097,0.7064746,-5.1256943
33,-0.044600218534469604,1.9923170804977417,78.41146850585938,0.02515059181054857,0.026992586932970575,-88.64482376467592,0.9077357,2.412781,8.5558605,8.209438,-9.379847,-1.8820215,1.2396529,-2.8304782,-6.9433336,8.494941,-10.648751,2.2964435,-1.4962755,1.9415704,5.059321,0.62042725,11.427474,-19.025627,67.8265,-4.397,-1.79759,-4.2894864,0.17947873,-9.612465,6.3920975,62.630074,-15.628288,0.7080285,-5.11896
34,-0.04219004884362221,1.99067223072052,78.40989685058594,0.02565666234390652,0.019429732544469256,-88.64230408290733,0.918041,2.410484,8.555745,8.209153,-9.383317,-1.8827981,1.2497109,-2.8331087,-6.9431286,8.497784,-10.657091,2.2975469,-1.4961725,1.9399741,5.065767,0.62771976,11.432323,-19.022362,67.81777,-4.3799667,-1.7984476,-4.2806287,0.17174998,-9.608825,6.395847,62.631424,-15.632935,0.7080984,-5.108055
35,-0.0391983799636364,1.990028977394104,78.40946960449219,0.025015444808466843,0.012654178199937055,-88.63936432031105,0.9276551,2.4080691,8.555269,8.207831,-9.386269,-1.883701,1.258792,-2.835654,-6.943637,8.501035,-10.6655445,2.297332,-1.4999324,1.9372138,5.071927,0.63921046,11.43985,-19.015583,67.80421,-4.3611994,-1.7992725,-4.2711763,0.15887082,-9.602798,6.404037,62.63744,-15.636211,0.7089385,-5.098795
36,-0.037042874842882156,1.9895581007003784,78.408935546875,0.025320435462149828,0.011059171680388764,-88.63530731137237,0.9304586,2.4057233,8.5525675,8.207308,-9.388356,-1.8831078,1.2628988,-2.837976,-6.9468346,8.502264,-10.670407,2.2964122,-1.4998224,1.9399916,5.0746446,0.6418412,11.441332,-19.015532,67.7976,-4.3483353,-1.7998589,-4.2664843,0.15231985,-9.601418,6.407548,62.63602,-15.6395445,0.7116267,-5.092945
37,-0.03600071743130684,1.987252950668335,78.40843200683594,0.024403859851187957,0.01774783254106064,-88.62924430252374,0.923151,2.4033606,8.5460005,8.207288,-9.389269,-1.8810434,1.2583841,-2.8402324,-6.954636,8.501702,-10.670286,2.2929704,-1.5026783,1.9441172,5.071752,0.64342827,11.444994,-19.018925,67.78925,-4.343417,-1.7993678,-4.2682505,0.14229828,-9.597694,6.417785,62.636333,-15.639975,0.71856457,-5.0963144
38,-0.034065213054418564,1.9839590787887573,78.40949249267578,0.02354769897642257,0.029919314831195837,-88.62168293835306,0.9096833,2.4006608,8.536885,8.205315,-9.387855,-1.8782022,1.2465819,-2.8428056,-6.965547,8.504626,-10.670076,2.2873878,-1.5061842,1.9493431,5.0643306,0.6440744,11.449015,-19.026768,67.77994,-4.3438683,-1.7981247,-4.2736635,0.13250381,-9.593149,6.431204,62.636074,-15.637413,0.72830296,-5.1056533
39,-0.03173175826668739,1.9804937839508057,78.40998840332031,0.02200548562441702,0.04235299362203504,-88.61434899404198,0.8950253,2.3979347,8.528187,8.205794,-9.387713,-1.8739694,1.2360559,-2.8452547,-6.976073,8.503371,-10.667263,2.2834194,-1.508672,1.9564471,5.0574803,0.6427429,11.450666,-19.034193,67.77198,-4.347313,-1.7966888,-4.2804575,0.12260516,-9.591133,6.4405413,62.63544,-15.635965,0.7371696,-5.114704
40,-0.03036198578774929,1.9778645038604736,78.41065979003906,0.022385427628517644,0.04939066705530557,-88.60903917958792,0.8870446,2.3948088,8.523294,8.206347,-9.387866,-1.8676473,1.2317545,-2.8482146,-6.9820843,8.500888,-10.666153,2.2849746,-1.5091428,1.9618306,5.055093,0.64121747,11.452128,-19.040865,67.76571,-4.3548446,-1.7957839,-4.286418,0.11592909,-9.588981,6.4491324,62.63125,-15.633387,0.74335116,-5.1197505
41,-0.02730376645922661,1.9770361185073853,78.4105453491211,0.024700919660282223,0.04934819683118512,-88.60627058127218,0.88678414,2.3909647,8.523845,8.209689,-9.39036,-1.8574502,1.2354482,-2.8523176,-6.9815755,8.497231,-10.668462,2.2958956,-1.5074754,1.9642588,5.057707,0.64010113,11.452937,-19.04335,67.76237,-4.3697476,-1.7955995,-4.291634,0.111415684,-9.587585,6.4532285,62.625435,-15.631943,0.74615085,-5.1191
42,-0.02382143959403038,1.9772913455963135,78.40985107421875,0.02725888936815164,0.04446510575285163,-88.6049134271829,0.89113677,2.3866575,8.52769,8.216293,-9.394809,-1.8442459,1.2461214,-2.8569713,-6.9771886,8.489878,-10.671427,2.3131287,-1.5064442,1.9647604,5.0660715,0.6380715,11.454227,-19.04459,67.7598,-4.395991,-1.7956343,-4.2964754,0.104899235,-9.585217,6.458204,62.6188,-15.628466,0.7487357,-5.117003
43,-0.021036915481090546,1.9779248237609863,78.40860748291016,0.028824699709897483,0.0390077270914432,-88.60476931289908,0.8960738,2.3823493,8.5325365,8.223378,-9.399492,-1.8314046,1.2561587,-2.8617558,-6.9715247,8.484582,-10.675081,2.3303657,-1.5035874,1.9649578,5.073179,0.63721126,11.454789,-19.043863,67.75761,-4.415004,-1.7954408,-4.301529,0.10132278,-9.5838375,6.4599915,62.61204,-15.62628,0.7473823,-5.1127157
44,-0.01798996329307556,1.9745932817459106,78.40875244140625,0.031748454738172345,0.03302152066618737,-88.60564902918287,0.9033608,2.3788753,8.536053,8.227124,-9.402663,-1.8223445,1.266021,-2.8655553,-6.9675155,8.480601,-10.6768,2.341186,-1.5035266,1.9643292,5.0834136,0.63518876,11.456343,-19.0417,67.75377,-4.4237475,-1.7939525,-4.3045797,0.09243323,-9.579405,6.465087,62.609997,-15.623343,0.7431146,-5.111314
45,-0.01614447310566902,1.9726111888885498,78.40751647949219,0.03257441245948792,0.029779994387103128,-88.60827733046993,0.9085469,2.3761625,8.53769,8.229188,-9.404845,-1.8192323,1.2694625,-2.8685803,-6.9658093,8.483501,-10.6778345,2.3429916,-1.5023521,1.9653164,5.08923,0.6343784,11.456968,-19.04267,67.74891,-4.4125333,-1.791366,-4.304927,0.085285306,-9.5763,6.4691095,62.611664,-15.621892,0.7316727,-5.1100087
46,-0.013815130107104778,1.9705712795257568,78.40803527832031,0.03304194931243248,0.026827493696749454,-88.61254776322434,0.91467124,2.3739948,8.538759,8.229032,-9.405812,-1.8198761,1.2710449,-2.871067,-6.9649544,8.489341,-10.677685,2.3394713,-1.500858,1.9671834,5.0937757,0.63422436,11.456962,-19.045229,67.74367,-4.389592,-1.787996,-4.303284,0.07567188,-9.574357,6.472588,62.619976,-15.620802,0.71400356,-5.10851
47,-0.011832335032522678,1.968209981918335,78.40817260742188,0.03326340898565604,0.024298634737721626,-88.61673122083155,0.92020625,2.3720162,8.539058,8.229486,-9.407201,-1.8207834,1.2713135,-2.8734274,-6.9645653,8.497047,-10.678233,2.3338468,-1.4988103,1.9690194,5.0978794,0.6336892,11.456477,-19.049463,67.737854,-4.364358,-1.783415,-4.3012605,0.06731872,-9.571882,6.4773035,62.62713,-15.616687,0.6973537,-5.109677
48,-0.01061756070703268,1.9662154912948608,78.40798950195312,0.032305048029044,0.0222200515591942,-88.6190070284536,0.9239363,2.3697958,8.538396,8.231837,-9.409402,-1.8184998,1.2713033,-2.8762565,-6.964392,8.505074,-10.680834,2.3293335,-1.4963417,1.9710524,5.1016355,0.63191485,11.456006,-19.053246,67.73186,-4.345055,-1.7772483,-4.3016777,0.061794527,-9.57057,6.481411,62.629814,-15.607982,0.6873886,-5.115111
49,-0.00765632139518857,1.9660577774047852,78.40754699707031,0.03332399510921573,0.020369457761200034,-88.61854375410516,0.92528427,2.367539,8.535777,8.23822,-9.413312,-1.8108226,1.272223,-2.879408,-6.9646606,8.512694,-10.686724,2.3257153,-1.4933735,1.9721305,5.103272,0.6285431,11.454075,-19.0616,67.7275,-4.336737,-1.7682209,-4.303426,0.057109155,-9.56666,6.4935045,62.631443,-15.582968,0.6889266,-5.1331325
50,-0.004191033076494932,1.96365225315094,78.40623474121094,0.03284976729592686,0.018706114825399495,-88.61625486724857,0.92505336,2.3652337,8.531498,8.246742,-9.417949,-1.8000331,1.2744492,-2.8824654,-6.9655905,8.518137,-10.693229,2.3215346,-1.489856,1.9735875,5.105996,0.6241708,11.452376,-19.067831,67.72111,-4.329576,-1.7571293,-4.308566,0.05600577,-9.564025,6.503912,62.62686,-15.551913,0.6968488,-5.1563835
51,-0.0024011798668652773,1.958457350730896,78.40536499023438,0.033583270190727384,0.017883586617688133,-88.61367566450103,0.923837,2.362892,8.5276985,8.255417,-9.423126,-1.7893524,1.275602,-2.8857324,-6.9664183,8.523851,-10.700043,2.3185334,-1.4873447,1.9746416,5.106742,0.6193314,11.449993,-19.074835,67.716736,-4.326963,-1.7459044,-4.3125134,0.05542521,-9.561224,6.517338,62.62268,-15.522143,0.70599955,-5.1796484
52,0.0005188031354919076,1.9565627574920654,78.4065170288086,0.033997324718095384,0.018677784355250603,-88.61225053964526,0.9229663,2.3605893,8.5262375,8.259361,-9.426508,-1.7820894,1.2752308,-2.888781,-6.966683,8.527866,-10.70444,2.3181927,-1.4872051,1.9759865,5.104674,0.614408,11.447494,-19.081663,67.715675,-4.3291016,-1.7369763,-4.313767,0.053390644,-9.558908,6.5317087,62.62184,-15.506163,0.7099968,-5.193564
53,0.003912443295121193,1.9572064876556396,78.40816497802734,0.034087622576659274,0.021747862564786682,-88.61263118635968,0.9216296,2.3583782,8.528673,8.258397,-9.428432,-1.7798476,1.2744737,-2.891553,-6.966099,8.525542,-10.702984,2.322503,-1.4876703,1.9780171,5.1044135,0.6118063,11.445892,-19.085443,67.70943,-4.3315854,-1.7296615,-4.3121696,0.050881796,-9.557616,6.537971,62.61898,-15.523356,0.7046892,-5.1884108
54,0.006928935181349516,1.9542876482009888,78.41059875488281,0.03404233933616624,0.026822517144236797,-88.61372611826424,0.92066664,2.3559544,8.533538,8.251676,-9.427956,-1.7806029,1.2722077,-2.8940845,-6.9651375,8.520208,-10.698361,2.3299913,-1.4904581,1.9796846,5.1017475,0.60899836,11.444706,-19.090162,67.70458,-4.3410892,-1.7221943,-4.3060536,0.045390986,-9.556765,6.5444436,62.620434,-15.558579,0.6943857,-5.174341
55,0.008761082775890827,1.9517252445220947,78.40989685058594,0.03488261103976435,0.03175024591823289,-88.6154776399799,0.9201082,2.3537366,8.538863,8.244926,-9.428057,-1.7822546,1.2702948,-2.8964107,-6.9637876,8.514506,-10.693493,2.337562,-1.4932562,1.9816252,5.0983195,0.60668474,11.44297,-19.096388,67.70109,-4.3532343,-1.7167661,-4.3000593,0.040558737,-9.555683,6.5521097,62.62243,-15.589441,0.68468016,-5.1603513
56,0.012040800414979458,1.9500216245651245,78.40882110595703,0.034518095849361594,0.034528054143003875,-88.61723023942551,0.9206512,2.351832,8.542361,8.241018,-9.429425,-1.7825683,1.2694536,-2.8983788,-6.962444,8.512086,-10.691505,2.341957,-1.4951822,1.9845169,5.0960484,0.6049939,11.4417715,-19.099916,67.69789,-4.363783,-1.7135464,-4.2997403,0.036460936,-9.554924,6.555367,62.625378,-15.598599,0.67836547,-5.1533747
57,0.014821621589362621,1.9494578838348389,78.40704345703125,0.03426477057874624,0.033749832598378604,-88.61929773134354,0.9230094,2.350102,8.543212,8.242988,-9.43394,-1.779461,1.2705584,-2.900066,-6.9609036,8.514621,-10.693731,2.3407848,-1.4952807,1.9877748,5.0960603,0.6028151,11.440255,-19.100746,67.69731,-4.373918,-1.7140477,-4.30752,0.033005215,-9.554036,6.5534453,62.62904,-15.569899,0.6791753,-5.159085
58,0.016262086108326912,1.947650671005249,78.40516662597656,0.03384403398706446,0.030771779156172872,-88.6218297653859,0.9274248,2.3487773,8.5426035,8.246775,-9.439776,-1.7746443,1.2719095,-2.9015927,-6.9591126,8.521701,-10.698934,2.3363533,-1.4930996,1.9922737,5.0988817,0.598205,11.437247,-19.098785,67.69936,-4.3828907,-1.717537,-4.3206,0.03210274,-9.552304,6.5433416,62.63003,-15.520359,0.68426484,-5.1710167
59,0.01735169067978859,1.9433716535568237,78.40321350097656,0.03342507881145205,0.02772302843220183,-88.62424089032122,0.93249184,2.3471706,8.541882,8.2489805,-9.444483,-1.7714849,1.2743937,-2.9029367,-6.9572554,8.526918,-10.703796,2.3323483,-1.4897643,1.9962316,5.101789,0.59300905,11.433992,-19.097046,67.7014,-4.388467,-1.7210078,-4.3336926,0.03207265,-9.550595,6.5324726,62.63087,-15.471067,0.6895318,-5.1846437
60,0.019042350351810455,1.9424030780792236,78.40301513671875,0.03366182611447629,0.02668695786381043,-88.62635195828004,0.9378551,2.3450782,8.542498,8.245223,-9.445932,-1.7735255,1.2756495,-2.9044125,-6.955164,8.529925,-10.707377,2.3325684,-1.484297,1.9996082,5.102969,0.581944,11.429555,-19.100388,67.70761,-4.3888125,-1.7227105,-4.341854,0.03311885,-9.548431,6.524867,62.631966,-15.444906,0.6908492,-5.1944556
61,0.020041590556502342,1.9380886554718018,78.40438079833984,0.03333693825511561,0.029130544128257555,-88.62727378227014,0.9429019,2.342109,8.544537,8.232528,-9.442007,-1.7845587,1.2790401,-2.9056582,-6.9533973,8.5203495,-10.70481,2.340735,-1.4801369,2.0013683,5.1010733,0.5730135,11.4272175,-19.108376,67.70756,-4.3824015,-1.7197682,-4.342555,0.034160804,-9.547529,6.529775,62.634018,-15.451086,0.68598986,-5.199858
62,0.022681033238768578,1.9359318017959595,78.4049301147461,0.0346184706726811,0.033689254487774795,-88.62750388697836,0.94719064,2.3387158,8.547253,8.215546,-9.435299,-1.801752,1.2820113,-2.9068425,-6.951783,8.507025,-10.700656,2.353914,-1.4763054,2.003097,5.0975366,0.56556463,11.425183,-19.120941,67.70284,-4.3711395,-1.7140229,-4.338681,0.036023114,-9.546987,6.543526,62.635975,-15.475425,0.67761666,-5.203264
63,0.026355715468525887,1.934436559677124,78.40584564208984,0.034020154302158157,0.03825009682631206,-88.62821267778362,0.9531099,2.335159,8.550923,8.1949,-9.426664,-1.8186541,1.2838875,-2.9081068,-6.949569,8.495408,-10.696981,2.3660173,-1.4732002,2.0037096,5.092067,0.55807704,11.424148,-19.134453,67.701225,-4.360527,-1.7088006,-4.33325,0.038127176,-9.547037,6.560946,62.63982,-15.500362,0.669591,-5.2066045
64,0.02853621542453766,1.9315900802612305,78.40672302246094,0.034679277942453256,0.040848910450918964,-88.6307619031273,0.9570816,2.3330588,8.555337,8.184254,-9.423614,-1.8288097,1.2834646,-2.909177,-6.9462605,8.492423,-10.696683,2.3707635,-1.4718231,2.005181,5.0887613,0.55459785,11.423051,-19.146196,67.69848,-4.3529763,-1.7057225,-4.3288484,0.039470512,-9.547566,6.5780888,62.643112,-15.510487,0.6661272,-5.2100167
65,0.031313613057136536,1.9281063079833984,78.40679931640625,0.0330200520745215,0.040858866913490464,-88.63571819066847,0.960022,2.3331223,8.560885,8.182694,-9.425496,-1.8292712,1.2818586,-2.9091294,-6.9416304,8.496857,-10.698623,2.3627403,-1.4711423,2.007516,5.0901284,0.5541886,11.422617,-19.149036,67.69528,-4.3428273,-1.7063764,-4.329223,0.038523354,-9.547829,6.582096,62.6452,-15.503518,0.66838896,-5.2124515
66,0.03265675529837608,1.9281197786331177,78.40765380859375,0.032402492014193825,0.039101538472339985,-88.64313779522358,0.9618636,2.3347712,8.568254,8.188562,-9.4316025,-1.8239381,1.2767979,-2.908683,-6.935072,8.511166,-10.704354,2.3465457,-1.4702222,2.0102391,5.0932903,0.55642503,11.4218855,-19.150751,67.69226,-4.333094,-1.7089112,-4.3300314,0.034324255,-9.548264,6.5841756,62.650124,-15.482037,0.67514914,-5.2167554
67,0.034724824130535126,1.927565574645996,78.40784454345703,0.03013241305908021,0.036782461589164005,-88.6498480976026,0.96343815,2.336567,8.574541,8.196283,-9.438496,-1.8165549,1.2728674,-2.908242,-6.9294815,8.524965,-10.709977,2.3308866,-1.4707565,2.0123913,5.097215,0.55752593,11.4216585,-19.150713,67.69118,-4.325547,-1.711695,-4.330157,0.032285046,-9.548411,6.5836625,62.653084,-15.4665785,0.6812836,-5.2177176
68,0.036145322024822235,1.9281646013259888,78.40746307373047,0.030045358072034657,0.03386349278603902,-88.65559659970835,0.9664221,2.3370144,8.5801,8.2017355,-9.444038,-1.8110192,1.2701871,-2.9089098,-6.92432,8.536792,-10.715333,2.3246255,-1.4688705,2.0152388,5.1037064,0.55717486,11.420329,-19.149721,67.68854,-4.3182,-1.7142347,-4.3272686,0.026868321,-9.54913,6.582328,62.65859,-15.464355,0.6854713,-5.2125278
69,0.037796296179294586,1.926641583442688,78.40641021728516,0.030625491509722446,0.030694220173930205,-88.65767900448228,0.9704486,2.3355,8.582303,8.203871,-9.447209,-1.8073218,1.2764755,-2.9101367,-6.9224396,8.531666,-10.714152,2.333699,-1.4673367,2.0162187,5.110156,0.55205315,11.41963,-19.149868,67.68902,-4.3174405,-1.7143734,-4.319502,0.026932571,-9.5496645,6.584127,62.66094,-15.48856,0.684343,-5.200126
70,0.03850832208991051,1.9259859323501587,78.40376281738281,0.03029628235001867,0.02690387050508546,-88.65794576514581,0.976596,2.332786,8.582773,8.201891,-9.447935,-1.8037671,1.286858,-2.9119918,-6.922118,8.519306,-10.710153,2.3521767,-1.4658239,2.0168111,5.117338,0.54412526,11.419083,-19.15018,67.69144,-4.32115,-1.7137104,-4.3086634,0.02906214,-9.550156,6.5876293,62.66234,-15.528028,0.6805402,-5.1819572
71,0.04024312272667885,1.9265629053115845,78.40155029296875,0.030871205259488856,0.02313143782380925,-88.65797073661524,0.9821897,2.3303995,8.582671,8.200865,-9.448753,-1.8016666,1.296848,-2.9136684,-6.922244,8.508287,-10.707007,2.3710117,-1.4649733,2.0169225,5.1242743,0.5353205,11.418662,-19.150562,67.69545,-4.3267517,-1.7135892,-4.296197,0.031229114,-9.550715,6.5922356,62.664013,-15.568604,0.6766765,-5.1623034
72,0.041665028780698776,1.926647663116455,78.40193939208984,0.031196412677136128,0.02011500064997362,-88.65944472423143,0.98710155,2.3292418,8.58342,8.199355,-9.448721,-1.8021709,1.3033377,-2.914316,-6.9215903,8.502033,-10.704748,2.3810046,-1.46573,2.0176086,5.1301546,0.5288802,11.418305,-19.151281,67.69849,-4.332194,-1.71531,-4.2841277,0.031585976,-9.551344,6.5969496,62.66647,-15.596396,0.67491,-5.14437
73,0.04266856238245964,1.9276604652404785,78.402587890625,0.029091884773785538,0.01796176216143508,-88.66330479356574,0.99219066,2.3308692,8.585175,8.196637,-9.447533,-1.8075653,1.3060232,-2.912692,-6.920099,8.501567,-10.70364,2.3773935,-1.4697496,2.018669,5.1335917,0.52531564,11.4181185,-19.152756,67.70335,-4.3359175,-1.720076,-4.2705355,0.027709823,-9.552242,6.6019397,62.673206,-15.605856,0.6757823,-5.1276217
74,0.04469212144613266,1.9263496398925781,78.40414428710938,0.026620073258184995,0.016471631189360052,-88.66849291935874,0.9961808,2.3342533,8.587329,8.195393,-9.446753,-1.8164561,1.3038881,-2.909962,-6.918096,8.5098505,-10.706154,2.3658497,-1.4748627,2.0206156,5.135847,0.52559996,11.418248,-19.154657,67.706085,-4.337925,-1.7264391,-4.255801,0.021903954,-9.553067,6.6048317,62.681927,-15.606506,0.67760414,-5.1101923
75,0.04477105289697647,1.9237217903137207,78.40565490722656,0.02299498600326601,0.015506225653779668,-88.67361830091077,0.99917936,2.3373759,8.589752,8.193791,-9.445191,-1.8250681,1.3002057,-2.9074848,-6.915789,8.5189495,-10.708092,2.352756,-1.4791431,2.0222075,5.13822,0.52504474,11.418509,-19.156935,67.70777,-4.342747,-1.733035,-4.24259,0.015499827,-9.5535,6.6070905,62.68993,-15.603505,0.6810217,-5.0954013
76,0.04678354039788246,1.9219316244125366,78.40709686279297,0.022099606890878424,0.014862977150059926,-88.67727975191099,1.0004756,2.338588,8.592237,8.192232,-9.443199,-1.8296125,1.2965424,-2.9067388,-6.9133477,8.524987,-10.70774,2.3446846,-1.4810504,2.0233285,5.141364,0.52004457,11.419283,-19.161182,67.70914,-4.3560543,-1.7391343,-4.233597,0.006099651,-9.554389,6.611814,62.698505,-15.600957,0.68634,-5.0854173
77,0.04743507504463196,1.9222712516784668,78.40794372558594,0.02233230850540968,0.016555886779829724,-88.6788345544603,0.9962253,2.3365827,8.595139,8.191777,-9.4404335,-1.8282439,1.2895976,-2.9089777,-6.910203,8.527936,-10.703663,2.34336,-1.4800858,2.0223575,5.144482,0.5055871,11.421024,-19.170689,67.713165,-4.3895626,-1.7449366,-4.231166,-0.0078243045,-9.556419,6.6235957,62.70728,-15.594021,0.69697666,-5.0834436
78,0.050228968262672424,1.9245011806488037,78.40714263916016,0.024055263034247095,0.020081315397008852,-88.67923445738082,0.9892314,2.3326929,8.598417,8.190046,-9.436218,-1.8232942,1.2797811,-2.9130447,-6.906521,8.530291,-10.697903,2.3453786,-1.4771645,2.0204782,5.147623,0.48678115,11.423984,-19.182516,67.71661,-4.4344482,-1.7506794,-4.2340436,-0.021136781,-9.560091,6.6393814,62.71198,-15.584054,0.71152675,-5.086222
79,0.053137995302677155,1.9290400743484497,78.40635681152344,0.025981503738283052,0.02138792612186322,-88.67887156647679,0.9834757,2.3288043,8.601132,8.190467,-9.433604,-1.8171468,1.2729042,-2.9171348,-6.9034386,8.530878,-10.691461,2.3491402,-1.4747553,2.019534,5.151095,0.47048628,11.429149,-19.196499,67.71633,-4.4820495,-1.7554023,-4.238253,-0.033076596,-9.566753,6.662418,62.71586,-15.567971,0.7242904,-5.092405
80,0.05667560175061226,1.941550850868225,78.40509033203125,0.025503290002889444,0.01631713641990922,-88.67870381264072,0.98502165,2.326485,8.602617,8.192804,-9.433509,-1.8122917,1.2738931,-2.9200132,-6.9016886,8.53378,-10.689168,2.3531609,-1.4704638,2.0191753,5.160062,0.4556386,11.432696,-19.202696,67.71465,-4.504019,-1.7580911,-4.2383065,-0.041122854,-9.571255,6.6755996,62.717552,-15.565876,0.7295506,-5.09977
81,0.05572390556335449,1.943322777748108,78.40464782714844,0.02545269942509152,0.0021416277526855577,-88.67772155786555,0.996582,2.3268826,8.601439,8.199404,-9.438689,-1.8088709,1.2881979,-2.9201412,-6.9032965,8.53554,-10.690119,2.3574393,-1.46974,2.0220525,5.1714826,0.4509947,11.4374695,-19.207228,67.7065,-4.5074463,-1.7571065,-4.234986,-0.043246232,-9.576888,6.698291,62.720722,-15.561846,0.7239095,-5.1110945
82,0.057129357010126114,1.9504945278167725,78.40544128417969,0.023955256205022684,-0.018426624830217602,-88.6759919812568,1.0142769,2.3287904,8.598474,8.21053,-9.44823,-1.8057406,1.3112372,-2.9191077,-6.907076,8.536985,-10.693108,2.3627176,-1.4697341,2.026849,5.1859913,0.45088547,11.441858,-19.206808,67.69469,-4.491902,-1.7532833,-4.228925,-0.0417406,-9.581378,6.719382,62.72456,-15.566861,0.71108323,-5.1264825
83,0.0566733293235302,1.9497814178466797,78.4056396484375,0.022615501425267453,-0.041166637285364904,-88.6754166200375,1.0357847,2.3306847,8.596138,8.218566,-9.456215,-1.8033829,1.3359344,-2.9179344,-6.909746,8.539534,-10.697656,2.368312,-1.4663689,2.029997,5.2029705,0.4469696,11.445316,-19.20581,67.68643,-4.4695415,-1.7501441,-4.219838,-0.040915743,-9.584669,6.7358675,62.727512,-15.573802,0.6961238,-5.1418176
84,0.05624309554696083,1.9471535682678223,78.40607452392578,0.022619301986579132,-0.06177896434997185,-88.6773815182547,1.0540377,2.3320088,8.596146,8.226139,-9.462068,-1.8024008,1.3570375,-2.9169981,-6.908719,8.53981,-10.700023,2.373492,-1.4702709,2.0296195,5.221435,0.44994977,11.4520235,-19.199076,67.6704,-4.4558654,-1.7502141,-4.209473,-0.0465827,-9.591224,6.768616,62.72639,-15.56255,0.6852769,-5.153581
85,0.05694643035531044,1.9531581401824951,78.40593719482422,0.02206770665079598,-0.07970052085981451,-88.68398712175279,1.0708677,2.3315566,8.600511,8.22766,-9.462494,-1.8044578,1.3707597,-2.917092,-6.900768,8.541563,-10.70247,2.378687,-1.4660884,2.024966,5.2457495,0.44684893,11.455099,-19.195595,67.65387,-4.44995,-1.755179,-4.1936197,-0.05827539,-9.594469,6.7882843,62.716618,-15.542576,0.6794896,-5.158858
86,0.05781931057572365,1.9580891132354736,78.40471649169922,0.023159070414461715,-0.09707136428511277,-88.69411005781974,1.0879978,2.33045,8.607825,8.225907,-9.460175,-1.8087888,1.3813945,-2.9175878,-6.888105,8.543447,-10.704913,2.3840492,-1.481869,2.0172439,5.274359,0.46356973,11.466311,-19.17282,67.61704,-4.4508586,-1.7631098,-4.177873,-0.085311934,-9.607239,6.844711,62.70732,-15.494408,0.6767877,-5.1612167
87,0.06266146898269653,1.9668337106704712,78.40557861328125,0.024017276898401867,-0.11356497526476832,-88.70358089141189,1.1025739,2.3291476,8.614906,8.225503,-9.457297,-1.8119912,1.3909324,-2.9181457,-6.8759246,8.544675,-10.705774,2.3886847,-1.497679,2.0100195,5.3037624,0.4836485,11.4800205,-19.148298,67.5732,-4.4491835,-1.770704,-4.163152,-0.11110011,-9.623638,6.8988776,62.69394,-15.449503,0.6736622,-5.1592493
88,0.06488148123025894,1.972988486289978,78.40596008300781,0.024289109567391342,-0.12887541949603742,-88.70855909113914,1.1126707,2.3275893,8.618761,8.229483,-9.455554,-1.8104656,1.3975632,-2.920166,-6.868963,8.55138,-10.706209,2.3919246,-1.5056372,2.003627,5.324738,0.49362835,11.4900465,-19.139744,67.54278,-4.4451995,-1.7752596,-4.146186,-0.12904294,-9.636282,6.9418964,62.685787,-15.423466,0.66938055,-5.1596746
89,0.06489616632461548,1.9781904220581055,78.40502166748047,0.025865938947981,-0.1421441308500381,-88.70587341068376,1.1172675,2.3254876,8.6173525,8.23805,-9.455529,-1.801863,1.404112,-2.9236178,-6.8707423,8.558037,-10.701959,2.3938477,-1.5179774,1.9994447,5.333972,0.5067819,11.500988,-19.141907,67.512924,-4.4377937,-1.7739018,-4.128286,-0.14138405,-9.650434,6.991104,62.687336,-15.416938,0.66293335,-5.1619267
90,0.0642816573381424,1.9866960048675537,78.40458679199219,0.02749132672697783,-0.15372077106102444,-88.6984639768579,1.1166292,2.3232155,8.612702,8.252172,-9.457917,-1.7886279,1.40947,-2.9280856,-6.87785,8.565831,-10.6950865,2.3947735,-1.5295931,1.9958994,5.334779,0.51780945,11.509599,-19.154419,67.48844,-4.4273396,-1.7692086,-4.1072536,-0.15086824,-9.661418,7.03865,62.69665,-15.426524,0.6555061,-5.1657996
91,0.06594707816839218,1.9936683177947998,78.40497589111328,0.02817265657284044,-0.16543382704550852,-88.6905367439582,1.1153598,2.3210506,8.607526,8.265714,-9.458319,-1.77415,1.4139166,-2.9324481,-6.885736,8.574517,-10.687547,2.3940604,-1.5461404,1.9949758,5.3354454,0.54302746,11.523519,-19.162788,67.44768,-4.418374,-1.762854,-4.089198,-0.15827683,-9.679615,7.0962353,62.702732,-15.4305,0.6487756,-5.1693406
92,0.06534366309642792,2.002382278442383,78.40560913085938,0.029843057750209928,-0.1794764341545466,-88.68699728691908,1.115139,2.3204756,8.604827,8.28167,-9.457932,-1.7620429,1.4178089,-2.9353113,-6.8893633,8.585208,-10.682134,2.3910584,-1.5479687,1.9943585,5.3425765,0.55002856,11.533245,-19.165611,67.4239,-4.404007,-1.7611479,-4.075714,-0.16451915,-9.693921,7.1299834,62.70427,-15.434869,0.64279515,-5.172542
93,0.06645157188177109,2.0143067836761475,78.40692138671875,0.028870095425439828,-0.19638286370092795,-88.69101827399032,1.1180828,2.3218732,8.606985,8.298394,-9.455139,-1.7511132,1.4195209,-2.9361134,-6.88562,8.600989,-10.681163,2.3843143,-1.5454646,1.9981805,5.3574834,0.571872,11.541593,-19.149685,67.38064,-4.3898587,-1.7575243,-4.066656,-0.1730923,-9.708044,7.155623,62.69969,-15.427313,0.63837415,-5.178899
94,0.06861834228038788,2.0284488201141357,78.40770721435547,0.028014182661744002,-0.2152386466426042,-88.6998406125194,1.1223701,2.3250384,8.612264,8.316629,-9.45063,-1.7402478,1.4207188,-2.9351542,-6.8774295,8.61804,-10.68116,2.3745263,-1.526447,2.0012448,5.371673,0.5741021,11.544654,-19.135382,67.36187,-4.3772855,-1.7564452,-4.0599647,-0.17766109,-9.714671,7.1605077,62.695206,-15.420082,0.63410693,-5.188959
95,0.07248859852552414,2.0444223880767822,78.40919494628906,0.02758921019137743,-0.2342344805639476,-88.70671707761018,1.1264975,2.3278902,8.61518,8.332191,-9.444087,-1.7327641,1.4228565,-2.9338658,-6.8710866,8.631495,-10.67945,2.3645546,-1.5061262,2.0046635,5.3869023,0.5748986,11.546123,-19.124128,67.344246,-4.361447,-1.7595644,-4.0518193,-0.18230967,-9.718558,7.1625056,62.689808,-15.411611,0.63437694,-5.1993256
96,0.07115531712770462,2.0589356422424316,78.41059875488281,0.025847024185995285,-0.25454994134666464,-88.70708469536788,1.1310426,2.328965,8.612401,8.3433695,-9.436401,-1.7320071,1.4269195,-2.9338036,-6.8703947,8.644208,-10.6772995,2.3572018,-1.5164087,2.0148146,5.4272423,0.60689133,11.555146,-19.075233,67.273926,-4.314702,-1.7687136,-4.04737,-0.20497555,-9.744565,7.1928444,62.67494,-15.395681,0.63978267,-5.200504
97,0.06987801939249039,2.0746192932128906,78.41205596923828,0.02467862081234489,-0.27567094694010646,-88.69572587658712,1.1389531,2.326498,8.599263,8.340413,-9.42436,-1.7443526,1.4366417,-2.9350328,-6.880124,8.648702,-10.671466,2.3533487,-1.5288221,2.0237262,5.466876,0.628002,11.563284,-19.054531,67.21624,-4.2649355,-1.7945337,-4.032074,-0.22471313,-9.7701845,7.2264185,62.659176,-15.3748455,0.6603814,-5.2025633
98,0.06815901398658752,2.0895273685455322,78.41422271728516,0.02377177398317796,-0.298319431060717,-88.67695835710292,1.1487955,2.3220444,8.579261,8.329841,-9.409718,-1.7662381,1.4494203,-2.9370904,-6.8963485,8.651053,-10.665347,2.3514276,-1.5451113,2.0334847,5.5138764,0.6482171,11.571417,-19.042755,67.1535,-4.206141,-1.8309839,-4.010411,-0.24594077,-9.7963705,7.2606263,62.638966,-15.351022,0.6918078,-5.204361
99,0.06589977443218231,2.1067283153533936,78.41429901123047,0.023540993347391882,-0.3183053491458817,-88.65696503755538,1.1548659,2.3167899,8.558325,8.317568,-9.392437,-1.7858183,1.4581074,-2.9401033,-6.913705,8.653037,-10.657253,2.3506396,-1.5508553,2.0374808,5.559794,0.6499773,11.576862,-19.04292,67.11053,-4.1394353,-1.8685918,-3.985379,-0.26593637,-9.814128,7.287567,62.62176,-15.338396,0.72125447,-5.2072787
100,0.06454840302467346,2.1292853355407715,78.41533660888672,0.02437806285407789,-0.33125359617984595,-88.64079392568728,1.1472721,2.3132246,8.540963,8.3176565,-9.376379,-1.7912731,1.457915,-2.9429376,-6.928315,8.653021,-10.644876,2.3500104,-1.5659403,2.0471644,5.606449,0.684079,11.588056,-19.034327,67.02707,-4.074473,-1.8910434,-3.9689553,-0.28849262,-9.850466,7.349063,62.601337,-15.316726,0.73505455,-5.2009797
101,0.06733689457178116,2.1519153118133545,78.41618347167969,0.02561106340059528,-0.33540638992150756,-88.6314762755811,1.1233139,2.3108141,8.530037,8.333157,-9.361346,-1.7740515,1.4428085,-2.9472802,-6.93771,8.657976,-10.630606,2.3503945,-1.5722618,2.0566797,5.648355,0.71903414,11.6008005,-19.027222,66.94181,-3.994943,-1.8948274,-3.965266,-0.30301017,-9.898896,7.4228272,62.57335,-15.303984,0.72629005,-5.1836414
102,0.07008794695138931,2.1745078563690186,78.41889190673828,0.028394737644097837,-0.33336116358174095,-88.62540778795258,1.0885017,2.3089802,8.522105,8.356758,-9.3457365,-1.7423053,1.4195096,-2.9523218,-6.9450536,8.661841,-10.612981,2.35182,-1.5671376,2.0611932,5.684595,0.7443796,11.610088,-19.031174,66.869064,-3.9036844,-1.8875065,-3.9637165,-0.3156573,-9.939785,7.4980884,62.54932,-15.303202,0.70455873,-5.1649537
103,0.06815512478351593,2.1987669467926025,78.42052459716797,0.030590127988118544,-0.3271727312865983,-88.62011420961632,1.046976,2.307497,8.515399,8.38194,-9.328263,-1.7090626,1.3895435,-2.9573946,-6.95124,8.66588,-10.592534,2.3526103,-1.5574759,2.0635557,5.7210875,0.766615,11.618742,-19.036201,66.796844,-3.8248332,-1.879131,-3.9583578,-0.33171576,-9.979568,7.5804253,62.532448,-15.306917,0.67760646,-5.146826
104,0.06615908443927765,2.225740909576416,78.422119140625,0.0324438033591654,-0.31913321604214073,-88.61284831104848,1.0047884,2.3059921,8.508042,8.397796,-9.3052635,-1.687227,1.356971,-2.960738,-6.9574375,8.667174,-10.568472,2.3508341,-1.5498989,2.0691087,5.763931,0.7930105,11.629015,-19.033384,66.71189,-3.7830844,-1.8795519,-3.9439056,-0.3558479,-10.027364,7.6762733,62.5254,-15.30553,0.6526894,-5.1300526
105,0.06455869227647781,2.254206418991089,78.42533111572266,0.03312462386529541,-0.30852116742521035,-88.60312934459552,0.9640369,2.304191,8.500788,8.398642,-9.274483,-1.6812595,1.3191427,-2.9626174,-6.962651,8.67037,-10.542889,2.3449454,-1.5497048,2.0817356,5.815852,0.83237463,11.642891,-19.014887,66.600426,-3.8069205,-1.8962369,-3.9199393,-0.3886971,-10.097247,7.795817,62.525646,-15.291308,0.6273023,-5.1109395
106,0.06390225887298584,2.2880172729492188,78.43119812011719,0.032846165058076894,-0.29469714624688353,-88.59214155799204,0.9198968,2.302953,8.493952,8.394094,-9.239684,-1.684041,1.277877,-2.96296,-6.9670067,8.669406,-10.512292,2.3361204,-1.5431851,2.0930839,5.869605,0.8640641,11.655596,-18.99827,66.491295,-3.877253,-1.9228004,-3.8848095,-0.42840087,-10.164518,7.9197407,62.540215,-15.2796,0.59988767,-5.0955315
107,0.06097046285867691,2.321899175643921,78.43560791015625,0.032190018547175556,-0.279546377963296,-88.58060188570764,0.87500423,2.301298,8.486031,8.383351,-9.200454,-1.6908555,1.233088,-2.9629745,-6.972042,8.668997,-10.480665,2.327384,-1.5337108,2.1036217,5.9284496,0.89328605,11.668399,-18.979101,66.380455,-3.94148,-1.9471468,-3.843754,-0.47424498,-10.231937,8.046707,62.56187,-15.270752,0.5765322,-5.0826607
108,0.060534559190273285,2.355855703353882,78.43858337402344,0.03234095438393674,-0.26494471168075395,-88.56914657001852,0.82740045,2.2996175,8.47511,8.37387,-9.1600275,-1.6972146,1.1884247,-2.9625988,-6.9796896,8.665036,-10.446727,2.3215067,-1.5177594,2.1122425,5.9939613,0.91559106,11.680379,-18.962572,66.27458,-3.9498491,-1.9574038,-3.79902,-0.52208215,-10.292267,8.164816,62.583782,-15.271156,0.5637855,-5.073062
109,0.05666167661547661,2.3951406478881836,78.43998718261719,0.03139884361946265,-0.2536840100877748,-88.5580951699393,0.7808831,2.2983057,8.459546,8.363938,-9.118808,-1.703883,1.1488053,-2.9613123,-6.991208,8.653552,-10.410376,2.3207023,-1.507208,2.1285567,6.07171,0.9510359,11.695409,-18.936146,66.14731,-3.87204,-1.9432777,-3.7574623,-0.5696831,-10.371394,8.290886,62.596516,-15.272331,0.56474394,-5.0585456
110,0.052817560732364655,2.434251546859741,78.44170379638672,0.030091144527020868,-0.24393494183267767,-88.54724164444251,0.7340005,2.2966883,8.440764,8.353127,-9.076264,-1.7126193,1.1096429,-2.9596453,-7.0051394,8.640483,-10.373507,2.3230224,-1.4848697,2.1415856,6.1542387,0.97388405,11.708187,-18.917097,66.03087,-3.7403195,-1.9142874,-3.7091482,-0.6191056,-10.440447,8.404306,62.615627,-15.286549,0.57686764,-5.048865
111,0.050442490726709366,2.4750373363494873,78.44507598876953,0.028738661312495518,-0.2309381287762114,-88.53563407045054,0.6809338,2.2950926,8.421284,8.342364,-9.030779,-1.720204,1.0655888,-2.9579287,-7.0200315,8.625638,-10.333042,2.32495,-1.466348,2.159552,6.246614,1.003897,11.7229185,-18.889761,65.90065,-3.599267,-1.8841721,-3.6624267,-0.67118293,-10.524683,8.524277,62.624847,-15.295014,0.59105515,-5.0357747
112,0.04461968317627907,2.521143913269043,78.44950103759766,0.02918381597510663,-0.2099313686511917,-88.52243440184405,0.6167793,2.2929778,8.403812,8.331646,-8.980275,-1.7235819,1.0088997,-2.9576063,-7.034046,8.613727,-10.288378,2.3232534,-1.4444735,2.1752555,6.3447003,1.0267233,11.736559,-18.862177,65.77698,-3.4926457,-1.8681979,-3.6142256,-0.7295416,-10.606356,8.638991,62.62846,-15.299147,0.6008526,-5.025082
113,0.040952134877443314,2.570120096206665,78.45468139648438,0.02934786482872513,-0.179801195895646,-88.5090530344145,0.5406034,2.2904484,8.39173,8.321796,-8.92527,-1.721547,0.93824416,-2.9590466,-7.0446014,8.604764,-10.238295,2.3161643,-1.4198768,2.1865737,6.44893,1.0436112,11.749295,-18.828117,65.66171,-3.4359229,-1.8725057,-3.56488,-0.79691684,-10.683379,8.746136,62.62484,-15.289087,0.60253257,-5.018747
114,0.038363538682460785,2.6215310096740723,78.46038055419922,0.030295408382267415,-0.14287263371183015,-88.4955019829953,0.45465893,2.2875836,8.382798,8.313538,-8.867297,-1.7158493,0.8557872,-2.9617898,-7.053212,8.600286,-10.185514,2.3058105,-1.400504,2.2033784,6.564303,1.0694805,11.763598,-18.781511,65.53211,-3.4056551,-1.8879124,-3.5193708,-0.86756206,-10.780287,8.858472,62.60357,-15.261609,0.5991806,-5.00784
115,0.03848469629883766,2.673415422439575,78.46595001220703,0.030349652716845366,-0.09998042922631568,-88.47865348510382,0.3587757,2.2842996,8.370961,8.304613,-8.803881,-1.7078569,0.7649651,-2.964931,-7.064733,8.594132,-10.12781,2.294311,-1.3776705,2.2182958,6.683824,1.0863606,11.777135,-18.739954,65.40817,-3.381635,-1.9078807,-3.470723,-0.94483954,-10.872231,8.971392,62.584698,-15.242951,0.59761316,-4.9990916
116,0.03869941458106041,2.724982500076294,78.4720687866211,0.031982697197163755,-0.05180893593968462,-88.45550088356163,0.2516563,2.2802122,8.350288,8.29602,-8.73509,-1.6987624,0.6685318,-2.9678698,-7.084,8.5831175,-10.065207,2.283953,-1.3587633,2.2349186,6.8083277,1.103048,11.794108,-18.70355,65.27398,-3.344599,-1.9247363,-3.4216688,-1.0290331,-10.971559,9.102269,62.57006,-15.243812,0.60264397,-4.987161
117,0.033389151096343994,2.7812626361846924,78.47832489013672,0.03370055013472023,0.0031213398642516007,-88.4238096565337,0.13066357,2.2747908,8.316812,8.287532,-8.658599,-1.6873788,0.5655131,-2.9705892,-7.1142335,8.566174,-9.996854,2.275769,-1.3442789,2.2515461,6.93291,1.1188301,11.815978,-18.679625,65.12888,-3.2892275,-1.9349378,-3.3686526,-1.120151,-11.071289,9.253474,62.56485,-15.28108,0.6197912,-4.9775095
118,0.025350777432322502,2.8468923568725586,78.48458099365234,0.035045965631621066,0.06454724021483867,-88.38549246547036,-0.0037137459,2.2685955,8.274401,8.281323,-8.576717,-1.6735733,0.4558096,-2.9732778,-7.152211,8.543657,-9.922191,2.2683957,-1.3344498,2.2680776,7.0608654,1.1354793,11.844044,-18.661695,64.97484,-3.226445,-1.9453479,-3.314254,-1.2173501,-11.174611,9.420615,62.562057,-15.342273,0.64461774,-4.968334
119,0.017604945227503777,2.9123740196228027,78.49147033691406,0.03537270051670353,0.12947252788665078,-88.34451152978005,-0.14475986,2.2620895,8.229143,8.272768,-8.490448,-1.6602558,0.34065494,-2.9759166,-7.193124,8.518465,-9.84372,2.2604656,-1.3211936,2.2818286,7.198021,1.1462077,11.875464,-18.64519,64.81855,-3.1596017,-1.956108,-3.2611196,-1.3241334,-11.274775,9.593552,62.564877,-15.4043045,0.6687044,-4.9539514
120,0.011673558503389359,2.981226921081543,78.49797058105469,0.036861195600483496,0.19496037133358354,-88.30477366728607,-0.28681412,2.2557454,8.187172,8.258823,-8.401538,-1.6503128,0.22060014,-2.9787202,-7.231832,8.495555,-9.764999,2.250572,-1.3023595,2.2952454,7.3539643,1.154014,11.910155,-18.61946,64.65422,-3.0934393,-1.9685566,-3.2163186,-1.440292,-11.381695,9.769421,62.56586,-15.438756,0.68258536,-4.923365
121,0.005585659295320511,3.0532612800598145,78.50191497802734,0.03682473723733674,0.2576290897181021,-88.26669444717106,-0.42497215,2.24993,8.14973,8.238086,-8.312064,-1.6459548,0.100551486,-2.9818296,-7.268043,8.473523,-9.687085,2.2382395,-1.2725908,2.3071733,7.5306263,1.1519257,11.944465,-18.582842,64.49035,-3.026364,-1.9841509,-3.1840677,-1.5645962,-11.492667,9.942747,62.567284,-15.433023,0.6818326,-4.866796
122,-0.0012719609076157212,3.1295876502990723,78.50662994384766,0.036797707855240384,0.3198848689196688,-88.22843089453585,-0.56382525,2.244279,8.113767,8.213208,-8.221058,-1.6450849,-0.020759232,-2.9849074,-7.3041544,8.448663,-9.606722,2.224237,-1.2360135,2.3195388,7.723493,1.1414802,11.9782715,-18.540312,64.32564,-2.9581666,-2.0018806,-3.1603932,-1.6963384,-11.608208,10.118704,62.569298,-15.402346,0.67193484,-4.791179
123,-0.00771648995578289,3.2127838134765625,78.5139389038086,0.03674596928213898,0.387385637873757,-88.19036282066065,-0.7109474,2.2389898,8.078298,8.185841,-8.124669,-1.6445146,-0.15098664,-2.9875886,-7.3393025,8.4223,-9.521814,2.2091491,-1.1965568,2.3328626,7.92839,1.1268244,12.011849,-18.494898,64.157524,-2.8882563,-2.0200706,-3.1344585,-1.8397561,-11.728244,10.299085,62.573387,-15.3683605,0.659497,-4.7164726
124,-0.013257299549877644,3.2979066371917725,78.52129364013672,0.0363980367699133,0.4657255259542067,-88.15291403532814,-0.8737118,2.234263,8.042555,8.1572695,-8.0188265,-1.6409279,-0.2974924,-2.9889536,-7.372743,8.394309,-9.429751,2.1935415,-1.1580977,2.3486013,8.140948,1.111709,12.045584,-18.450663,63.983025,-2.818191,-2.0368295,-3.09581,-1.9986511,-11.850666,10.486437,62.580532,-15.351659,0.6509046,-4.662479
125,-0.021935032680630684,3.3800930976867676,78.52961730957031,0.036134769270942696,0.5583242972839063,-88.11559838396965,-1.0560856,2.2297533,8.005711,8.1282425,-7.902486,-1.6329539,-0.46217433,-2.9889286,-7.404084,8.361149,-9.328663,2.1772013,-1.1224415,2.365899,8.355768,1.098094,12.080331,-18.412268,63.80488,-2.751333,-2.0524147,-3.0378907,-2.1738114,-11.975807,10.684557,62.59323,-15.359062,0.65207416,-4.642133
126,-0.028880650177598,3.4677987098693848,78.53950500488281,0.03547315902537836,0.661462064222589,-88.07833741006561,-1.2531565,2.225383,7.968445,8.097681,-7.7780447,-1.6224638,-0.6396262,-2.9874318,-7.433985,8.320824,-9.218756,2.1599638,-1.0872498,2.3849533,8.577071,1.0843588,12.115843,-18.375784,63.622227,-2.6855829,-2.0674472,-2.9680564,-2.362422,-12.102504,10.890865,62.60927,-15.378988,0.6578885,-4.6418815
127,-0.03575291857123375,3.567286491394043,78.55094909667969,0.034819253514298584,0.7701654094830889,-88.04231945088372,-1.4598197,2.221525,7.932102,8.064355,-7.645059,-1.6109622,-0.82822853,-2.9848454,-7.4627676,8.280223,-9.102353,2.1422796,-1.0493759,2.4035032,8.81259,1.064188,12.151887,-18.3365,63.434963,-2.6158342,-2.0809312,-2.8934946,-2.5697515,-12.227253,11.0980625,62.631184,-15.407124,0.65960443,-4.6456714
128,-0.04520612955093384,3.677360773086548,78.56216430664062,0.03345180627936982,0.8794889153620797,-88.00870131646332,-1.6725812,2.2185507,7.8979445,8.03077,-7.5055094,-1.6000134,-1.0229713,-2.9811614,-7.4909687,8.238274,-8.977349,2.1247075,-1.0099134,2.424028,9.074312,1.0401989,12.191227,-18.285471,63.228615,-2.53802,-2.091293,-2.8254812,-2.7963293,-12.358239,11.305102,62.650543,-15.432631,0.64745325,-4.6320925
129,-0.05573195591568947,3.792617082595825,78.57186126708984,0.03154107423499596,0.9852236584498483,-87.9792343707524,-1.8859296,2.2169387,7.8672233,7.9952183,-7.357878,-1.590949,-1.2204691,-2.9760137,-7.5177155,8.19678,-8.843388,2.1079373,-0.96436095,2.4446244,9.364877,1.0075088,12.232343,-18.221699,63.00664,-2.4477658,-2.0959294,-2.765441,-3.0429976,-12.487557,11.5051985,62.67565,-15.464313,0.6097037,-4.5960345
130,-0.06796710938215256,3.9097883701324463,78.57958221435547,0.029025024268940422,1.0909547960723944,-87.95265831036832,-2.1036587,2.2167735,7.8388233,7.958384,-7.202754,-1.582768,-1.421227,-2.9687343,-7.5433807,8.149414,-8.698419,2.0913987,-0.91521776,2.465101,9.678533,0.96853125,12.275926,-18.148315,62.771656,-2.3488412,-2.0962892,-2.708431,-3.3097765,-12.616086,11.703383,62.707104,-15.503188,0.5544578,-4.548221
131,-0.07920362800359726,4.0318193435668945,78.58586120605469,0.026062932539178924,1.2033097805525137,-87.92604290769223,-2.3335104,2.2174556,7.8106537,7.919301,-7.0401616,-1.5735363,-1.6344372,-2.9607449,-7.569551,8.101382,-8.546765,2.073803,-0.8634402,2.4844947,10.00849,0.91962206,12.321172,-18.07286,62.53344,-2.2473009,-2.0976415,-2.650257,-3.5985332,-12.74086,11.901841,62.739643,-15.536916,0.5031522,-4.49856
132,-0.09244270622730255,4.15366792678833,78.59431457519531,0.02262380349103746,1.3288578386244003,-87.89651299359015,-2.5823295,2.218693,7.780576,7.8755584,-6.869686,-1.5612055,-1.863451,-2.9521048,-7.598433,8.045534,-8.386414,2.0536346,-0.8146371,2.505336,10.351642,0.8665,12.37079,-17.998083,62.287388,-2.150007,-2.1047266,-2.5901935,-3.9082575,-12.8724375,12.108732,62.7581,-15.548397,0.47647318,-4.452617
133,-0.10995206981897354,4.2915358543396,78.60350036621094,0.01899382257562268,1.4632890366022566,-87.86211159855479,-2.8479412,2.220339,7.747273,7.831533,-6.694398,-1.5420829,-2.1064131,-2.9440947,-7.6314445,7.987723,-8.221587,2.0302336,-0.7667938,2.5255141,10.710665,0.80063945,12.422692,-17.929388,62.047195,-2.0612016,-2.1222534,-2.5217295,-4.2403164,-13.005305,12.3190775,62.76244,-15.533129,0.48960927,-4.4114103
134,-0.12074417620897293,4.43223237991333,78.6148452758789,0.0172386034679747,1.605254938418538,-87.82515388079523,-3.1264737,2.2198915,7.713153,7.78303,-6.5113697,-1.5178878,-2.3931403,-2.9426692,-7.664801,7.9950733,-8.086853,2.004916,-0.7189581,2.5436943,11.086779,0.7250909,12.476844,-17.862337,61.806557,-1.9763535,-2.1464574,-2.44834,-4.593479,-13.139252,12.532804,62.75678,-15.498506,0.52805126,-4.370802
135,-0.12951551377773285,4.5791096687316895,78.62638092041016,0.016943157571215617,1.765174709152902,-87.78828133214631,-3.4239,2.2168982,7.680128,7.720673,-6.3146887,-1.495443,-2.721194,-2.9451556,-7.6964984,8.036385,-7.963064,1.9785732,-0.6643082,2.5570796,11.462553,0.630758,12.527758,-17.803782,61.578426,-1.8893199,-2.1708744,-2.3722317,-4.974612,-13.260358,12.745095,62.764435,-15.463725,0.57051677,-4.3419814
136,-0.14277753233909607,4.725707054138184,78.63836669921875,0.015562430916160903,1.9534643576422046,-87.75414779011379,-3.7470412,2.213516,7.6492248,7.6366625,-6.099144,-1.4818189,-3.0779476,-2.944942,-7.725902,8.058725,-7.8199635,1.9520718,-0.6170476,2.5794418,11.84018,0.5553698,12.589969,-17.735699,61.30354,-1.7976303,-2.1869545,-2.3145323,-5.3690624,-13.409612,12.979134,62.75321,-15.422317,0.5921721,-4.314502
137,-0.15797755122184753,4.878848075866699,78.64846801757812,0.01239241337672214,2.1674575767896735,-87.7225826617459,-4.089307,2.2098787,7.6208515,7.5247173,-5.862917,-1.4828424,-3.4608593,-2.9418902,-7.753117,8.064158,-7.6590195,1.9264616,-0.56305027,2.6061344,12.212853,0.47377306,12.650875,-17.6729,61.014225,-1.6926228,-2.1897671,-2.2746902,-5.7820206,-13.560141,13.21577,62.749004,-15.386814,0.583235,-4.3103023
138,-0.17042124271392822,5.03216552734375,78.65733337402344,0.007420038641094427,2.402883072563417,-87.692500442381,-4.450514,2.2066867,7.593733,7.3930845,-5.610474,-1.4936885,-3.865494,-2.9358587,-7.7794495,8.053763,-7.482191,1.9008211,-0.5076801,2.6372707,12.586286,0.38892737,12.711644,-17.610502,60.710285,-1.5783732,-2.1844633,-2.2475228,-6.21596,-13.714233,13.460913,62.747566,-15.349419,0.55738145,-4.322321
139,-0.18539124727249146,5.193331241607666,78.66583251953125,0.002542001421676661,2.6675803505253923,-87.6651204209426,-4.8406754,2.203117,7.5679646,7.243055,-5.3394957,-1.5051578,-4.3055525,-2.9287968,-7.803078,8.035825,-7.291763,1.8734759,-0.44751623,2.6705875,12.95076,0.2953265,12.773212,-17.55696,60.405247,-1.4693135,-2.1803718,-2.2161868,-6.67201,-13.872202,13.71076,62.747696,-15.319616,0.5296598,-4.328271
140,-0.19791533052921295,5.368960380554199,78.67623901367188,-0.0010683344720401782,2.969345715902999,-87.64165305949622,-5.271632,2.198481,7.543498,7.0780106,-5.0477486,-1.50787,-4.7908936,-2.9215152,-7.822506,8.010067,-7.0857034,1.8426139,-0.37816414,2.704127,13.296671,0.18525429,12.836425,-17.521317,60.116882,-1.380067,-2.1889212,-2.1634698,-7.1513653,-14.033724,13.960788,62.748646,-15.306964,0.51531094,-4.3060474
141,-0.21751083433628082,5.543264865875244,78.68688201904297,-0.002964119937313735,3.3163053423362983,-87.6235327040451,-5.7539835,2.192226,7.519873,6.898895,-4.731604,-1.4966072,-5.3328333,-2.9131887,-7.836025,7.978217,-6.8618617,1.8059742,-0.2964763,2.7370248,13.615189,0.05520777,12.902625,-17.515293,59.849762,-1.3213525,-2.2149744,-2.0768812,-7.6540976,-14.196952,14.208828,62.74909,-15.323852,0.5262251,-4.2393336
142,-0.23163548111915588,5.716554641723633,78.69725036621094,-0.003991584076646747,3.7012600566323908,-87.60978372123174,-6.284771,2.185564,7.4969134,6.7188983,-4.4013286,-1.4771143,-5.921795,-2.903304,-7.8450065,7.9383307,-6.620916,1.7649922,-0.20461784,2.7696283,13.9142065,-0.0906876,12.972381,-17.532358,59.595413,-1.2839687,-2.2523615,-1.9682647,-8.181097,-14.362463,14.458164,62.751415,-15.361043,0.5516164,-4.1434827
143,-0.24554258584976196,5.911334037780762,78.70667266845703,-0.005375541452470415,4.109510493315298,-87.59760309067585,-6.9198494,2.1891236,7.472644,6.698062,-4.1496477,-1.4567541,-6.534269,-2.8920026,-7.8529396,7.8837156,-6.366043,1.7233242,-0.106854185,2.8045905,14.209607,-0.24499881,13.04385,-17.553358,59.343124,-1.2512792,-2.2912886,-1.8571068,-8.727438,-14.530504,14.705915,62.75249,-15.402177,0.5725854,-4.0431676
144,-0.2609962224960327,6.095920562744141,78.71282958984375,-0.010548324539751065,4.52632826223421,-87.58453144600966,-7.567961,2.196076,7.4503665,6.68183,-3.9029534,-1.4422889,-7.157604,-2.8786163,-7.8631744,7.8294077,-6.109968,1.6847453,-0.0076477937,2.846872,14.51628,-0.40137804,13.114372,-17.559288,59.084255,-1.2068762,-2.3221211,-1.7623215,-9.291793,-14.70303,14.952221,62.752953,-15.428297,0.57023597,-3.9636068
145,-0.27010348439216614,6.276742935180664,78.71484375,-0.018319306879036597,4.956319498867632,-87.57166050903908,-8.233125,2.2053714,7.433722,6.671375,-3.6649761,-1.4372032,-7.787588,-2.8633134,-7.8754807,7.7586546,-5.8496532,1.6506165,0.093305685,2.8968277,14.827189,-0.5609551,13.181678,-17.549908,58.825794,-1.1527647,-2.3429308,-1.6899714,-9.869113,-14.880191,15.198823,62.752552,-15.436975,0.5336095,-3.9150143
146,-0.28507351875305176,6.474085807800293,78.7169189453125,-0.02623975560939399,5.4038383375081915,-87.55976529005333,-8.919111,2.2146196,7.4217873,6.66077,-3.4279747,-1.4370755,-8.432641,-2.8479824,-7.887778,7.674337,-5.5810285,1.6191013,0.1975436,2.9519472,15.1380415,-0.72615784,13.245683,-17.532831,58.568424,-1.094461,-2.356789,-1.628973,-10.464231,-15.062436,15.448483,62.7538,-15.434108,0.47479594,-3.883062
147,-0.2967613637447357,6.662145137786865,78.71920013427734,-0.03462030262750355,5.854100145802793,-87.5462137383083,-9.611497,2.2231863,7.408255,6.650048,-3.1893432,-1.4371225,-9.079459,-2.833417,-7.9015055,7.5807114,-5.3041124,1.5887355,0.30163383,3.0119872,15.468573,-0.8960722,13.306271,-17.501608,58.30357,-1.0230995,-2.3689675,-1.5738521,-11.080847,-15.249979,15.692999,62.75132,-15.425169,0.40955994,-3.8546274
148,-0.30620166659355164,6.860880374908447,78.71978759765625,-0.04335648122715115,6.292692536490059,-87.5283304460479,-10.296944,2.2306166,7.3868575,6.6399207,-2.9463816,-1.4325565,-9.713144,-2.8199043,-7.918204,7.477063,-5.0158386,1.5578481,0.40240842,3.076827,15.838358,-1.0698795,13.363746,-17.449821,58.021233,-0.9299741,-2.383423,-1.5191554,-11.726016,-15.44334,15.929778,62.743137,-15.409083,0.3536721,-3.8168943
149,-0.31978532671928406,7.065341472625732,78.71866607666016,-0.051623051941615296,6.7186931682778805,-87.50352333924907,-10.975442,2.2342446,7.3545413,6.630266,-2.6971304,-1.4199483,-10.334906,-2.8074307,-7.9409328,7.3684015,-4.716322,1.523893,0.49716505,3.1473498,16.249214,-1.2481581,13.4171095,-17.371172,57.724194,-0.81195927,-2.4042103,-1.4685735,-12.399034,-15.640869,16.156227,62.72728,-15.38187,0.3098346,-3.7650506
150,-0.33130618929862976,7.277528285980225,78.71637725830078,-0.059672162147619875,7.138910193350325,-87.47390245897138,-11.653531,2.234779,7.315184,6.621262,-2.4435747,-1.4024158,-10.951301,-2.7954261,-7.9680724,7.252823,-4.406255,1.488038,0.58772033,3.2229962,16.691214,-1.4313191,13.46613,-17.269773,57.416973,-0.6731584,-2.4281502,-1.4231591,-13.09922,-15.842324,16.376888,62.708282,-15.3440895,0.27013,-3.7066674
151,-0.3386569023132324,7.500751972198486,78.71104431152344,-0.06758134934396293,7.551286617595347,-87.44338545315239,-12.326694,2.2348404,7.2735834,6.6124296,-2.1884575,-1.3845887,-11.554105,-2.782401,-7.9944167,7.1190915,-4.0851336,1.4538592,0.6776476,3.3026905,17.165644,-1.6180497,13.512751,-17.158102,57.090816,-0.5189438,-2.448591,-1.3739928,-13.827862,-16.04883,16.596169,62.686832,-15.305398,0.23449624,-3.6459224
152,-0.3491883873939514,7.713601589202881,78.70598602294922,-0.07564631336988653,7.953626396563505,-87.41582225126471,-12.990601,2.236524,7.234448,6.603781,-1.9347131,-1.3709083,-12.136212,-2.7673638,-8.014661,6.958866,-3.7537556,1.4249456,0.77066237,3.3849335,17.674465,-1.8064427,13.560185,-17.04908,56.735577,-0.35506058,-2.458785,-1.3125861,-14.583746,-16.262064,16.814228,62.66074,-15.279539,0.20289987,-3.586524
153,-0.361898809671402,7.929383754730225,78.69876861572266,-0.08390145529362947,8.34715706920735,-87.39235125657491,-13.647952,2.240109,7.199888,6.596091,-1.680615,-1.3606737,-12.720302,-2.7506356,-8.025463,6.81457,-3.4352014,1.403582,0.8702281,3.4696655,18.2198,-1.994924,13.6092205,-16.939285,56.344765,-0.1759879,-2.4492054,-1.2382464,-15.366931,-16.482775,17.027346,62.62784,-15.27081,0.17813335,-3.529873
154,-0.37112995982170105,8.151127815246582,78.68852233886719,-0.09185951094820054,8.732386504459495,-87.37072061573959,-14.299519,2.2435045,7.167163,6.588515,-1.427931,-1.3517345,-13.357966,-2.7390294,-8.027959,6.795218,-3.1843095,1.3869814,0.97413146,3.5582938,18.80078,-2.1846185,13.659343,-16.825596,55.92284,0.018119046,-2.4258184,-1.1556937,-16.176825,-16.709381,17.236092,62.589077,-15.271115,0.15778999,-3.4733255
155,-0.3832823634147644,8.384639739990234,78.67510223388672,-0.0986733110590568,9.106487318051354,-87.34980248533388,-14.939513,2.2461302,7.1339655,6.580953,-1.1770924,-1.3465031,-13.984517,-2.7273562,-8.028268,6.776349,-2.9360137,1.3710349,1.0768445,3.6483467,19.413286,-2.3753297,13.713197,-16.718996,55.477024,0.2137123,-2.4046848,-1.0642204,-17.013649,-16.943104,17.451181,62.54566,-15.275757,0.13811429,-3.4141808
156,-0.4001137316226959,8.624180793762207,78.65966796875,-0.10458490506903034,9.467007926801541,-87.32872183420483,-15.562722,2.2475176,7.097845,6.572394,-0.92927855,-1.3471544,-14.595521,-2.718386,-8.029544,6.759841,-2.6912658,1.3516611,1.1745365,3.7388804,20.054409,-2.5664744,13.774691,-16.631859,55.01146,0.39668944,-2.402163,-0.9636725,-17.880264,-17.185984,17.687126,62.502968,-15.272152,0.11164978,-3.3503435
157,-0.41199633479118347,8.85473918914795,78.64411163330078,-0.1094092703147035,9.814053662811562,-87.30830839942873,-16.16754,2.2466512,7.0581646,6.5631576,-0.6840622,-1.3551071,-15.190709,-2.7129316,-8.03107,6.7464356,-2.4497824,1.3251556,1.2677315,3.8297548,20.722158,-2.7571845,13.848035,-16.577738,54.525974,0.56302154,-2.4261267,-0.85244906,-18.771687,-17.438148,17.949211,62.454884,-15.261183,0.07538986,-3.2796211
158,-0.42661717534065247,9.087674140930176,78.62662506103516,-0.11383875538462217,10.149049239267809,-87.28888568323083,-16.757668,2.2427793,7.0166078,6.5535364,-0.44055206,-1.3679266,-15.772631,-2.7088914,-8.031728,6.734876,-2.2112896,1.2941303,1.3591808,3.9213915,21.419424,-2.9457412,13.933603,-16.547688,54.013783,0.71888167,-2.4664977,-0.73213536,-19.687223,-17.698483,18.22977,62.398487,-15.245984,0.0329275,-3.2032363
159,-0.44014865159988403,9.316981315612793,78.60858154296875,-0.11804067561729624,10.471966038734676,-87.26844882628488,-17.335087,2.2363474,6.973857,6.543964,-0.20145717,-1.3824223,-16.342014,-2.7060008,-8.033668,6.7245307,-1.9764485,1.2645047,1.4473519,4.013416,22.150284,-3.1294734,14.027962,-16.517796,53.47088,0.86819106,-2.5123196,-0.6065335,-20.63311,-17.96687,18.517363,62.3391,-15.227101,-0.011826475,-3.1230235
160,-0.448842853307724,9.54546070098877,78.59111022949219,-0.12208217427209435,10.78244716485017,-87.24495579302744,-17.902508,2.228122,6.930503,6.536842,0.029434115,-1.3956497,-16.899195,-2.7046695,-8.039,6.7151856,-1.7469141,1.2423445,1.5295882,4.105946,22.918861,-3.3067012,14.12558,-16.463959,52.89512,1.0146593,-2.5528467,-0.47893134,-21.615757,-18.244127,18.80124,62.28387,-15.206546,-0.05502653,-3.0411854
161,-0.4558103084564209,9.776124954223633,78.57195281982422,-0.12575266678939767,11.07992507491184,-87.21324897391426,-18.46116,2.2181249,6.88161,6.5327597,0.24767412,-1.4130776,-17.44476,-2.7073882,-8.052286,6.710125,-1.5265701,1.2341542,1.6022333,4.2023063,23.728483,-3.4818661,14.223031,-16.381388,52.285328,1.1566683,-2.5883763,-0.3416193,-22.63803,-18.529646,19.080338,62.235302,-15.1835575,-0.092778295,-2.9539695
162,-0.4679993689060211,10.020520210266113,78.54814147949219,-0.12907489021561572,11.364897121744578,-87.17587632723195,-19.008059,2.205523,6.828612,6.526862,0.45840663,-1.434058,-17.972727,-2.7125957,-8.071242,6.695621,-1.3064113,1.2350603,1.6666266,4.302371,24.574965,-3.656528,14.320173,-16.282291,51.647102,1.2938604,-2.623886,-0.1949001,-23.696371,-18.8225,19.359278,62.190666,-15.161814,-0.12806731,-2.8616405
163,-0.48037096858024597,10.265631675720215,78.52332305908203,-0.13123908824901162,11.639665301470364,-87.14209976199285,-19.5462,2.1924763,6.780986,6.52503,0.66622657,-1.4468817,-18.495304,-2.7182157,-8.086467,6.689561,-1.0915047,1.2341132,1.7294843,4.4023137,25.451447,-3.8258526,14.41566,-16.167267,50.987186,1.4338928,-2.6552334,-0.05453555,-24.789263,-19.122648,19.643034,62.147682,-15.135309,-0.16715567,-2.772029
164,-0.49181902408599854,10.507135391235352,78.49744415283203,-0.1324089191785124,11.906809642081956,-87.12129839719107,-20.074366,2.1816845,6.7479167,6.5261602,0.8788062,-1.4400102,-19.014294,-2.7204077,-8.089268,6.687882,-0.8755038,1.2202258,1.7969646,4.499981,26.350943,-3.985197,14.5077715,-16.036968,50.312973,1.5839041,-2.678599,0.06371934,-25.912838,-19.430208,19.93191,62.10224,-15.104297,-0.21635596,-2.6926544
165,-0.5062249898910522,10.748222351074219,78.46751403808594,-0.13364488294683755,12.15646135822017,-87.1158346076183,-20.582941,2.1763425,6.7309084,6.531608,1.097645,-1.4035034,-19.521381,-2.718507,-8.077681,6.6938987,-0.6623451,1.1854049,1.8697478,4.5967855,27.2879,-4.1354966,14.595058,-15.88482,49.61784,1.7715979,-2.6822665,0.14269257,-27.071232,-19.74444,20.225954,62.053352,-15.066428,-0.2785881,-2.6235418
166,-0.5175731778144836,10.99183464050293,78.43346405029297,-0.13488395560319427,12.392041616141274,-87.12072814691585,-21.076746,2.176015,6.7248597,6.5407314,1.3189559,-1.3461252,-20.018776,-2.7150974,-8.056179,6.705317,-0.45154446,1.1370393,1.9441857,4.69462,28.258883,-4.279114,14.677432,-15.71196,48.90215,1.9852334,-2.6720605,0.19535458,-28.267769,-20.06525,20.528307,62.005642,-15.021742,-0.35024965,-2.5614157
167,-0.5245366096496582,11.23680305480957,78.39471435546875,-0.13436308103799346,12.635818610317967,-87.13446421150522,-21.578812,2.1772363,6.729434,6.5525894,1.5416288,-1.2839204,-20.528557,-2.7120802,-8.025363,6.720105,-0.23723975,1.0870446,2.0218623,4.7929044,29.23123,-4.4146395,14.754719,-15.5325,48.1826,2.1724522,-2.6702995,0.2508649,-29.492868,-20.392899,20.840492,61.957283,-14.971425,-0.42727467,-2.508662
168,-0.5294793248176575,11.48323917388916,78.35218811035156,-0.13225130249590794,12.978752181552622,-87.15538854670217,-22.1905,2.1777844,6.7432156,6.5651326,1.7752478,-1.231655,-21.152475,-2.7092662,-7.9870443,6.737719,-0.0030747484,1.0453843,2.1760411,4.9163017,29.793802,-4.563829,14.789356,-15.502253,47.765495,2.2506442,-2.6957958,0.30344385,-30.574856,-20.694496,21.185076,62.046192,-14.898134,-0.51154387,-2.4364164
169,-0.5387118458747864,11.722664833068848,78.30188751220703,-0.12887195861587292,13.457860337955118,-87.18652406974131,-22.953413,2.178422,6.7686987,6.578318,2.0236447,-1.1939639,-21.991835,-2.7145114,-7.9350724,6.882844,0.19232373,1.0202551,2.4387698,5.0799627,29.793802,-4.768047,14.736817,-15.691059,47.7953,2.193053,-2.7510686,0.3726389,-31.471018,-20.935696,21.576416,62.348907,-14.803958,-0.6056145,-2.3562732
170,-0.5434818267822266,11.946806907653809,78.2490005493164,-0.12385892220331153,13.960746722014774,-87.22762306467573,-23.740952,2.1792316,6.8061147,6.5940685,2.2724974,-1.1630439,-23.00738,-2.7407584,-7.8650894,7.344438,0.2316617,1.0058538,2.6969097,5.24876,29.793802,-4.991723,14.641418,-15.867529,47.852222,2.0845914,-2.8316596,0.48697373,-32.423878,-21.159971,21.989157,62.670616,-14.715425,-0.7027237,-2.3090212
171,-0.5404805541038513,12.169662475585938,78.18896484375,-0.11730273586256956,14.469147237507617,-87.27135399365416,-24.53314,2.1785388,6.848594,6.6129994,2.5195518,-1.1334667,-24.062597,-2.7720318,-7.791251,7.879872,0.23663944,0.98852736,2.9547257,5.423255,29.793802,-5.2222815,14.519528,-16.034502,47.943398,1.9437867,-2.9402835,0.61561817,-33.404736,-21.381807,22.415588,63.002632,-14.615824,-0.79859066,-2.2713413
172,-0.5484985113143921,12.395170211791992,78.12043762207031,-0.10856136474433443,14.963568993546044,-87.31001338339608,-25.34037,2.1779532,6.888042,6.7028265,2.7290046,-1.1001426,-25.132685,-2.8108358,-7.72166,8.488237,0.19897154,0.95624423,3.2176762,5.608851,29.793802,-5.4615874,14.373577,-16.197744,48.09316,1.7938541,-3.0801864,0.7326272,-34.370884,-21.600763,22.802465,63.332912,-14.539475,-0.887749,-2.2223852
173,-0.5500776171684265,12.61553955078125,78.05084991455078,-0.0986582529457916,15.435832314888286,-87.34295486893043,-26.354324,2.2053602,6.915858,7.2934175,2.6660705,-1.072043,-26.217913,-2.8583026,-7.6569915,9.191218,0.108363286,0.9024498,3.4893432,5.8080926,29.793802,-5.7063136,14.20358,-16.357254,48.307106,1.634416,-3.26944,0.83075166,-35.32061,-21.818964,23.147898,63.661247,-14.49278,-0.9596635,-2.1457205
174,-0.5523262619972229,12.83446216583252,77.97381591796875,-0.08659440307719704,15.898533584065744,-87.37347379695449,-27.3816,2.2349613,6.943496,7.941479,2.5698166,-1.0480434,-27.327429,-2.914714,-7.592702,9.974743,-0.023876362,0.8364928,3.7684016,6.016153,29.793802,-5.954393,14.014199,-16.511381,48.567677,1.4537234,-3.500324,0.9229204,-36.277264,-22.04673,23.497402,63.992256,-14.43279,-1.0206147,-2.056558
175,-0.5549986362457275,13.0445556640625,77.88817596435547,-0.07127409891251037,16.362247026030452,-87.40049707101215,-28.43669,2.2641227,6.9681582,8.648774,2.4476054,-1.0109544,-28.45573,-2.9785137,-7.529857,10.800955,-0.17996083,0.77007854,4.057435,6.236494,29.793802,-6.216614,13.807822,-16.669924,48.870857,1.2584102,-3.7375002,1.014038,-37.20246,-22.2785,23.78551,64.299835,-14.406216,-1.0892636,-1.9799933
176,-0.5549606084823608,13.252861976623535,77.79190063476562,-0.05110659216729228,16.837093022298273,-87.42253356053997,-29.535666,2.2898273,6.987318,9.42187,2.3039844,-0.9433052,-29.600044,-3.0489159,-7.469147,11.638959,-0.34582144,0.7143735,4.353382,6.4618335,29.793802,-6.498424,13.59208,-16.836765,49.21154,1.0544814,-3.9455094,1.1117033,-38.127163,-22.52176,24.074768,64.61216,-14.328521,-1.1857727,-1.946115
177,-0.5606879591941833,13.463236808776855,77.6865005493164,-0.024636042390563176,17.31813992041586,-87.43814824103713,-30.686453,2.3115487,6.999177,10.283587,2.1325285,-0.82741016,-30.758923,-3.1274345,-7.4105277,12.494578,-0.5249137,0.671449,4.6438665,6.6762466,29.793802,-6.7923756,13.376993,-16.994038,49.5861,0.8504176,-4.106442,1.2140033,-39.147427,-22.812017,24.575045,64.98923,-13.978044,-1.3190111,-1.9603323
178,-0.5641263723373413,13.666651725769043,77.57599639892578,0.005539812874429167,17.80327068988548,-87.44763929450309,-31.877832,2.3316317,7.0040793,11.21717,1.9355963,-0.6766279,-31.93354,-3.2128458,-7.3548155,13.377067,-0.72098994,0.6364305,4.951084,6.9068694,29.793802,-7.106881,13.151412,-17.164154,49.996605,0.63882804,-4.2418275,1.3131592,-40.113052,-23.118156,24.995548,65.31285,-13.646673,-1.4745554,-1.9973758
179,-0.5654757618904114,13.866392135620117,77.4601821899414,0.037074395449074614,18.305182387373254,-87.4540862177176,-33.0975,2.350949,7.005554,12.177637,1.7292494,-0.52013534,-33.129982,-3.301786,-7.3010526,14.275502,-0.92777157,0.6092165,5.269854,7.1458488,29.793802,-7.4273257,12.920384,-17.350418,50.43059,0.40347722,-4.3750362,1.4213246,-41.0761,-23.447052,25.431679,65.63376,-13.264503,-1.6482174,-2.069259
180,-0.5621877908706665,14.056926727294922,77.33455657958984,0.06759364714072556,18.837244381962204,-87.4608244468856,-34.334377,2.3703983,7.007367,13.118275,1.5296605,-0.3869923,-34.356308,-3.391146,-7.248385,15.18149,-1.1401733,0.5891109,5.5981193,7.393423,29.793802,-7.7366753,12.687007,-17.557817,50.868317,0.12844856,-4.5294724,1.5454124,-42.037167,-23.801485,25.885878,65.95932,-12.853657,-1.834587,-2.1819096
181,-0.5585526823997498,14.232169151306152,77.1978759765625,0.09523544058243245,19.412123464918558,-87.46206881367381,-35.60351,2.38756,7.002305,14.040146,1.3412215,-0.2884325,-35.625076,-3.4835312,-7.204727,16.095959,-1.3591921,0.5791437,5.929963,7.653153,29.793802,-8.029621,12.454867,-17.791815,51.301384,-0.22978804,-4.7246785,1.7005411,-43.009212,-24.186844,26.363804,66.294716,-12.394386,-2.0320375,-2.3486927
182,-0.5546930432319641,14.399735450744629,77.05198669433594,0.12202798438021588,20.01988676295989,-87.45836865317337,-36.90808,2.4023407,6.9916024,14.969159,1.1525553,-0.20720169,-36.931435,-3.5803137,-7.167467,17.02872,-1.590237,0.57844275,6.268757,7.922034,29.793802,-8.31066,12.223963,-18.04778,51.73509,-0.6503403,-4.944042,1.8764441,-43.987392,-24.604147,26.860529,66.631386,-11.88232,-2.244564,-2.5602827
183,-0.5494322776794434,14.555360794067383,76.89800262451172,0.1518336221302351,20.640589616173976,-87.46213394092885,-38.21998,2.4193733,6.9917407,15.901976,0.9520882,-0.1301473,-38.25523,-3.6762855,-7.119926,17.976175,-1.8301264,0.5803143,6.6244793,8.1882305,29.793802,-8.580482,11.992261,-18.31632,52.17579,-1.0544298,-5.1564717,2.0438735,-44.958023,-25.049187,27.370617,66.9684,-11.365059,-2.4750285,-2.7896671
184,-0.5466923713684082,14.706643104553223,76.73456573486328,0.1882213709702631,21.253780188925354,-87.4857225453789,-39.51052,2.4437084,7.018587,16.834232,0.72907525,-0.044519667,-39.573692,-3.7650852,-7.0460176,18.931421,-2.075558,0.5777052,7.0067644,8.441054,29.793802,-8.839997,11.756697,-18.587412,52.630936,-1.3621074,-5.3301888,2.1748896,-45.905895,-25.513498,27.8879,67.3049,-10.890208,-2.7251518,-3.0111718
185,-0.5432204008102417,14.853795051574707,76.56543731689453,0.23030085039214557,21.861332573466566,-87.53714612870581,-40.776203,2.481562,7.079162,17.760363,0.48030806,0.04947758,-40.889973,-3.8415523,-6.9393163,19.894552,-2.3216085,0.5721801,7.419692,8.675667,29.793802,-9.088077,11.516207,-18.850355,53.10157,-1.5405152,-5.453292,2.2653537,-46.835228,-25.991432,28.432604,67.64799,-10.452666,-3.0070932,-3.240639
186,-0.5317723751068115,14.993220329284668,76.3922119140625,0.2760831390815628,22.470963143892753,-87.60844534832047,-42.030045,2.5296981,7.163292,18.683548,0.21036118,0.14570615,-42.212986,-3.9089935,-6.8097005,20.86957,-2.573086,0.56583524,7.8542533,8.897674,29.793802,-9.323377,11.271453,-19.109278,53.585663,-1.6347996,-5.543361,2.3306077,-47.761333,-26.480303,29.006216,68.00455,-10.033973,-3.315683,-3.4855714
187,-0.5246520638465881,15.117682456970215,76.21507263183594,0.3275182645610637,23.072137542570804,-87.68775999869871,-43.269203,2.5809832,7.260556,19.613255,-0.07508447,0.24731497,-43.53218,-3.9733307,-6.665231,21.859352,-2.834515,0.5526263,8.303751,9.112161,29.793802,-9.550307,11.023281,-19.379927,54.08831,-1.6839725,-5.612553,2.372516,-48.71088,-26.97936,29.618513,68.396935,-9.609273,-3.626393,-3.7083943
188,-0.530971348285675,15.240933418273926,76.0357666015625,0.3864729592531178,23.652064239178205,-87.76357960603586,-44.485485,2.627831,7.3611217,20.553143,-0.3717625,0.35780892,-44.835426,-4.0406213,-6.513454,22.869688,-3.1120875,0.5266724,8.752677,9.327343,29.793802,-9.767697,10.767592,-19.671555,54.613907,-1.7272992,-5.673289,2.3915117,-49.585064,-27.47461,30.08529,68.74837,-9.351744,-3.9135296,-3.8747914
189,-0.5324305295944214,15.355639457702637,75.85202026367188,0.45547622606320004,24.201356421045773,-87.84385580016648,-45.66876,2.6729853,7.4733477,21.507456,-0.6851663,0.48159885,-46.117138,-4.1072493,-6.3444414,23.904186,-3.4071925,0.4804702,9.213427,9.5332575,29.793802,-9.974738,10.507098,-19.988766,55.166664,-1.7558142,-5.7185316,2.382002,-50.469135,-27.972628,30.528435,69.14225,-9.168973,-4.1734185,-3.9590065
190,-0.526388943195343,15.471506118774414,75.66667175292969,0.5329240163410942,24.727213859226094,-87.93079099487942,-46.824036,2.7195919,7.5986347,22.472492,-1.0158272,0.6162257,-47.383465,-4.171317,-6.1580424,24.959558,-3.7169273,0.41902742,9.6836605,9.73173,29.793802,-10.167852,10.2403145,-20.32193,55.74239,-1.7547647,-5.7450953,2.3446782,-51.327095,-28.470211,30.90429,69.54679,-9.102384,-4.417202,-3.9880362
191,-0.5221623182296753,15.582342147827148,75.4719467163086,0.6150801815755494,25.246535062658296,-88.00390072240481,-47.968258,2.7589853,7.716353,23.434473,-1.346863,0.7524347,-48.64078,-4.2415066,-5.976613,26.022955,-4.036244,0.35507807,10.147631,9.935839,29.793802,-10.354802,9.971413,-20.676064,56.335075,-1.7567807,-5.7704453,2.2942545,-52.194202,-28.97445,31.2796,69.96818,-9.021191,-4.643499,-4.0014505
192,-0.5210058093070984,15.68635082244873,75.2690200805664,0.6986295195931663,25.775770784729495,-88.04269751746081,-49.117336,2.7811234,7.807413,24.376446,-1.6600878,0.8833699,-49.895237,-4.3274527,-5.821988,27.081415,-4.3601546,0.3015459,10.589539,10.160087,29.793802,-10.542521,9.703333,-21.057375,56.936657,-1.7954774,-5.811912,2.2442214,-53.06368,-29.48866,31.640955,70.37677,-8.873796,-4.850806,-4.037715
193,-0.5163175463676453,15.785603523254395,75.06204986572266,0.7762773689982992,26.317180298225587,-88.04530531501648,-50.284092,2.7890027,7.860341,25.314295,-1.9577368,1.0089154,-51.14543,-4.426498,-5.7050376,28.130465,-4.6860824,0.26239336,11.009768,10.412193,29.793802,-10.73259,9.437646,-21.47692,57.553535,-1.8982975,-5.8854985,2.2004323,-53.946777,-30.017572,31.99992,70.77929,-8.619724,-5.0337424,-4.1110277
194,-0.5112303495407104,15.875906944274902,74.85266876220703,0.8527413630635131,26.862489645114504,-88.02136422269258,-51.456467,2.7844832,7.888468,26.247828,-2.245537,1.1316835,-52.389435,-4.536555,-5.611613,29.17847,-5.0178485,0.23055324,11.416609,10.682715,29.793802,-10.920332,9.173413,-21.930384,58.184227,-2.0428536,-5.9778438,2.1535897,-54.832703,-30.56228,32.341724,71.17685,-8.30977,-5.1951213,-4.1981816
195,-0.5057188272476196,15.958076477050781,74.63988494873047,0.9444102257325725,27.413121706625944,-87.96677404632787,-52.617355,2.7562664,7.9109755,27.146532,-2.5156813,1.2464509,-53.635372,-4.6695065,-5.5245485,30.235691,-5.3611817,0.20237371,11.805497,10.95534,29.793802,-11.102907,8.911689,-22.397512,58.80886,-2.1847787,-6.0619836,2.095954,-55.712845,-31.123316,32.665554,71.55386,-7.9835215,-5.345674,-4.280335
196,-0.503700852394104,16.041105270385742,74.41742706298828,1.06825911529586,27.970571266744656,-87.87687848526654,-53.74994,2.6929266,7.9473925,27.978708,-2.7593942,1.347927,-54.8906,-4.8363333,-5.4262133,31.30972,-5.7206936,0.17427441,12.171085,11.212909,29.793802,-11.276193,8.654471,-22.857794,59.407322,-2.280086,-6.11104,2.0195422,-56.57525,-31.699131,32.96816,71.89454,-7.680881,-5.4960465,-4.33879
197,-0.4940050542354584,16.110368728637695,74.1929702758789,1.234077949107689,28.542100426033176,-87.74746086370554,-54.854687,2.5886703,8.009022,28.729942,-2.9722507,1.4353993,-56.16889,-5.043822,-5.30702,32.408974,-6.1007166,0.14746091,12.50343,11.440443,29.793802,-11.435396,8.405069,-23.302637,59.9739,-2.307022,-6.109598,1.9193567,-57.426117,-32.287273,33.261074,72.19859,-7.4086246,-5.6502137,-4.3585844
198,-0.4949801564216614,16.17386817932129,73.96587371826172,1.4343547775504093,29.124861921220187,-87.57997697416164,-55.940083,2.449704,8.085772,29.419607,-3.1595006,1.5105585,-57.46385,-5.285223,-5.174975,33.52767,-6.497737,0.12318851,12.805034,11.645285,29.793802,-11.580431,8.164408,-23.741423,60.517487,-2.2925553,-6.074698,1.800352,-58.27298,-32.885544,33.547935,72.47806,-7.143205,-5.8020782,-4.352694
199,-0.4940387010574341,16.230039596557617,73.73745727539062,1.6609186760393042,29.704990431462058,-87.37761234322483,-57.001415,2.2830503,8.165817,30.068632,-3.328723,1.5723988,-58.75314,-5.552329,-5.038127,34.653408,-6.905514,0.09810657,13.088393,11.843158,29.793802,-11.717752,7.9305997,-24.180025,61.04157,-2.2661154,-6.0288577,1.669927,-59.10945,-33.49342,33.81552,72.735855,-6.8819165,-5.9464955,-4.3449497
200,-0.4933430850505829,16.27960205078125,73.50853729248047,1.9046589975695818,30.268693974605206,-87.1441540844916,-58.032284,2.0954747,8.236699,30.695005,-3.4862974,1.6200734,-60.013664,-5.837131,-4.905418,35.77302,-7.3176584,0.06860738,13.366776,12.052301,29.793802,-11.854327,7.699923,-24.625408,61.551018,-2.2569764,-5.9944954,1.5355718,-59.92332,-34.111965,34.03683,72.97082,-6.635792,-6.0775933,-4.359428
201,-0.4899587035179138,16.314197540283203,73.28005981445312,2.174989087980032,30.811573121486685,-86.87177520697622,-59.026287,1.8781009,8.299293,31.293852,-3.6281784,1.6468948,-61.248333,-6.148024,-4.7735987,36.901283,-7.740019,0.029911922,13.638484,12.270144,29.793802,-11.994068,7.4691095,-25.083508,62.051495,-2.2649763,-5.971593,1.392879,-60.7111,-34.743053,34.19306,73.18131,-6.404119,-6.1809883,-4.401313
202,-0.5018399953842163,16.356304168701172,73.0503158569336,2.4744375798882636,31.3402063716265,-86.56009399821603,-59.98735,1.630214,8.3599205,31.856886,-3.7521749,1.6551241,-62.465538,-6.4860883,-4.6382074,38.036346,-8.172306,-0.015109118,13.897763,12.4902725,29.793802,-12.134683,7.2378435,-25.550251,62.54201,-2.2774343,-5.950483,1.2401469,-61.474247,-35.3888,34.29468,73.36566,-6.1911864,-6.2629714,-4.4581842
203,-0.5156984329223633,16.387239456176758,72.82520294189453,2.782309832770453,31.85766636454506,-86.22508250015825,-60.930573,1.3718749,8.41314,32.407696,-3.8714752,1.6573551,-63.655815,-6.8321643,-4.5076823,39.15159,-8.603656,-0.059407223,14.153306,12.724668,29.793802,-12.273504,7.0078917,-26.016077,63.01481,-2.3029907,-5.938649,1.0896636,-62.229145,-36.05452,34.403687,73.5408,-5.9711876,-6.3563643,-4.52772
204,-0.5371612310409546,16.412593841552734,72.60103607177734,3.07629783123249,32.36729308246044,-85.88396214376172,-61.868156,1.1231483,8.45293,32.965065,-3.9971297,1.6664419,-64.80883,-7.1691513,-4.391478,40.22006,-9.023084,-0.09549241,14.415509,12.987515,29.793802,-12.409601,6.7811704,-26.474054,63.462547,-2.3517585,-5.943517,0.9538103,-62.987736,-36.74493,34.572975,73.719765,-5.72319,-6.4935236,-4.6073546
205,-0.5497465133666992,16.43874740600586,72.37728881835938,3.3553230717908056,32.87047814338431,-85.53083356796063,-62.80291,0.8813504,8.475027,33.529285,-4.129472,1.6856722,-65.92251,-7.4990377,-4.2953253,41.23762,-9.4312725,-0.12003314,14.681325,13.28568,29.793802,-12.545175,6.558728,-26.92389,63.882183,-2.4385812,-5.968818,0.83241475,-63.755024,-37.462997,34.819305,73.903145,-5.432955,-6.690782,-4.7124915
206,-0.5563467144966125,16.45054054260254,72.15863800048828,3.6288824737170278,33.36517404790596,-85.16069570413943,-63.728386,0.63858163,8.482939,34.091778,-4.2630477,1.7081102,-67.00327,-7.8315754,-4.2134485,42.220264,-9.834514,-0.13744202,14.949232,13.612067,29.793802,-12.680762,6.3396006,-27.369986,64.277435,-2.5539289,-6.0098705,0.7200293,-64.527824,-38.208725,35.119328,74.0831,-5.1081567,-6.9283104,-4.837809
207,-0.5650067925453186,16.459989547729492,71.93697357177734,3.890080668152841,33.84960464614123,-84.79238713795759,-64.64387,0.40687814,8.482074,34.661198,-4.403025,1.7316015,-68.05041,-8.151508,-4.1407948,43.16646,-10.226688,-0.15214884,15.232965,13.961394,29.793802,-12.815366,6.121956,-27.816198,64.65279,-2.6732888,-6.061579,0.6205363,-65.29808,-38.97908,35.438263,74.257126,-4.786374,-7.1860905,-4.950003
208,-0.5825642347335815,16.470735549926758,71.71524810791016,4.131670159196193,34.32217983449311,-84.44516569695668,-65.546814,0.19811006,8.477763,35.242252,-4.551445,1.754315,-69.063835,-8.445218,-4.072413,44.076225,-10.60091,-0.16837417,15.543828,14.326907,29.793802,-12.947793,5.904444,-28.262556,65.01315,-2.7715476,-6.1191683,0.53833205,-66.06199,-39.770527,35.750816,74.42151,-4.4983015,-7.439444,-5.0162897
209,-0.5926818251609802,16.479196548461914,71.4965591430664,4.349088442763412,34.7804733766401,-84.12000214041697,-66.43865,0.012955192,8.464237,35.842373,-4.7085347,1.7765265,-70.03876,-8.712736,-4.012179,44.948273,-10.960067,-0.18855073,15.881007,14.715677,29.793802,-13.076371,5.6865683,-28.709036,65.35382,-2.827154,-6.1826353,0.4798634,-66.824524,-40.583206,36.04682,74.58127,-4.252043,-7.6921825,-5.0069394
210,-0.6061018109321594,16.485204696655273,71.28265380859375,4.545613862162579,35.226076376505006,-83.8094511989604,-67.31932,-0.15423411,8.440375,36.456,-4.8728194,1.7992028,-70.97647,-8.960634,-3.9622238,45.784588,-11.305347,-0.2096725,16.239233,15.128093,29.793802,-13.203378,5.469399,-29.154118,65.6753,-2.857924,-6.25446,0.44156796,-67.59213,-41.419228,36.35189,74.73843,-4.021773,-7.9527926,-4.946499
211,-0.6130146384239197,16.47132110595703,71.07770538330078,4.725397163880291,35.6631949468938,-83.52025438671045,-68.18623,-0.3005826,8.417573,37.0751,-5.0477324,1.8212073,-71.885254,-9.185717,-3.9149938,46.586468,-11.6360855,-0.22742711,16.622404,15.54998,29.793802,-13.331714,5.252838,-29.597929,65.98898,-2.8983593,-6.333343,0.41256183,-68.35009,-42.273563,36.655212,74.88574,-3.8227217,-8.206713,-4.8854628
212,-0.6282565593719482,16.47397804260254,70.86962127685547,4.893013424434756,36.09643650120666,-83.25907144939602,-69.039894,-0.42242894,8.407319,37.6966,-5.2400923,1.8411971,-72.77495,-9.387824,-3.862014,47.357986,-11.952685,-0.23731346,17.032425,15.963005,29.793802,-13.463479,5.0384593,-30.037302,66.30666,-2.9827046,-6.417981,0.38230708,-69.09981,-43.13966,36.988014,75.024055,-3.634857,-8.440403,-4.8741155
213,-0.6278896927833557,16.45881462097168,70.66634368896484,5.043807736269129,36.52614144534936,-83.03800441304965,-69.87615,-0.5114829,8.415487,38.31873,-5.4553466,1.8581945,-73.642395,-9.556627,-3.8009489,48.09017,-12.24959,-0.23475818,17.476917,16.3651,29.793802,-13.596417,4.8256273,-30.470308,66.63187,-3.1337361,-6.517882,0.34828693,-69.84175,-44.011036,37.353043,75.15875,-3.490954,-8.644886,-4.920722
214,-0.6291456818580627,16.442176818847656,70.46289825439453,5.1761714643634535,36.95064408168351,-82.85143318803605,-70.696365,-0.5718192,8.43438,38.94364,-5.68935,1.8733528,-74.48471,-9.697882,-3.7367008,48.785168,-12.5287485,-0.2226725,17.948421,16.761877,29.793802,-13.729156,4.6152887,-30.893991,66.958824,-3.328126,-6.6305847,0.31661847,-70.591515,-44.885605,37.764194,75.297745,-3.3683221,-8.830026,-5.001274
215,-0.6370068788528442,16.427595138549805,70.2640151977539,5.300166394095421,37.371009263458234,-82.67837039506303,-71.50672,-0.6187607,8.455484,39.569477,-5.9298987,1.8887681,-75.311,-9.824891,-3.6729102,49.461952,-12.8011675,-0.20828475,18.42717,17.151817,29.793802,-13.864618,4.409215,-31.308817,67.28346,-3.5326812,-6.736467,0.2882921,-71.3397,-45.75557,38.16737,75.43078,-3.2567465,-9.008956,-5.1186705
216,-0.6495088338851929,16.410242080688477,70.06031799316406,5.4267971642854835,37.788586314151395,-82.49730174528982,-72.313385,-0.66762877,8.471058,40.19487,-6.165796,1.9062045,-76.13028,-9.953254,-3.6121294,50.137215,-13.076857,-0.19869523,18.891752,17.529669,29.793802,-14.003952,4.2117543,-31.713516,67.60067,-3.71476,-6.815802,0.26471782,-72.07817,-46.612076,38.520794,75.55028,-3.132259,-9.195388,-5.2755
217,-0.6689909100532532,16.388643264770508,69.85603332519531,5.55290221654978,38.204326035037035,-82.30917104587118,-73.12117,-0.71545,8.477042,40.825294,-6.3960648,1.9300468,-76.94242,-10.080695,-3.557527,50.81056,-13.355866,-0.19563028,19.34042,17.892653,29.793802,-14.144934,4.027841,-32.112663,67.90771,-3.86969,-6.858011,0.25098062,-72.81172,-47.44958,38.8336,75.66798,-3.0047293,-9.386587,-5.4756465
218,-0.6811034679412842,16.363651275634766,69.65055084228516,5.675023233633419,38.6178091207776,-82.12349765174758,-73.925026,-0.75688016,8.47872,41.457424,-6.6250305,1.9580307,-77.74328,-10.200954,-3.5066316,51.47255,-13.63265,-0.19511908,19.77936,18.239883,29.793802,-14.282639,3.8589597,-32.50164,68.20212,-4.0136204,-6.8751974,0.24436063,-73.53769,-48.26347,39.097355,75.7849,-2.905079,-9.577329,-5.7174535
219,-0.6906591057777405,16.333396911621094,69.44685363769531,5.805129561612292,39.02964356864374,-81.93049607386766,-74.72187,-0.80288124,8.482918,42.082695,-6.8504553,1.9814025,-78.54102,-10.324324,-3.4516313,52.13456,-13.911951,-0.19630006,20.197517,18.562828,29.793802,-14.414992,3.7077074,-32.866146,68.4843,-4.1474133,-6.881513,0.23517333,-74.25814,-49.051716,39.338036,75.88967,-2.7543926,-9.779336,-5.9939632
220,-0.7041938304901123,16.30348777770996,69.24250793457031,5.954884153224982,39.43968936467699,-81.72058564379677,-75.50549,-0.8634629,8.496496,42.68529,-7.071086,1.9916481,-79.343,-10.460946,-3.384838,52.806652,-14.198164,-0.19841595,20.584469,18.856129,29.793802,-14.539425,3.5747988,-33.19153,68.75265,-4.2703714,-6.891394,0.21309152,-74.96392,-49.809536,39.530468,75.96515,-2.5226276,-10.003846,-6.298084
221,-0.7128344178199768,16.270334243774414,69.03221130371094,6.129690368864615,39.85722601332178,-81.49431110599663,-76.28313,-0.9378405,8.5256605,43.262424,-7.286256,1.9803029,-80.16142,-10.611324,-3.3010235,53.488827,-14.488719,-0.20175946,20.93461,19.106644,29.793802,-14.654322,3.464075,-33.460617,69.0041,-4.386372,-6.9044676,0.17157033,-75.6616,-50.532867,39.685783,76.01181,-2.1442602,-10.258777,-6.6459126
222,-0.7259882092475891,16.232608795166016,68.82450866699219,6.323909864010261,40.2799207816447,-81.25493070624165,-77.056206,-1.0206057,8.565969,43.82199,-7.497676,1.9537458,-80.99084,-10.769781,-3.2037117,54.177086,-14.7821665,-0.20637788,21.250357,19.317068,29.793802,-14.757546,3.3773408,-33.68249,69.23731,-4.494321,-6.9142466,0.11707741,-76.35389,-51.217873,39.809547,76.04222,-1.6586876,-10.538411,-7.0345616
223,-0.7374584078788757,16.198877334594727,68.62115478515625,6.533766021847619,40.69035017205729,-80.99602630000433,-77.81077,-1.1177067,8.610267,44.367607,-7.703578,1.9271461,-81.80957,-10.940558,-3.1003125,54.871582,-15.084202,-0.21212952,21.534397,19.507357,29.793802,-14.84853,3.3103995,-33.8846,69.457596,-4.588171,-6.925857,0.058872104,-77.02181,-51.86221,39.865765,76.056786,-1.1932489,-10.833131,-7.428434
224,-0.7539452910423279,16.160633087158203,68.4175796508789,6.75523710723919,41.071543208753425,-80.7114887393323,-78.535805,-1.2323136,8.648813,44.90965,-7.9052725,1.9129955,-82.59867,-11.125585,-2.9950135,55.57601,-15.401471,-0.21711111,21.788956,19.690361,29.793802,-14.930125,3.2599514,-34.090637,69.67652,-4.6598763,-6.9447184,0.008333758,-77.671036,-52.474342,39.9292,76.06571,-0.7704367,-11.135203,-7.7925844
225,-0.768040657043457,16.124914169311523,68.21762084960938,6.994564143323596,41.419515601905786,-80.39372220567027,-79.22589,-1.3728237,8.684214,45.440586,-8.096663,1.9247829,-83.355354,-11.332985,-2.885975,56.290657,-15.737326,-0.21936157,22.012999,19.874794,29.793802,-15.004289,3.21833,-34.312096,69.898224,-4.691253,-6.970283,-0.030198425,-78.28654,-53.05588,39.933273,76.06253,-0.45121834,-11.434024,-8.089358
226,-0.7838554382324219,16.08479118347168,68.01578521728516,7.251145662832868,41.742620468168724,-80.04802892842278,-79.888405,-1.5352222,8.718845,45.960083,-8.279701,1.9512177,-84.09002,-11.558591,-2.7704072,57.014896,-16.087671,-0.22001995,22.20887,20.055695,29.793802,-15.074986,3.182862,-34.53655,70.12283,-4.6908216,-7.0007653,-0.06235294,-78.863174,-53.608273,39.848858,76.042336,-0.21968192,-11.736128,-8.346591
227,-0.7994885444641113,16.038818359375,67.8155517578125,7.510198437188752,42.041223358039986,-79.6881822558055,-80.52743,-1.7050008,8.7473345,46.479652,-8.463821,1.9723397,-84.797806,-11.790648,-2.6579013,57.744267,-16.447437,-0.22586706,22.3837,20.231901,29.793802,-15.144639,3.1568527,-34.75621,70.3509,-4.693874,-7.039822,-0.09428453,-79.419556,-54.14063,39.79092,76.00842,-0.0026201627,-12.050129,-8.627879
228,-0.8188467621803284,15.989157676696777,67.61769104003906,7.755111381235591,42.3155476913394,-79.32900031612562,-81.1459,-1.8722192,8.763386,47.008816,-8.656881,1.9682717,-85.47341,-12.021559,-2.558728,58.47466,-16.811916,-0.24377115,22.548876,20.418186,29.793802,-15.212242,3.138603,-34.97222,70.57354,-4.737808,-7.0906425,-0.13488613,-79.95182,-54.65426,39.742435,75.95698,0.14262845,-12.382841,-8.995808
229,-0.835943341255188,15.943743705749512,67.41705322265625,7.983690910147303,42.56133918681571,-78.96637514732265,-81.7417,-2.0389233,8.763224,47.550224,-8.860491,1.9260277,-86.11349,-12.254441,-2.4767008,59.21229,-17.183956,-0.27876872,22.704082,20.623915,29.793802,-15.281641,3.1275566,-35.191174,70.79283,-4.8378844,-7.161516,-0.19359441,-80.460175,-55.15174,39.700474,75.88935,0.18776286,-12.736075,-9.464898
230,-0.8544865846633911,15.89818000793457,67.21871185302734,8.202701862328974,42.77980658675879,-78.59601308964321,-82.31433,-2.208817,8.750604,48.099102,-9.070583,1.8587787,-86.72126,-12.493831,-2.4063666,59.956833,-17.56559,-0.32728937,22.847439,20.84706,29.793802,-15.352364,3.1212769,-35.416435,71.00977,-4.974287,-7.2480683,-0.2647148,-80.93562,-55.63241,39.617302,75.80189,0.11166732,-13.104327,-10.002786
231,-0.8757302761077881,15.852062225341797,67.02253723144531,8.409669878743246,42.97962011392512,-78.23267148031965,-82.86803,-2.3744292,8.731159,48.65295,-9.287359,1.7858474,-87.30076,-12.727285,-2.3431604,60.693447,-17.947512,-0.3803614,22.982475,21.064201,29.793802,-15.4210205,3.1217344,-35.62799,71.22439,-5.12453,-7.3348246,-0.32988754,-81.38453,-56.100925,39.566536,75.6901,0.026409436,-13.484874,-10.60407
232,-0.8938853740692139,15.802881240844727,66.8318862915039,8.601787490410647,43.16969413663647,-77.8908143644137,-83.40744,-2.5253136,8.70978,49.21101,-9.511689,1.7267612,-87.85649,-12.94336,-2.28423,61.409115,-18.322332,-0.43127188,23.115398,21.265394,29.793802,-15.481106,3.126521,-35.814415,71.428955,-5.269501,-7.4061418,-0.37329534,-81.80058,-56.55414,39.52175,75.54812,-0.059300527,-13.874472,-11.261771
233,-0.9154855012893677,15.75191879272461,66.64112854003906,8.776544578281404,43.35252951114827,-77.57543800797148,-83.934814,-2.6567855,8.685163,49.775368,-9.74598,1.68673,-88.38982,-13.139354,-2.2291985,62.102196,-18.689877,-0.4792806,23.2468,21.449585,29.793802,-15.531255,3.1332846,-35.967274,71.62372,-5.3978887,-7.455243,-0.3852991,-82.169815,-56.986744,39.428917,75.36847,-0.18153201,-14.289113,-12.002531
234,-0.9311217665672302,15.696273803710938,66.45758819580078,8.934594083592186,43.52361079226716,-77.27939064941945,-84.44747,-2.7767522,8.655019,50.34607,-9.989038,1.655506,-88.89745,-13.320515,-2.1808746,62.77883,-19.0537,-0.52795047,23.375366,21.629173,29.793802,-15.57494,3.1396198,-36.098118,71.81073,-5.52286,-7.4915442,-0.3771607,-82.48085,-57.393265,39.22426,75.151566,-0.4232256,-14.722397,-12.821681
235,-0.9485744833946228,15.64195728302002,66.27345275878906,9.079477139189757,43.68116784699503,-76.99869027719807,-84.94176,-2.8874986,8.622561,50.917202,-10.235415,1.6287661,-89.378944,-13.491516,-2.1378965,63.43891,-19.41136,-0.5759061,23.497883,21.793291,29.793802,-15.615727,3.1496692,-36.21051,71.995804,-5.6573734,-7.524206,-0.3601349,-82.7566,-57.780556,39.035458,74.9113,-0.67398494,-15.139297,-13.667567
236,-0.9694289565086365,15.582600593566895,66.09249114990234,9.214312328454211,43.82345304729372,-76.7294099110562,-85.41429,-2.9920845,8.590751,51.483097,-10.479979,1.6022378,-89.83378,-13.658826,-2.0987227,64.083015,-19.760973,-0.6214212,23.612288,21.938358,29.793802,-15.654771,3.166854,-36.314247,72.177795,-5.817808,-7.56202,-0.34729508,-83.035416,-58.157562,38.996452,74.66889,-0.8303077,-15.505132,-14.486235
237,-0.9839255213737488,15.52910041809082,65.91389465332031,9.33288104686652,43.946268358340774,-76.47232798920356,-85.86578,-3.0910966,8.555514,52.052372,-10.72499,1.5761362,-90.25598,-13.820915,-2.07006,64.712616,-20.102694,-0.665039,23.733862,22.118196,29.793802,-15.687579,3.1727822,-36.436527,72.33163,-6.038617,-7.6070237,-0.35061613,-83.24159,-58.49923,38.706055,74.396645,-1.2701962,-15.816371,-15.273511
