liuchenxu125/GMR/soma-retargeter/assets/motions/csv/wave_R_001__A428.csv
Frame,root_translateX,root_translateY,root_translateZ,root_rotateX,root_rotateY,root_rotateZ,left_hip_pitch_joint_dof,left_hip_roll_joint_dof,left_hip_yaw_joint_dof,left_knee_joint_dof,left_ankle_pitch_joint_dof,left_ankle_roll_joint_dof,right_hip_pitch_joint_dof,right_hip_roll_joint_dof,right_hip_yaw_joint_dof,right_knee_joint_dof,right_ankle_pitch_joint_dof,right_ankle_roll_joint_dof,waist_yaw_joint_dof,waist_roll_joint_dof,waist_pitch_joint_dof,left_shoulder_pitch_joint_dof,left_shoulder_roll_joint_dof,left_shoulder_yaw_joint_dof,left_elbow_joint_dof,left_wrist_roll_joint_dof,left_wrist_pitch_joint_dof,left_wrist_yaw_joint_dof,right_shoulder_pitch_joint_dof,right_shoulder_roll_joint_dof,right_shoulder_yaw_joint_dof,right_elbow_joint_dof,right_wrist_roll_joint_dof,right_wrist_pitch_joint_dof,right_wrist_yaw_joint_dof
0,0.23939749598503113,1.8140878677368164,77.48670196533203,0.21381085619822257,-1.300610526689744,-91.52041705789473,3.7563498,4.7127137,7.7874045,10.276387,-11.570239,-4.3863354,5.8852963,-8.08828,-19.14401,9.679456,-14.316792,8.399608,-3.415905,-0.5033073,10.804481,-1.4908161,15.83792,-38.159573,49.92992,11.320444,3.2655802,-0.10037913,-5.3150444,-8.516096,28.727385,57.00027,-11.119764,-3.874386,-3.3258898
1,0.2419164627790451,1.807018756866455,77.47831726074219,0.20832132923539326,-1.2971660822315092,-91.53415317870935,3.6247346,4.730221,7.7748766,10.553179,-11.713615,-4.373553,5.8968353,-8.08062,-19.126066,9.637141,-14.320473,8.430266,-3.4231808,-0.5046562,10.839484,-1.4541421,15.853148,-38.07777,49.828114,11.374087,3.24985,-0.14668943,-5.345962,-8.512664,28.673935,56.996113,-11.151603,-3.8649182,-3.3472056
2,0.24686580896377563,1.8074220418930054,77.46678924560547,0.2016868905965629,-1.2964532710295582,-91.55250951163542,3.499634,4.7487087,7.7653337,10.82381,-11.853848,-4.365314,5.908715,-8.0714245,-19.10094,9.595634,-14.324231,8.458243,-3.438222,-0.51036525,10.888061,-1.4051383,15.88608,-37.96045,49.703815,11.449489,3.2326095,-0.2074446,-5.390011,-8.50593,28.624376,56.991947,-11.19106,-3.8553424,-3.365179
3,0.26058992743492126,1.8125571012496948,77.45578002929688,0.194661531308017,-1.2906309486443444,-91.56175636152575,3.360617,4.765429,7.749624,11.11036,-12.002456,-4.347502,5.9200053,-8.065985,-19.089891,9.552962,-14.327774,8.4916935,-3.4561567,-0.5129934,10.920876,-1.3622124,15.905328,-37.871906,49.595814,11.498407,3.21441,-0.25065574,-5.422325,-8.502816,28.573648,56.9879,-11.221998,-3.8469439,-3.384439
4,0.27405086159706116,1.8152660131454468,77.44501495361328,0.18796455432590248,-1.2725495864401248,-91.54807476808774,3.1882827,4.777622,7.718645,11.43505,-12.1712675,-4.306297,5.9332056,-8.068656,-19.114582,9.500893,-14.327144,8.538655,-3.5129511,-0.5161307,10.939161,-1.2880914,15.936212,-37.778797,49.451088,11.514494,3.1914847,-0.2724384,-5.4585257,-8.499624,28.519464,56.98996,-11.251525,-3.8446424,-3.3950546
5,0.2933890223503113,1.8159207105636597,77.43492126464844,0.18023342429301126,-1.2343797882717633,-91.50354155630038,2.9626791,4.7873254,7.6668878,11.819761,-12.3719635,-4.235234,5.9455476,-8.078369,-19.19027,9.434521,-14.322023,8.601053,-3.6097882,-0.5158864,10.92539,-1.1896206,15.965372,-37.708595,49.286037,11.460223,3.161902,-0.2455436,-5.4881597,-8.498791,28.460358,57.000587,-11.279726,-3.8510427,-3.3943565
6,0.31580424308776855,1.8043200969696045,77.42469024658203,0.1707875058970845,-1.182284912906431,-91.43701979455508,2.7010722,4.7944756,7.600307,12.243312,-12.592887,-4.1432495,5.9595256,-8.092549,-19.302578,9.353115,-14.310881,8.674528,-3.7383535,-0.51668817,10.8972845,-1.0565089,16.0183,-37.64385,49.07197,11.358648,3.1279745,-0.19000132,-5.5155063,-8.500094,28.394676,57.0096,-11.309944,-3.8644469,-3.382446
7,0.34403711557388306,1.7844035625457764,77.4174575805664,0.16376094011706502,-1.1284433888852958,-91.3596418972011,2.4347117,4.7926655,7.527032,12.672514,-12.816507,-4.038852,5.9730096,-8.1173315,-19.427088,9.282001,-14.303855,8.75786,-3.876337,-0.520077,10.8641405,-0.90855664,16.086681,-37.59763,48.835464,11.247907,3.0950627,-0.13601455,-5.5331755,-8.5062275,28.323921,57.0103,-11.326089,-3.8780727,-3.3737438
8,0.3775523602962494,1.7566760778427124,77.40869140625,0.1620775363395534,-1.0851521709579302,-91.28248812860488,2.1974344,4.7758617,7.45534,13.069989,-13.023473,-3.9303327,5.9892735,-8.156845,-19.539982,9.234405,-14.304135,8.849827,-4.004425,-0.5266711,10.836936,-0.76802576,16.154787,-37.572136,48.609417,11.174244,3.067632,-0.11614073,-5.5416718,-8.52081,28.24837,57.002254,-11.314582,-3.885627,-3.3808002
9,0.4148652255535126,1.7349952459335327,77.39962005615234,0.16269429696337806,-1.0530846934392177,-91.20323524588109,1.9861066,4.7459807,7.3834586,13.443629,-13.214076,-3.8162153,6.0160427,-8.206828,-19.640676,9.196765,-14.304938,8.95176,-4.1245975,-0.5320681,10.8145075,-0.6384292,16.219284,-37.568718,48.398846,11.154143,3.0467465,-0.14973924,-5.535903,-8.545775,28.169117,56.97622,-11.258375,-3.8829052,-3.4148908
10,0.45890864729881287,1.7158221006393433,77.39092254638672,0.16454438490156717,-1.0265129332487093,-91.11763635486511,1.7882222,4.705148,7.3084617,13.804589,-13.395351,-3.693124,6.0513062,-8.266046,-19.740387,9.163112,-14.304351,9.063822,-4.246828,-0.5349585,10.788239,-0.5193484,16.269386,-37.583458,48.211166,11.16559,3.0290797,-0.21429217,-5.5225444,-8.575579,28.088448,56.94648,-11.169164,-3.874131,-3.467896
11,0.5088992118835449,1.6817941665649414,77.38409423828125,0.1737878489733642,-1.0081583079868444,-91.03406195752153,1.6156522,4.6486254,7.2360563,14.135847,-13.566436,-3.5661018,6.0755124,-8.345946,-19.831625,9.177495,-14.324434,9.183321,-4.3534427,-0.5432495,10.773162,-0.4015379,16.329592,-37.622078,48.014385,11.184945,3.0150058,-0.28426415,-5.4909215,-8.625816,27.994278,56.895123,-11.076801,-3.8654954,-3.5163836
12,0.5660514831542969,1.6588280200958252,77.37413787841797,0.1934043078733742,-1.0008478358760589,-90.96083900518168,1.4875996,4.5705385,7.172816,14.40586,-13.718484,-3.4398506,6.071813,-8.457216,-19.907583,9.276631,-14.38199,9.307844,-4.4407845,-0.5640444,10.769582,-0.29596865,16.379866,-37.67614,47.836044,11.198795,3.0026653,-0.32966122,-5.4562063,-8.685962,27.889688,56.853386,-11.013756,-3.862953,-3.5445771
13,0.6251940727233887,1.6307568550109863,77.36323547363281,0.22410547902348354,-1.0083904854779286,-90.90626829635447,1.4089197,4.473529,7.1245847,14.616217,-13.854992,-3.3136837,6.0425034,-8.597548,-19.963398,9.458129,-14.476795,9.436668,-4.49493,-0.59713215,10.785498,-0.20610692,16.42002,-37.75387,47.677837,11.195897,2.989633,-0.3310426,-5.416299,-8.760388,27.773045,56.816456,-10.989975,-3.871006,-3.5436387
14,0.6951776146888733,1.608223795890808,77.34910583496094,0.2629967230530126,-1.0283158012744473,-90.86398017810212,1.3717415,4.358586,7.0868134,14.776075,-13.97638,-3.1853917,5.995201,-8.763114,-20.003773,9.704221,-14.599742,9.571371,-4.522528,-0.63801354,10.816298,-0.13149023,16.449818,-37.856125,47.53809,11.187156,2.9770167,-0.30728218,-5.364445,-8.852664,27.643938,56.773598,-10.987888,-3.885349,-3.5237525
15,0.7695553302764893,1.5779839754104614,77.33424377441406,0.3139214593036422,-1.0535942358204566,-90.82000046342272,1.366108,4.2207355,7.0487833,14.88513,-14.080683,-3.0580187,5.9191217,-8.962352,-20.035852,10.034252,-14.759123,9.71301,-4.542831,-0.6888097,10.84884,-0.06861827,16.468,-37.971786,47.41545,11.188845,2.9695852,-0.28763297,-5.3020725,-8.9575405,27.499794,56.732258,-10.997372,-3.8987901,-3.4951496
16,0.8573177456855774,1.544044852256775,77.31997680664062,0.37851398871275593,-1.0774702043532898,-90.76071150009356,1.3849255,4.0534005,7.000435,14.937599,-14.162537,-2.9345553,5.8060474,-9.203771,-20.066675,10.461591,-14.959877,9.862931,-4.5727406,-0.7522208,10.871135,-0.012915732,16.476807,-38.091507,47.303944,11.216332,2.972129,-0.30177298,-5.2278724,-9.071974,27.33574,56.69522,-11.007406,-3.9041862,-3.4670532
17,0.9507286548614502,1.5060796737670898,77.3023910522461,0.45566480377042407,-1.0965658880513496,-90.6815693384958,1.431855,3.8545308,6.939746,14.9190445,-14.217806,-2.8165855,5.658061,-9.487262,-20.095232,10.979431,-15.202226,10.023935,-4.617461,-0.82887757,10.875401,0.038448792,16.478622,-38.221027,47.19944,11.278064,2.9939466,-0.37062442,-5.1413918,-9.194117,27.158987,56.668823,-11.017548,-3.8977847,-3.4386966
18,1.04916512966156,1.4601441621780396,77.2840347290039,0.5486215455322468,-1.1151226684086735,-90.59043288341857,1.5094565,3.626514,6.8720565,14.835938,-14.249998,-2.7023454,5.478748,-9.809735,-20.118261,11.582153,-15.483196,10.194792,-4.6678567,-0.91915965,10.869358,0.084706135,16.474384,-38.36186,47.102818,11.364345,3.0297494,-0.47451067,-5.04416,-9.323028,26.969227,56.650864,-11.033154,-3.8842075,-3.4063785
19,1.1521968841552734,1.4178451299667358,77.26044464111328,0.6565710761863651,-1.1370736563664734,-90.49187764615066,1.6123005,3.3698075,6.79827,14.707951,-14.262068,-2.5895283,5.2590027,-10.176904,-20.138168,12.292842,-15.80408,10.370755,-4.7206006,-1.0265604,10.863431,0.12367052,16.464256,-38.498615,47.017506,11.462693,3.0627644,-0.58147746,-4.9409165,-9.457792,26.751318,56.635643,-11.052796,-3.8685834,-3.3757398
20,1.2655144929885864,1.3717316389083862,77.23538970947266,0.7823649275224895,-1.1662627743939544,-90.39071985359725,1.7312901,3.0842605,6.7193255,14.562061,-14.261376,-2.4755788,4.997944,-10.592279,-20.15853,13.116211,-16.163322,10.547487,-4.772213,-1.1548728,10.86798,0.15309092,16.44793,-38.615936,46.947212,11.560394,3.0761437,-0.65951896,-4.8362136,-9.596867,26.49045,56.6171,-11.074426,-3.8561914,-3.3523428
21,1.3826463222503662,1.3166399002075195,77.2081527709961,0.932254364725248,-1.195809528550004,-90.28937251650261,1.8652402,2.7623606,6.635872,14.387676,-14.240372,-2.3629663,4.6922626,-11.062226,-20.189365,14.043502,-16.575039,10.722494,-4.822564,-1.3094479,10.874092,0.17922541,16.424353,-38.707355,46.89262,11.662495,3.0588868,-0.69200754,-4.726398,-9.737138,26.184956,56.593662,-11.09094,-3.8358614,-3.339286
22,1.5007013082504272,1.2670751810073853,77.17841339111328,1.104270529341824,-1.2260281097939627,-90.18509807373678,2.020176,2.4052715,6.5471816,14.173714,-14.196988,-2.2519057,4.3474,-11.58295,-20.224714,15.066441,-17.031773,10.898716,-4.873558,-1.4886009,10.878767,0.20121795,16.393427,-38.78124,46.853207,11.773522,3.0222583,-0.6985587,-4.613013,-9.877736,25.84246,56.572308,-11.106047,-3.8091285,-3.3334875
23,1.6290853023529053,1.2174322605133057,77.14579772949219,1.2900117076054622,-1.2720231703433655,-90.07513897754848,2.197754,2.025812,6.452112,13.945598,-14.146286,-2.1361926,3.959055,-12.148991,-20.241112,16.225277,-17.50635,11.079831,-4.9242,-1.6858392,10.901841,0.20449223,16.356737,-38.845642,46.83046,11.878339,2.9829192,-0.70159155,-4.5058,-10.021838,25.460758,56.556625,-11.134332,-3.799879,-3.3311577
24,1.7643887996673584,1.1812776327133179,77.10657501220703,1.4818771362349266,-1.3487173115711906,-89.95694706733049,2.4069471,1.6348195,6.3501763,13.712902,-14.095028,-2.0093565,3.5316827,-12.751852,-20.216297,17.539955,-17.965364,11.269702,-4.972318,-1.8944243,10.964194,0.17589018,16.316814,-38.908657,46.82243,11.962297,2.9575424,-0.7240252,-4.408946,-10.173717,25.035711,56.542847,-11.19155,-3.831794,-3.3275936
25,1.9006706476211548,1.1492918729782104,77.06523895263672,1.6855143370153272,-1.4609045364914959,-89.83279365469689,2.653159,1.2236502,6.2433906,13.47187,-14.04191,-1.8687655,3.0678854,-13.40062,-20.145346,19.016655,-18.429317,11.473396,-5.013804,-2.1206632,11.073406,0.11821883,16.273869,-38.963184,46.821774,12.035028,2.95304,-0.77147746,-4.318355,-10.335445,24.556196,56.522774,-11.291962,-3.8914793,-3.3015027
26,2.0385053157806396,1.117203950881958,77.02159118652344,1.9025659977226237,-1.6002061978307582,-89.70330872363058,2.9304142,0.78947496,6.130567,13.220218,-13.984893,-1.7179607,2.5695353,-14.094403,-20.038506,20.630861,-18.900763,11.687505,-5.0496626,-2.3660138,11.21828,0.036885016,16.22788,-39.009003,46.829327,12.099262,2.9596949,-0.83217585,-4.2308774,-10.507471,24.027208,56.496426,-11.422963,-3.972734,-3.2613685
27,2.1875,1.0835809707641602,76.978515625,2.120344279207525,-1.7620212033390756,-89.56360819359985,3.2334466,0.35095358,6.0068007,12.960995,-13.92427,-1.5595948,2.0302522,-14.812697,-19.893763,22.378292,-19.321575,11.903811,-5.0855317,-2.6173198,11.391208,-0.0769893,16.182255,-39.06374,46.85442,12.130688,2.9693294,-0.902923,-4.151924,-10.692525,23.468555,56.471817,-11.560348,-4.1105742,-3.2472332
28,2.332108736038208,1.049591064453125,76.93729400634766,2.3253642857750934,-1.9418360404852442,-89.40873961890038,3.549804,-0.072916985,5.8675976,12.712719,-13.869217,-1.3963039,1.4400507,-15.535973,-19.708069,24.262552,-19.637491,12.114042,-5.1269083,-2.861612,11.585653,-0.23018208,16.142422,-39.14495,46.902374,12.104855,2.9741116,-0.98066366,-4.0859075,-10.894722,22.90077,56.455235,-11.678505,-4.3396516,-3.299088
29,2.4732978343963623,1.023202896118164,76.8989028930664,2.5147377839611895,-2.1442785170347234,-89.23589608240059,3.8822289,-0.48279095,5.7103505,12.476405,-13.821957,-1.2169242,0.7956887,-16.266788,-19.480555,26.306547,-19.849133,12.324,-5.176229,-3.096129,11.809267,-0.42790905,16.112818,-39.26313,46.96684,11.981565,2.9696245,-1.0742428,-4.0294833,-11.118884,22.336393,56.4487,-11.770955,-4.6943727,-3.443394
30,2.6178946495056152,0.9878199696540833,76.8630599975586,2.6948364003652507,-2.369931521851621,-89.04818067207613,4.23383,-0.8861247,5.537395,12.247408,-13.779885,-1.024455,0.10751723,-17.00811,-19.211987,28.488024,-19.976665,12.536636,-5.230181,-3.3272445,12.064503,-0.66107625,16.094555,-39.40652,47.03835,11.784335,2.9611664,-1.1828008,-3.977692,-11.366063,21.762466,56.44234,-11.851253,-5.147624,-3.6529288
31,2.7664124965667725,0.9522931575775146,76.82525634765625,2.867469816682607,-2.6080293181125995,-88.84959688173899,4.60003,-1.2764671,5.353379,12.018834,-13.735454,-0.8409418,-0.62234,-17.745083,-18.89906,30.76152,-19.996693,12.739003,-5.2859898,-3.5576982,12.335921,-0.91758686,16.088383,-39.560547,47.12103,11.583141,2.9557934,-1.2888418,-3.9348078,-11.634286,21.161709,56.42749,-11.925365,-5.6418595,-3.8871942
32,2.9085872173309326,0.9202056527137756,76.79277038574219,3.032846750132826,-2.847336620215174,-88.64406138646181,4.973949,-1.6474327,5.1620226,11.78477,-13.680319,-0.68930495,-1.3878335,-18.461325,-18.540253,33.073647,-19.88655,12.916652,-5.341148,-3.790205,12.607397,-1.185059,16.094896,-39.710526,47.22049,11.448187,2.959785,-1.3746475,-3.9082515,-11.920036,20.517694,56.399773,-11.9974575,-6.119901,-4.106115
33,3.0379066467285156,0.8939234614372253,76.75670623779297,3.1932462310888456,-3.086565953365125,-88.43548789724294,5.3582287,-2.0057266,4.966419,11.531818,-13.60208,-0.5766545,-2.2118568,-19.162304,-18.10158,35.46008,-19.613234,13.087277,-5.3922296,-4.030031,12.879324,-1.464699,16.113823,-39.856808,47.343163,11.404931,2.973451,-1.4259318,-3.90067,-12.2195015,19.821468,56.36711,-12.0767565,-6.5993443,-4.312943
34,3.1674039363861084,0.85833340883255,76.71964263916016,3.3488338776470985,-3.3309630230027767,-88.22065991212675,5.7520514,-2.3519151,4.763752,11.268746,-13.508775,-0.48979118,-3.0915422,-19.850527,-17.592937,37.933132,-19.198717,13.249698,-5.44152,-4.2740564,13.158088,-1.7613785,16.145267,-40.00595,47.485237,11.413863,2.9937177,-1.4553055,-3.9098463,-12.531151,19.083239,56.33291,-12.158545,-7.09985,-4.5248284
35,3.2853219509124756,0.81488436460495,76.68805694580078,3.4877748754870845,-3.5799498463242103,-87.99223570716296,6.149989,-2.6732311,4.5504093,11.01015,-13.415231,-0.41969422,-3.9839654,-20.5127,-17.07954,40.41245,-18.703947,13.358543,-5.4959993,-4.5142984,13.436442,-2.0683124,16.191002,-40.153538,47.636402,11.446295,3.0216236,-1.4853836,-3.9353452,-12.855833,18.314838,56.284786,-12.226904,-7.5673256,-4.7224236
36,3.401775598526001,0.7651323080062866,76.65837097167969,3.6043920033435444,-3.8329620873755093,-87.74317968475265,6.546791,-2.9566438,4.322949,10.771513,-13.336872,-0.35744318,-4.8453,-21.139221,-16.628593,42.82021,-18.190699,13.366577,-5.563185,-4.7437124,13.707271,-2.378728,16.25448,-40.294422,47.786003,11.473102,3.0582545,-1.5389194,-3.9783695,-13.1972,17.529993,56.211018,-12.263646,-7.9476333,-4.885991
37,3.508096218109131,0.7157691121101379,76.62614440917969,3.7038997800138316,-4.100255135527789,-87.4818710372211,6.9625707,-3.206765,4.0971293,10.542284,-13.27362,-0.3018191,-5.68239,-21.741264,-16.223703,45.187893,-17.620602,13.285369,-5.6383824,-4.9681654,13.981623,-2.6893744,16.33876,-40.419952,47.92607,11.482472,3.1077273,-1.6310847,-4.0383153,-13.554981,16.724709,56.096928,-12.264944,-8.217622,-5.0048923
38,3.6039934158325195,0.6630328297615051,76.60297393798828,3.787186216043768,-4.378568019654626,-87.2083789657651,7.3924217,-3.430102,3.8699179,10.319044,-13.21837,-0.2560258,-6.5130014,-22.328283,-15.841863,47.546276,-16.98187,13.126044,-5.7211633,-5.190189,14.2591095,-3.001516,16.44532,-40.534107,48.059338,11.491162,3.1682513,-1.7473007,-4.115787,-13.929032,15.895627,55.952713,-12.238899,-8.409299,-5.090533
39,3.690931558609009,0.5921913385391235,76.58601379394531,3.842005686473326,-4.647447453747241,-86.90299530580226,7.796932,-3.6156335,3.6102915,10.12586,-13.176119,-0.21833047,-7.306254,-22.888098,-15.544694,49.812107,-16.373814,12.839942,-5.82481,-5.3958507,14.517732,-3.3139873,16.574543,-40.651485,48.1864,11.513102,3.2320492,-1.8657576,-4.205861,-14.321615,15.055485,55.795025,-12.183167,-8.551084,-5.154681
40,3.7635080814361572,0.518255889415741,76.57811737060547,3.8534712402002724,-4.886107379222155,-86.54575248593571,8.139387,-3.751139,3.2871156,9.983835,-13.150207,-0.18825468,-8.0298395,-23.414347,-15.394383,51.90426,-15.897548,12.37999,-5.9628716,-5.5713644,14.735461,-3.6262083,16.726143,-40.78579,48.30891,11.562766,3.2909324,-1.9647808,-4.3026404,-14.737495,14.217523,55.6397,-12.095624,-8.671397,-5.2092667
41,3.82650089263916,0.43806737661361694,76.57447052001953,3.8155273557128555,-5.096921574798966,-86.11760136818621,8.408316,-3.8296587,2.8771205,9.917866,-13.150749,-0.16679628,-8.671157,-23.925907,-15.434123,53.85514,-15.587855,11.633256,-6.1544466,-5.7123,14.913799,-3.940511,16.900997,-40.943066,48.42421,11.668077,3.3495295,-2.05068,-4.404904,-15.177856,13.393059,55.482082,-11.951419,-8.7595825,-5.2503457
42,3.8925118446350098,0.3418503999710083,76.58086395263672,3.7374624577954587,-5.287568311785568,-85.63330793520963,8.62696,-3.8588142,2.4026353,9.906224,-13.170853,-0.15372011,-9.244781,-24.428984,-15.625819,55.695103,-15.395042,10.653463,-6.3880816,-5.8265095,15.06257,-4.255728,17.099482,-41.11446,48.530777,11.813587,3.4097877,-2.1312175,-4.512432,-15.642758,12.5721445,55.314545,-11.759837,-8.80659,-5.2735343
43,3.9494078159332275,0.23624520003795624,76.59058380126953,3.627222409667693,-5.445774621035959,-85.1243425908474,8.799566,-3.8463776,1.9012756,9.924753,-13.202991,-0.15068349,-9.760352,-24.891287,-15.909158,57.340126,-15.291604,9.649291,-6.630547,-5.915875,15.17349,-4.5671477,17.318796,-41.292923,48.630848,11.947051,3.459857,-2.186529,-4.617316,-16.134611,11.735971,55.14408,-11.56696,-8.843095,-5.288778
44,3.9963927268981934,0.13205356895923615,76.61351013183594,3.4954972310385566,-5.5590839130019205,-84.62254952184982,8.925501,-3.7998683,1.4118851,9.958356,-13.243989,-0.1558114,-10.230462,-25.27282,-16.222551,58.705666,-15.247836,8.834618,-6.8475676,-5.9801664,15.238361,-4.871158,17.553629,-41.471817,48.72958,12.016944,3.4880118,-2.1963875,-4.710382,-16.657078,10.865187,54.976604,-11.417991,-8.899914,-5.3055778
45,4.026802062988281,0.009468612261116505,76.63916015625,3.3345071308656142,-5.615149258958801,-84.12429221485867,8.991264,-3.7089496,0.9320117,10.00718,-13.293393,-0.17049913,-10.643893,-25.565336,-16.605087,59.765034,-15.290269,8.26822,-7.039243,-6.0087337,15.241338,-5.1837664,17.80219,-41.684456,48.85301,11.978471,3.4782994,-2.136212,-4.7818265,-17.21103,9.9613495,54.812157,-11.340267,-8.996448,-5.3268986
46,4.05949068069458,-0.12321420013904572,76.67166137695312,3.141668292919157,-5.622512819028316,-83.61729725157097,8.998741,-3.57327,0.44549373,10.081132,-13.354845,-0.19528402,-11.000339,-25.780714,-17.07158,60.5692,-15.422584,7.842783,-7.2183,-6.0016513,15.191699,-5.504779,18.063135,-41.924828,48.995186,11.869985,3.4410782,-2.0226502,-4.8343463,-17.796015,9.02944,54.646297,-11.3038,-9.112623,-5.346768
47,4.087125301361084,-0.26843366026878357,76.70555877685547,2.9363138746840787,-5.601007051268692,-83.12056861319476,8.976253,-3.414986,-0.029944811,10.167545,-13.424227,-0.2284659,-11.336358,-25.908554,-17.521769,61.155216,-15.574681,7.526483,-7.371752,-5.9752893,15.117581,-5.8074102,18.33044,-42.126694,49.11645,11.762466,3.4037368,-1.8971795,-4.877223,-18.414875,8.055456,54.477055,-11.270736,-9.21956,-5.3613257
48,4.114406585693359,-0.42235517501831055,76.74093627929688,2.7386012803677247,-5.570954874161959,-82.65325258893427,8.952508,-3.2561579,-0.47625807,10.255421,-13.497842,-0.26803997,-11.690937,-25.939842,-17.855059,61.55894,-15.6755085,7.286584,-7.488083,-5.9450784,15.046559,-6.0648155,18.595505,-42.22199,49.17917,11.727606,3.3938165,-1.8014301,-4.9196763,-19.071167,7.0266967,54.30207,-11.202137,-9.288411,-5.366014
49,4.133090019226074,-0.577841579914093,76.777587890625,2.544426683120936,-5.528946288134596,-82.22326273987609,8.921516,-3.0917635,-0.88495064,10.355314,-13.579005,-0.31502646,-12.079562,-25.852163,-18.048944,61.766613,-15.708792,7.1340446,-7.5585055,-5.9036193,14.973112,-6.276333,18.85083,-42.201664,49.189194,11.798041,3.4232826,-1.7406555,-4.9546695,-19.76558,5.9340854,54.115047,-11.087076,-9.301712,-5.367891
50,4.15645170211792,-0.7446199655532837,76.80940246582031,2.346211400412559,-5.46755606903536,-81.81990049780389,8.873422,-2.9134884,-1.2670256,10.467693,-13.667624,-0.3697865,-12.482678,-25.65295,-18.156977,61.765717,-15.70823,7.082664,-7.591894,-5.8446364,14.884631,-6.4571204,19.093683,-42.097607,49.171886,11.932639,3.475614,-1.6942434,-4.9810157,-20.497854,4.7877073,53.92283,-10.944643,-9.278012,-5.366411
51,4.1802287101745605,-0.9103051424026489,76.8336181640625,2.1560422529764636,-5.400283639561565,-81.43322136301065,8.830638,-2.7377164,-1.6332351,10.571855,-13.759748,-0.42935348,-12.886274,-25.384058,-18.191246,61.592793,-15.677344,7.1025057,-7.604097,-5.7861514,14.797705,-6.6038213,19.324036,-41.903336,49.118137,12.09117,3.535238,-1.6651834,-5.0144496,-21.271187,3.6027138,53.739212,-10.782842,-9.24212,-5.3449965
52,4.1911091804504395,-1.0760650634765625,76.85235595703125,1.98732150669614,-5.341424828662448,-81.05339669676754,8.8152275,-2.581087,-1.9939775,10.645564,-13.850565,-0.49073732,-13.277755,-25.082687,-18.163656,61.28624,-15.621648,7.162578,-7.6130395,-5.7472596,14.729156,-6.7099466,19.54458,-41.609512,49.01454,12.233811,3.5867276,-1.6565789,-5.0717616,-22.092352,2.3980787,53.578533,-10.608265,-9.218753,-5.287104
53,4.208570957183838,-1.2579997777938843,76.86970520019531,1.8392616704696647,-5.296205666623481,-80.67642422383345,8.832488,-2.445019,-2.3531897,10.686084,-13.943656,-0.55433166,-13.652082,-24.74043,-18.054543,60.835564,-15.5461035,7.265832,-7.6216326,-5.7308407,14.687656,-6.765051,19.75573,-41.18385,48.84256,12.392374,3.6362388,-1.6949334,-5.145572,-22.965712,1.1649635,53.425274,-10.412464,-9.21475,-5.1636558
54,4.214168548583984,-1.4305486679077148,76.88319396972656,1.7084594986818937,-5.257413149836825,-80.30782005732553,8.873296,-2.321404,-2.70485,10.698613,-14.037005,-0.621151,-14.014828,-24.342117,-17.864967,60.226383,-15.447565,7.4231815,-7.62368,-5.727161,14.662867,-6.7710905,19.957033,-40.6374,48.609173,12.57428,3.6883638,-1.7709068,-5.2322216,-23.891146,-0.09792308,53.281883,-10.191609,-9.216524,-4.9906707
55,4.217540264129639,-1.5998365879058838,76.88665008544922,1.5938404907142094,-5.2193711042972835,-79.95199623965692,8.927442,-2.21321,-3.0436778,10.695864,-14.128968,-0.68936217,-14.366754,-23.930618,-17.63543,59.49229,-15.319307,7.6170487,-7.623285,-5.735796,14.643,-6.7381864,20.151093,-40.026623,48.336,12.701788,3.7252734,-1.8338271,-5.3449397,-24.866793,-1.3655655,53.180027,-9.96548,-9.218454,-4.8184867
56,4.224853038787842,-1.7798032760620117,76.89049530029297,1.502301929171237,-5.176888870207579,-79.61370142850022,8.985605,-2.1235158,-3.364477,10.688117,-14.216482,-0.75699914,-14.710236,-23.542583,-17.406975,58.666,-15.153643,7.830426,-7.6236124,-5.7575026,14.6166315,-6.675323,20.342632,-39.40736,48.04335,12.699183,3.7299235,-1.8326223,-5.5006857,-25.89151,-2.610556,53.15524,-9.75242,-9.21526,-4.6983767
57,4.224235534667969,-1.9667291641235352,76.88984680175781,1.4359326481329069,-5.129924845322941,-79.29825221765338,9.050548,-2.057629,-3.6620035,10.671804,-14.293794,-0.8268909,-15.053018,-23.179255,-17.167109,57.744907,-14.942369,8.072342,-7.6225452,-5.7976446,14.583582,-6.5761952,20.535181,-38.774933,47.720516,12.538841,3.6932542,-1.7433703,-5.702252,-26.96464,-3.829351,53.208733,-9.568095,-9.20694,-4.654455
58,4.226147174835205,-2.151858329772949,76.88248443603516,1.391623698640554,-5.0812355521093195,-79.00154087113022,9.121654,-2.0125473,-3.9402049,10.65224,-14.368998,-0.8990036,-15.389221,-22.823925,-16.901043,56.713905,-14.692228,8.346406,-7.619862,-5.8573036,14.548729,-6.4354186,20.729855,-38.10488,47.357964,12.263526,3.625831,-1.5972666,-5.9416203,-28.088537,-5.0324874,53.326775,-9.400258,-9.196137,-4.6568365
59,4.227075576782227,-2.3487508296966553,76.87335205078125,1.3628112685914753,-5.029649624413916,-78.71449782557671,9.199847,-1.9781207,-4.2079625,10.619808,-14.441683,-0.967183,-15.702255,-22.488304,-16.645555,55.58559,-14.416969,8.628892,-7.6219954,-5.926052,14.508631,-6.263169,20.927275,-37.42505,46.975674,11.900437,3.5398777,-1.4257138,-6.2180157,-29.26127,-6.213873,53.520065,-9.224983,-9.182416,-4.674543
60,4.2274322509765625,-2.551042079925537,76.8592758178711,1.3397618498060972,-4.972861169407855,-78.4276736108309,9.278749,-1.9439873,-4.4741535,10.581618,-14.521174,-1.0252337,-15.979073,-22.18229,-16.43724,54.377666,-14.128467,8.896172,-7.6335144,-5.9956837,14.459356,-6.0724597,21.127474,-36.765133,46.598022,11.477345,3.4480715,-1.2595288,-6.525975,-30.48136,-7.371221,53.79439,-9.02139,-9.164917,-4.6774435
61,4.217438220977783,-2.758150815963745,76.8433609008789,1.3252601362239882,-4.914486729547303,-78.13827844329138,9.359447,-1.9122055,-4.7402616,10.54011,-14.611881,-1.0643169,-16.212444,-21.91414,-16.288557,53.081036,-13.825295,9.149168,-7.656555,-6.0680757,14.405032,-5.8652725,21.330826,-36.126156,46.21898,10.932285,3.3438811,-1.0974482,-6.8655925,-31.747004,-8.511765,54.146576,-8.786362,-9.14568,-4.663843
62,4.20828104019165,-2.9702229499816895,76.82653045654297,1.320939446378552,-4.854193907778911,-77.85122689931858,9.443241,-1.8863055,-5.0019717,10.493869,-14.709749,-1.0898991,-16.41136,-21.676771,-16.178152,51.69141,-13.502089,9.397937,-7.6866493,-6.1480527,14.345949,-5.6371474,21.537842,-35.496742,45.8321,10.273405,3.2230418,-0.9265132,-7.240967,-33.05962,-9.632678,54.576813,-8.532281,-9.123904,-4.6489553
63,4.1964521408081055,-3.187818765640259,76.8091049194336,1.3216184230628285,-4.784756321946225,-77.56947859852264,9.529133,-1.860003,-5.2590427,10.433429,-14.804489,-1.116886,-16.583881,-21.456236,-16.093466,50.223667,-13.164338,9.633576,-7.7204423,-6.228987,14.27161,-5.3884783,21.747044,-34.886105,45.458885,9.633341,3.1026006,-0.7596429,-7.643549,-34.420006,-10.716897,55.08811,-8.259053,-9.095607,-4.626569
64,4.180185317993164,-3.4082517623901367,76.79310607910156,1.323091125176101,-4.699386209797023,-77.29605076151789,9.615313,-1.8269534,-5.511209,10.351349,-14.887129,-1.1604613,-16.739216,-21.238852,-16.021727,48.695717,-12.8186655,9.846873,-7.7536826,-6.303614,14.172144,-5.1239495,21.955175,-34.30606,45.12418,9.143458,3.0003884,-0.6084731,-8.072871,-35.82821,-11.74565,55.690212,-7.966482,-9.056509,-4.590991
65,4.167496204376221,-3.641619920730591,76.77433776855469,1.324121499650228,-4.593493138354335,-77.03367317982283,9.700605,-1.787265,-5.7579546,10.24107,-14.954982,-1.225424,-16.881132,-21.02715,-15.967999,47.10042,-12.472243,10.030484,-7.783841,-6.370591,14.042055,-4.8426356,22.158773,-33.75435,44.830864,8.841665,2.9173357,-0.47453648,-8.519713,-37.286446,-12.710396,56.382404,-7.6373615,-9.007687,-4.552005
66,4.145227909088135,-3.8838460445404053,76.75421142578125,1.328057196009298,-4.4718941629579305,-76.78012482959485,9.786878,-1.743321,-5.999544,10.106602,-15.012132,-1.3037279,-17.003574,-20.826311,-15.936544,45.431114,-12.119381,10.191021,-7.8155103,-6.433561,13.8827715,-4.543204,22.356215,-33.226273,44.573833,8.657379,2.8459191,-0.35140437,-8.926903,-38.796932,-13.612887,57.108597,-7.2467895,-8.951778,-4.509727
67,4.1221418380737305,-4.134136199951172,76.7322998046875,1.3323182840142258,-4.340640313341373,-76.53066218111928,9.878498,-1.6922251,-6.236874,9.949473,-15.057995,-1.3915714,-17.101446,-20.62581,-15.913464,43.703964,-11.745754,10.339894,-7.848844,-6.4893184,13.713038,-4.2410383,22.548147,-32.731503,44.357582,8.560022,2.7917705,-0.23593147,-9.528654,-40.356865,-14.4614,58.049473,-6.921529,-8.880516,-4.4443183
68,4.0921525955200195,-4.39125919342041,76.71531677246094,1.3359586342229364,-4.206572488994074,-76.28030819024704,9.968195,-1.6315842,-6.4708686,9.797673,-15.101083,-1.484785,-17.16796,-20.414923,-15.885636,41.93333,-11.336641,10.488762,-7.8948913,-6.5421786,13.523785,-3.9347992,22.736265,-32.27606,44.1989,8.517388,2.7608538,-0.1283487,-10.111605,-41.96719,-15.252942,59.010387,-6.59911,-8.794297,-4.3360047
69,4.059785842895508,-4.652040958404541,76.69535064697266,1.3399749495671744,-4.068580622056737,-76.03324614503929,10.055285,-1.5602002,-6.6955495,9.6510515,-15.143801,-1.5818034,-17.20208,-20.191612,-15.863583,40.102917,-10.886579,10.637452,-7.9470544,-6.5915833,13.319707,-3.6335225,22.921965,-31.872725,44.10273,8.539353,2.7615647,-0.011393884,-10.752928,-43.62814,-15.980519,60.06752,-6.3290176,-8.693723,-4.158177
70,4.0175065994262695,-4.920302867889404,76.67526245117188,1.3431143924519469,-3.9240988751187365,-75.7901427590687,10.145315,-1.4792215,-6.912658,9.492952,-15.178332,-1.6848874,-17.20468,-19.960564,-15.850321,38.206905,-10.401833,10.780948,-8.004737,-6.6383553,13.097228,-3.3313081,23.105505,-31.514174,44.062088,8.636462,2.78896,0.1087702,-11.419992,-45.34198,-16.63597,61.193237,-6.0718427,-8.579829,-3.9291365
71,3.9739060401916504,-5.201694965362549,76.65780639648438,1.3481247601709123,-3.7778937369910786,-75.54127342638229,10.2354355,-1.3915929,-7.134158,9.337344,-15.209772,-1.7955376,-17.177217,-19.722729,-15.818568,36.283035,-9.888509,10.923922,-8.076502,-6.6785893,12.860878,-3.019832,23.286264,-31.181469,44.063145,8.777276,2.8284805,0.19920953,-12.150986,-47.102116,-17.240442,62.38124,-5.8319135,-8.4453945,-3.6946695
72,3.9284751415252686,-5.48722505569458,76.63919067382812,1.3540789945915321,-3.6343658558750116,-75.27668530657535,10.327906,-1.3003212,-7.3723264,9.186595,-15.236895,-1.9151856,-17.119085,-19.478535,-15.741741,34.36522,-9.350705,11.071164,-8.168812,-6.710927,12.615204,-2.6936555,23.463978,-30.85796,44.09533,8.930395,2.8652015,0.22755358,-12.962202,-48.898075,-17.816868,63.609165,-5.6057396,-8.285725,-3.5024118
73,3.8784525394439697,-5.780175685882568,76.61567687988281,1.3667618133339512,-3.4922079067313048,-74.99984987213183,10.422025,-1.2076359,-7.624124,9.041722,-15.261475,-2.0440385,-17.03526,-19.220253,-15.593345,32.43545,-8.783112,11.224072,-8.279035,-6.7369533,12.3589,-2.3496263,23.639248,-30.535404,44.15729,9.088538,2.8938036,0.16114393,-13.856126,-50.72289,-18.372787,64.88391,-5.407411,-8.104992,-3.365195
74,3.8209290504455566,-6.080042362213135,76.5943832397461,1.3834015969226703,-3.350084616661879,-74.71391933387248,10.5174885,-1.1123787,-7.8853865,8.900503,-15.282799,-2.1812103,-16.92174,-18.949991,-15.394159,30.479803,-8.182941,11.380586,-8.403253,-6.7599583,12.091738,-1.9944177,23.813845,-30.225948,44.256275,9.268288,2.9225054,0.025941517,-14.823868,-52.57585,-18.892265,66.201065,-5.2374806,-7.90245,-3.2603889
75,3.7572054862976074,-6.390376567840576,76.57090759277344,1.400492230903468,-3.2126825288545904,-74.40827777416489,10.617423,-1.0107173,-8.16623,8.761353,-15.298385,-2.3265123,-16.76828,-18.68289,-15.189582,28.544895,-7.5621767,11.540506,-8.545711,-6.7791176,11.819862,-1.6357538,23.988949,-29.943384,44.39176,9.474504,2.9567058,-0.12316787,-15.86554,-54.45566,-19.360525,67.524124,-5.0705714,-7.6680026,-3.1827035
76,3.6901679039001465,-6.709472179412842,76.55176544189453,1.4171007919654086,-3.0857461531425727,-74.07265897344278,10.721725,-0.8992393,-8.476947,8.629401,-15.309083,-2.4798822,-16.56823,-18.434765,-15.023651,26.682964,-6.9336047,11.703213,-8.710687,-6.7935615,11.549337,-1.282174,24.165531,-29.701578,44.564655,9.711953,3.0022185,-0.23108369,-16.980865,-56.36111,-19.765287,68.81546,-4.884218,-7.390481,-3.1270947
77,3.621434450149536,-7.036530017852783,76.53230285644531,1.432257374360293,-2.968364430171535,-73.69652567120507,10.803646,-0.78340405,-8.828545,8.556741,-15.342256,-2.6386914,-16.321354,-18.208523,-14.884951,24.887264,-6.2997293,11.850297,-8.903068,-6.8045974,11.281525,-0.9470251,24.345879,-29.526207,44.788666,10.01461,3.065202,-0.2738614,-18.145792,-58.295998,-20.097975,70.06586,-4.6677423,-7.058221,-3.0995402
78,3.5468976497650146,-7.369975566864014,76.51385498046875,1.4463536087570648,-2.8578194721759904,-73.28720858584991,10.850586,-0.6647728,-9.213426,8.569372,-15.412857,-2.8038983,-16.035084,-17.995554,-14.758332,23.143488,-5.655723,11.98799,-9.119008,-6.808415,11.013569,-0.622544,24.529955,-29.40446,45.057514,10.367921,3.1413758,-0.28446016,-19.377367,-60.26107,-20.355997,71.2892,-4.434305,-6.677604,-3.1003957
79,3.459237575531006,-7.705314636230469,76.49447631835938,1.4559312921742227,-2.7567501462239967,-72.86199483800422,10.900957,-0.5318137,-9.6132145,8.595842,-15.482684,-2.9808173,-15.707564,-17.791763,-14.683132,21.474117,-5.0032587,12.154245,-9.348716,-6.7998548,10.746002,-0.28631848,24.714718,-29.292149,45.342644,10.70525,3.2210126,-0.29276046,-20.745592,-62.248886,-20.52973,72.496376,-4.1998043,-6.2755666,-3.1190107
80,3.3707709312438965,-8.048493385314941,76.47258758544922,1.4542529524966503,-2.666208425356282,-72.43638277359032,10.965587,-0.37326255,-10.010407,8.623367,-15.544805,-3.175215,-15.336651,-17.588926,-14.701666,19.900864,-4.343718,12.38776,-9.585925,-6.772059,10.478709,0.084305115,24.896374,-29.14301,45.61704,10.960428,3.2941856,-0.32810917,-22.323923,-64.24848,-20.601334,73.69292,-3.9792655,-5.8772264,-3.146166
81,3.2667834758758545,-8.405024528503418,76.45652770996094,1.4419818558735011,-2.5904624259312183,-72.00204626775393,11.049053,-0.18910511,-10.4111395,8.652097,-15.602035,-3.3929515,-14.860693,-17.38336,-14.875198,18.29859,-3.6505208,12.832825,-9.842752,-6.7323117,10.212157,0.4917349,25.076607,-28.953827,45.886955,11.098883,3.357905,-0.40039918,-24.102953,-66.25894,-20.562449,74.87572,-3.82757,-5.4930973,-3.1607594
82,3.1657826900482178,-8.772063255310059,76.43707275390625,1.426397303380436,-2.527918532609931,-71.55384248889474,11.151839,0.011878245,-10.822243,8.674121,-15.649402,-3.6289053,-14.29706,-17.177317,-15.162637,16.685122,-2.9237583,13.42682,-10.118096,-6.6861377,9.946863,0.92527044,25.25698,-28.74628,46.16126,11.162166,3.4177725,-0.49335325,-26.073708,-68.279755,-20.39485,76.03399,-3.7167368,-5.108356,-3.1746686
83,3.0579421520233154,-9.142473220825195,76.4119644165039,1.4016643586442417,-2.4695328699263666,-71.11363732596529,11.257454,0.23380473,-11.22525,8.70477,-15.689605,-3.8738859,-13.777136,-16.970043,-15.45341,15.32887,-2.2219908,13.895078,-10.383941,-6.6151547,9.683395,1.3849345,25.431084,-28.511562,46.421093,11.198445,3.4761748,-0.5969154,-28.326319,-70.29592,-20.062866,77.161575,-3.5511177,-4.709537,-3.2305894
84,2.9431161880493164,-9.513893127441406,76.40573120117188,1.3529280146475535,-2.405161752595231,-70.70610423271054,11.336958,0.4892293,-11.598884,8.784476,-15.739672,-4.1203513,-13.446404,-16.759357,-15.6390505,14.5302725,-1.6213455,13.960199,-10.61096,-6.4937234,9.422913,1.8671286,25.588472,-28.23932,46.65446,11.258733,3.5354872,-0.69959223,-30.957424,-72.28449,-19.519634,78.24567,-3.2337203,-4.2831974,-3.376503
85,2.818950653076172,-9.876399040222168,76.41735076904297,1.2566285027992126,-2.322309055318399,-70.33376614509949,11.3734665,0.8072431,-11.933526,8.923014,-15.813279,-4.3721814,-13.415513,-16.529932,-15.654074,14.5298,-1.0764194,13.407312,-10.806556,-6.296356,9.154992,2.3776407,25.721552,-27.927393,46.866367,11.365514,3.599098,-0.7966395,-34.071198,-74.23139,-18.752035,79.3143,-2.718438,-3.7950287,-3.6191053
86,2.6905839443206787,-10.242813110351562,76.42567443847656,1.12222328465332,-2.229044912539355,-69.98551942025352,11.382738,1.1765639,-12.241495,9.106015,-15.90301,-4.6327176,-13.589154,-16.28877,-15.584565,15.126233,-0.5678701,12.432693,-10.973505,-6.0406013,8.885097,2.901062,25.82973,-27.589146,47.07621,11.491892,3.6647656,-0.89283305,-37.622936,-76.130264,-17.744713,80.33617,-2.0637643,-3.2638502,-3.94198
87,2.564213514328003,-10.624277114868164,76.42761993408203,0.9838353038140334,-2.1465106210721516,-69.66609327578382,11.404306,1.5549041,-12.532135,9.300455,-15.974201,-4.893607,-13.805712,-16.065027,-15.541029,15.965973,-0.22245501,11.371609,-11.0729265,-5.764633,8.638425,3.3979928,25.913881,-27.240536,47.296513,11.613229,3.7265484,-0.99052745,-41.469997,-77.96307,-16.461037,81.207184,-1.3238006,-2.756917,-4.3565664
88,2.447763204574585,-11.033441543579102,76.4128189086914,0.8682554131423666,-2.0945360301644005,-69.38256620290456,11.473475,1.908506,-12.812204,9.477762,-15.994419,-5.1480236,-13.90867,-15.879844,-15.613066,16.709444,-0.1872657,10.553379,-11.071603,-5.505807,8.437157,3.8348534,25.976688,-26.889147,47.53987,11.706455,3.7788403,-1.0905977,-45.455715,-79.70405,-14.87694,81.82304,-0.5496253,-2.3407838,-4.8746705
89,2.3179492950439453,-11.430622100830078,76.40188598632812,0.7780568922665001,-2.0858162266317524,-69.14122981396493,11.604888,2.2344823,-13.091025,9.63636,-15.967245,-5.3975105,-13.862317,-15.747816,-15.834522,17.346363,-0.6264497,10.049316,-10.962774,-5.276885,8.290184,4.2075634,26.024094,-26.530787,47.802784,11.777903,3.8219078,-1.2083683,-49.582382,-81.326355,-13.015052,82.147484,0.21511434,-2.0191991,-5.55313
90,2.1831977367401123,-11.826815605163574,76.42509460449219,0.6992861631116448,-2.1068552338585045,-68.93753700512684,11.776583,2.550388,-13.361615,9.78985,-15.905601,-5.645255,-13.745991,-15.654285,-16.140608,18.031267,-1.4271495,9.689197,-10.773521,-5.0748153,8.177917,4.539724,26.061901,-26.153912,48.085365,11.837272,3.859553,-1.3343564,-53.874454,-82.80589,-10.919758,82.20301,1.0103152,-1.7646677,-6.374699
91,2.0442898273468018,-12.218722343444824,76.44868469238281,0.6289421650665591,-2.137072049411514,-68.76392765080826,11.964436,2.858282,-13.604554,9.94054,-15.79609,-5.887488,-13.585142,-15.569404,-16.466812,18.68821,-2.3311799,9.436858,-10.528132,-4.9055867,8.078014,4.847691,26.091524,-25.744675,48.400574,11.866537,3.891455,-1.4318125,-58.198,-84.11447,-8.62642,81.98833,1.8998872,-1.5958381,-7.240738
92,1.912116289138794,-12.608135223388672,76.4769287109375,0.5656683141814425,-2.1564659452030517,-68.61220044460318,12.144988,3.1580796,-13.80138,10.092034,-15.626883,-6.1197767,-13.405701,-15.460141,-16.754007,19.237934,-3.076181,9.253002,-10.255777,-4.7747617,7.968045,5.150214,26.111174,-25.28405,48.761242,11.848896,3.9167213,-1.4640758,-62.41473,-85.22687,-6.1742077,81.5113,2.9506257,-1.5307143,-8.053848
93,1.7746422290802002,-12.998332023620605,76.51752471923828,0.506889471305898,-2.169288491157489,-68.50044633837061,12.330105,3.4521496,-13.916708,10.247339,-15.388781,-6.339582,-13.207126,-15.306009,-16.979532,19.659288,-3.5953426,9.175153,-9.953716,-4.678781,7.849905,5.465812,26.11311,-24.739801,49.17523,11.767392,3.9259715,-1.4021039,-66.46332,-86.11895,-3.6042643,80.761314,4.2457833,-1.6258756,-8.805043
94,1.642828106880188,-13.40203857421875,76.57433319091797,0.4540731384214186,-2.1830888910751542,-68.42678678751739,12.525693,3.7399993,-13.970618,10.40372,-15.089297,-6.549309,-12.982888,-15.126116,-17.179792,19.99947,-4.027872,9.207228,-9.633603,-4.6187315,7.7265663,5.8014936,26.096756,-24.104847,49.62666,11.637548,3.9219985,-1.2706494,-70.3693,-86.789116,-0.9547857,79.75807,5.7248263,-1.8607923,-9.543338
95,1.5107687711715698,-13.81645679473877,76.63603210449219,0.41217282488713036,-2.182751919042322,-68.35158146892219,12.696568,4.015705,-14.028872,10.564958,-14.746322,-6.752778,-12.742741,-14.94254,-17.388126,20.266071,-4.4134603,9.25786,-9.338431,-4.5999155,7.5832324,6.15353,26.073376,-23.405441,50.084526,11.489187,3.921882,-1.1168672,-74.14665,-87.268875,1.7519826,78.57156,7.2330403,-2.1346495,-10.2527
96,1.3732677698135376,-14.221938133239746,76.69525146484375,0.38648509550889115,-2.1532206751301626,-68.23475304990475,12.8056555,4.2726407,-14.157899,10.737245,-14.378949,-6.9549465,-12.496394,-14.778972,-17.637014,20.46805,-4.792162,9.236028,-9.099501,-4.6244164,7.409551,6.5143504,26.060041,-22.678305,50.51137,11.350249,3.943205,-0.9898456,-77.824,-87.6062,4.504217,77.27333,8.613982,-2.3425407,-10.915777
97,1.226053237915039,-14.630542755126953,76.76040649414062,0.3885725618387414,-2.0755065475159635,-68.06414705641915,12.831359,4.500225,-14.376627,10.912598,-13.978709,-7.1527133,-12.257606,-14.652524,-17.933664,20.600931,-5.169078,9.116194,-8.905941,-4.6993356,7.18984,6.8867416,26.06274,-21.905968,50.89728,11.225964,3.99084,-0.89442545,-81.379555,-87.842,7.294936,75.87877,9.834133,-2.458946,-11.475341
98,1.0681427717208862,-15.037809371948242,76.83235168457031,0.4129725685529865,-1.9627052526153916,-67.86152696111856,12.800595,4.7047534,-14.649189,11.084209,-13.536433,-7.347217,-12.017484,-14.546567,-18.261566,20.661797,-5.5241537,8.946903,-8.725091,-4.811146,6.9441204,7.2621956,26.07839,-21.096773,51.24811,11.098373,4.054953,-0.81227005,-84.79998,-87.994606,10.114269,74.37995,10.977231,-2.5332272,-11.942619
99,0.9015378355979919,-15.430736541748047,76.89775085449219,0.4205001230648759,-1.8415814178200334,-67.62830305647462,12.631223,4.8959923,-14.977965,11.502152,-13.2005415,-7.551444,-11.748826,-14.41768,-18.632095,20.651566,-5.8548846,8.74657,-8.56555,-4.913621,6.7106442,7.6140018,26.113052,-20.330158,51.555874,10.956492,4.131847,-0.756174,-88.1301,-88.07378,12.959372,72.801865,12.070897,-2.5719419,-12.408658
100,0.7350406646728516,-15.814752578735352,76.96379089355469,0.39503453071627415,-1.7479426189449843,-67.37816043901914,12.416259,5.0994644,-15.341308,12.060721,-12.9307995,-7.7735505,-11.424687,-14.243652,-19.03366,20.58061,-6.1636634,8.537831,-8.424234,-4.987089,6.5319376,7.9204926,26.179192,-19.685558,51.810104,10.787231,4.2180448,-0.7394174,-91.41731,-88.08415,15.831961,71.17406,13.14352,-2.58876,-12.96482
101,0.5651242733001709,-16.18414306640625,77.02749633789062,0.34644769848152496,-1.698496458050181,-67.10700526476225,12.24088,5.321552,-15.748392,12.605813,-12.63862,-8.021545,-11.022656,-14.03356,-19.467403,20.44411,-6.455647,8.323012,-8.300075,-5.046767,6.4276814,8.175483,26.28892,-19.177528,52.003445,10.54836,4.3255386,-0.7665569,-94.65872,-88.02981,18.734657,69.49614,14.259479,-2.5572748,-13.681242
102,0.3938395380973816,-16.555768966674805,77.09043884277344,0.2828619199333669,-1.6733904668042912,-66.81244142461333,12.068901,5.5514073,-16.202192,13.166678,-12.333306,-8.287341,-10.560971,-13.797145,-19.93256,20.23878,-6.728908,8.093798,-8.187777,-5.099585,6.375218,8.394503,26.442726,-18.770208,52.135017,10.255459,4.452267,-0.8328525,-97.83043,-87.91632,21.659733,67.769066,15.387999,-2.4859612,-14.493238
103,0.22231461107730865,-16.918249130249023,77.15240478515625,0.20821200468952777,-1.659599405946983,-66.52055339472889,11.901953,5.7870426,-16.654285,13.730456,-12.031828,-8.551142,-10.072692,-13.535033,-20.395267,19.983072,-6.978822,7.859865,-8.068648,-5.139858,6.354588,8.59195,26.63303,-18.463255,52.205975,9.986851,4.5731287,-0.93798596,-100.94021,-87.746666,24.587818,66.015656,16.414808,-2.4336863,-15.291381
104,0.05727072060108185,-17.26726531982422,77.21478271484375,0.12470894434039419,-1.6433248038458468,-66.25686136626591,11.741024,6.028917,-17.056643,14.285912,-11.746412,-8.7936325,-9.589447,-13.2455,-20.824638,19.69054,-7.197163,7.6296496,-7.923234,-5.157637,6.3446836,8.7744665,26.847332,-18.261208,52.22512,9.820473,4.662787,-1.0807323,-103.994774,-87.522316,27.494991,64.257645,17.219255,-2.4516082,-15.963504
105,-0.10026233643293381,-17.613506317138672,77.27327728271484,0.02458869937523916,-1.6284549220197564,-66.03548592128688,11.594733,6.286252,-17.392147,14.835323,-11.486639,-9.017366,-9.105466,-12.912389,-21.208506,19.347586,-7.3734007,7.398056,-7.738009,-5.1394334,6.3497353,8.929461,27.08165,-18.197264,52.202827,9.753897,4.7098837,-1.2768586,-106.97858,-87.24097,30.36916,62.491795,17.782108,-2.5495267,-16.476145
106,-0.25457507371902466,-17.952260971069336,77.32445526123047,-0.09103961471728478,-1.6195811159793572,-65.84012215538789,11.458346,6.556499,-17.6879,15.385594,-11.244109,-9.230005,-8.607852,-12.541553,-21.564526,18.95113,-7.514134,7.1640887,-7.526466,-5.0926304,6.374528,9.050184,27.336332,-18.261505,52.1446,9.754753,4.7293434,-1.520091,-109.876114,-86.902374,33.209995,60.7096,18.164541,-2.6930149,-16.891273
107,-0.40331947803497314,-18.285343170166016,77.37545776367188,-0.20474824945778863,-1.604381277667637,-65.6511308644102,11.312358,6.8197255,-17.960724,15.934963,-11.008187,-9.420119,-8.117667,-12.166515,-21.906464,18.532642,-7.637911,6.9412556,-7.305744,-5.036894,6.4008164,9.14744,27.602629,-18.396376,52.051624,9.857189,4.7344656,-1.776805,-112.693504,-86.508675,36.003914,58.928074,18.359941,-2.8627722,-17.238054
108,-0.5484077334403992,-18.609146118164062,77.41949462890625,-0.29956273027048036,-1.5706855784840719,-65.44912638211513,11.1371355,7.056469,-18.227413,16.482384,-10.7679205,-9.576669,-7.654684,-11.819118,-22.24939,18.119108,-7.7624516,6.741877,-7.088939,-4.9889927,6.4121995,9.227697,27.86687,-18.547237,51.92831,10.097844,4.738128,-2.012639,-115.43295,-86.059784,38.72092,57.159893,18.345932,-3.0392694,-17.543684
109,-0.695000946521759,-18.938663482666016,77.46976470947266,-0.36890640281647663,-1.514339020783273,-65.22747504482041,10.922466,7.256729,-18.497042,17.036314,-10.524569,-9.689382,-7.227039,-11.511989,-22.59857,17.72338,-7.8939104,6.5750656,-6.9110107,-4.9703813,6.391333,9.306375,28.13142,-18.726181,51.789753,10.5096445,4.732393,-2.188004,-118.085014,-85.564735,41.415253,55.39165,18.210724,-3.2004735,-17.81592
110,-0.8291507959365845,-19.250900268554688,77.51457977294922,-0.4225860749262561,-1.4424240667861692,-64.9971119024358,10.683645,7.43363,-18.758059,17.58914,-10.279563,-9.766674,-6.8211718,-11.225522,-22.947247,17.324045,-8.020665,6.431125,-6.692224,-4.932151,6.3678412,9.315716,28.389683,-19.022778,51.64387,11.05948,4.711824,-2.3393834,-120.665665,-84.99584,43.95859,53.640835,17.762688,-3.3526313,-18.017422
111,-0.9724673628807068,-19.555498123168945,77.55145263671875,-0.46670966294391963,-1.3589999248285132,-64.76504389452494,10.423719,7.5957437,-18.999117,18.143532,-10.036973,-9.825234,-6.440382,-10.951324,-23.288944,16.929762,-8.141858,6.2935123,-6.481338,-4.8932977,6.3384013,9.3164215,28.630926,-19.27442,51.46152,11.711325,4.697494,-2.5149596,-123.10587,-84.36512,46.39143,51.89719,17.127192,-3.5390978,-18.193604
112,-1.1101793050765991,-19.853731155395508,77.59007263183594,-0.5077712754271584,-1.2680289700050311,-64.53775318840013,10.148585,7.7530456,-19.208399,18.698334,-9.799621,-9.88173,-6.0842395,-10.679866,-23.61778,16.541998,-8.255388,6.1464458,-6.302161,-4.859893,6.310185,9.351182,28.842703,-19.340038,51.210163,12.428958,4.7085648,-2.7674925,-125.417305,-83.689644,48.787167,50.165203,16.382734,-3.7998266,-18.378159
113,-1.2446069717407227,-20.146717071533203,77.6241455078125,-0.5538592950318802,-1.1634612813752758,-64.303933795671,9.838547,7.9131427,-19.401268,19.27164,-9.577479,-9.9347315,-5.744476,-10.399576,-23.948599,16.137026,-8.352543,5.9840474,-6.1449723,-4.8132443,6.284503,9.401539,29.021116,-19.24388,50.88316,13.269908,4.7503824,-3.118531,-127.620575,-82.96779,51.137814,48.458508,15.44129,-4.130327,-18.511644
114,-1.3830357789993286,-20.428518295288086,77.65667724609375,-0.5987217397158646,-1.0456336720651558,-64.06431789376249,9.496399,8.06775,-19.577816,19.861956,-9.368363,-9.977799,-5.424808,-10.119791,-24.27897,15.724329,-8.439042,5.8155346,-6.0018396,-4.7552853,6.258913,9.451311,29.167164,-19.04066,50.500935,14.234021,4.8085103,-3.5373075,-129.71811,-82.19604,53.433132,46.769714,14.305154,-4.512882,-18.604382
115,-1.5195598602294922,-20.708763122558594,77.68944549560547,-0.6284574301529966,-0.9283983948780078,-63.84481681500809,9.164898,8.206044,-19.702927,20.428171,-9.15029,-10.019475,-5.1409206,-9.860597,-24.577902,15.352089,-8.530643,5.64736,-5.852708,-4.6987925,6.2469053,9.505886,29.269636,-18.683311,50.079433,15.195686,4.8715563,-4.0036902,-131.7066,-81.37871,55.680107,45.077732,13.077138,-4.9610476,-18.778847
116,-1.6506763696670532,-20.964202880859375,77.71981048583984,-0.6295995187067497,-0.8256851145941748,-63.67130969787799,8.879555,8.316174,-19.742222,20.944063,-8.907794,-10.066716,-4.91121,-9.644234,-24.81429,15.075231,-8.647084,5.485992,-5.6791267,-4.6552043,6.2619925,9.564719,29.312134,-18.125648,49.64175,16.029245,4.930496,-4.4956374,-133.58113,-80.52249,57.88525,43.358124,11.85968,-5.4839654,-19.15646
117,-1.7783122062683105,-21.209789276123047,77.74878692626953,-0.5995152429590713,-0.7439143691254672,-63.544958259345485,8.652793,8.399223,-19.681885,21.396482,-8.631993,-10.122631,-4.730146,-9.474655,-24.98651,14.894192,-8.786972,5.332046,-5.481759,-4.6264205,6.310494,9.625726,29.279861,-17.305824,49.185223,16.7781,4.9907546,-5.0793157,-135.33429,-79.637085,60.074127,41.603878,10.678899,-6.1107144,-19.848055
118,-1.9018192291259766,-21.43622589111328,77.773681640625,-0.5457933195211669,-0.6747630184264805,-63.45382105814337,8.459585,8.461051,-19.542294,21.811525,-8.33585,-10.180868,-4.5922327,-9.34199,-25.110067,14.787398,-8.943601,5.182087,-5.266317,-4.603923,6.3828945,9.67357,29.171488,-16.271456,48.719322,17.487537,5.052765,-5.7390995,-136.9659,-78.72538,62.2378,39.81559,9.472844,-6.8153214,-20.768984
119,-2.033958911895752,-21.65851402282715,77.79520416259766,-0.47109975755944056,-0.6098373859961919,-63.40357366524952,8.289441,8.500901,-19.33847,22.198,-8.033416,-10.233201,-4.513375,-9.2469015,-25.179287,14.77251,-9.126421,5.035452,-5.023501,-4.584562,6.466612,9.692225,28.991985,-15.138507,48.28288,18.035002,5.107444,-6.3290625,-138.47168,-77.78582,64.31955,37.97818,8.209563,-7.5264845,-21.745407
120,-2.1505446434020996,-21.873624801635742,77.81515502929688,-0.3777980137952141,-0.5407863783512361,-63.399982692023414,8.134039,8.518412,-19.085285,22.560762,-7.736888,-10.271676,-4.511424,-9.190908,-25.188097,14.871274,-9.346798,4.8913054,-4.748133,-4.566554,6.5480804,9.6710205,28.749249,-14.018217,47.91018,18.296844,5.1509686,-6.7029963,-139.83804,-76.81833,66.250565,36.074963,6.8594284,-8.179272,-22.601873
121,-2.256096124649048,-22.075464248657227,77.83098602294922,-0.25821072461913086,-0.4608404186107758,-63.45378168615547,7.988835,8.506995,-18.75574,22.901419,-7.4448357,-10.289903,-4.6152534,-9.1891,-25.120865,15.121761,-9.619152,4.7467656,-4.4308968,-4.556384,6.6177726,9.60908,28.438139,-12.885286,47.603115,18.237911,5.1948867,-6.831424,-141.05066,-75.83217,67.996506,34.044975,5.4028797,-8.721278,-23.288097
122,-2.3720765113830566,-22.260948181152344,77.84093475341797,-0.11370123522272683,-0.37566966038784416,-63.55858868569426,7.857801,8.469408,-18.352652,23.22113,-7.154622,-10.291563,-4.8090963,-9.2364235,-24.984879,15.504529,-9.934933,4.602524,-4.0858436,-4.555784,6.6833367,9.513086,28.056862,-11.691746,47.34537,17.92498,5.2414317,-6.787121,-142.11212,-74.839455,69.58955,31.899649,3.8559132,-9.200736,-23.897408
123,-2.4848005771636963,-22.444215774536133,77.8504867553711,0.040016941285409585,-0.2955476828414594,-63.694932541421736,7.7481074,8.420143,-17.932953,23.517628,-6.8716593,-10.282476,-5.0373316,-9.30167,-24.810513,15.94088,-10.262582,4.4629855,-3.7393599,-4.554471,6.7582088,9.388276,27.625858,-10.516942,47.134476,17.384815,5.27329,-6.5788054,-143.04958,-73.843895,71.07634,29.739298,2.2475433,-9.709434,-24.470974
124,-2.586933135986328,-22.613780975341797,77.85625457763672,0.1865517027013336,-0.2308134783817025,-63.84356774452775,7.665813,8.373285,-17.55428,23.790932,-6.603214,-10.269758,-5.2456646,-9.354366,-24.628078,16.355406,-10.572743,4.332784,-3.4101837,-4.542983,6.8555055,9.2425785,27.176878,-9.447642,46.9617,16.638613,5.2709227,-6.2186174,-143.90068,-72.843575,72.516655,27.677326,0.60645986,-10.339073,-25.055141
125,-2.6912028789520264,-22.776216506958008,77.85653686523438,0.32374768200120035,-0.19341690067506925,-64.01041799859549,7.623821,8.331122,-17.213194,24.04558,-6.359151,-10.246613,-5.42638,-9.39238,-24.433548,16.757313,-10.867663,4.2162747,-3.0808396,-4.520047,6.9918494,9.075715,26.724987,-8.496194,46.821857,15.566488,5.228284,-5.6878357,-144.69437,-71.837685,73.95289,25.687717,-0.97428566,-11.115383,-25.620554
126,-2.8038153648376465,-22.936342239379883,77.85704040527344,0.45961536938200764,-0.17463548401771095,-64.2022416147183,7.616902,8.287322,-16.884937,24.277178,-6.133329,-10.212144,-5.6083074,-9.43025,-24.214308,17.181427,-11.160563,4.1100616,-2.7383845,-4.491864,7.155671,8.886597,26.269611,-7.6289144,46.711372,14.1919985,5.1427913,-4.994126,-145.43852,-70.82761,75.38484,23.74169,-2.5372312,-11.993415,-26.163404
127,-2.899379014968872,-23.08928680419922,77.85746765136719,0.5936724796458432,-0.15403377600835536,-64.40061501224405,7.618632,8.241148,-16.595953,24.481438,-5.9081745,-10.182864,-5.784769,-9.460404,-23.990847,17.575798,-11.435996,4.0070486,-2.4092739,-4.462056,7.3187256,8.688067,25.82209,-6.8620906,46.61965,12.750482,5.0036964,-4.190797,-146.13231,-69.81097,76.7971,21.952919,-4.263988,-12.95267,-26.778172
128,-3.0022106170654297,-23.242752075195312,77.85816955566406,0.7255636582356563,-0.11124728163894429,-64.58716744226415,7.604289,8.19168,-16.372244,24.650068,-5.6658297,-10.176085,-5.9622602,-9.48138,-23.780464,17.919132,-11.686732,3.8999293,-2.1185534,-4.4372935,7.4534416,8.495143,25.398521,-6.2136116,46.533024,11.474588,4.807908,-3.3321002,-146.77402,-68.78361,78.173546,20.442482,-6.342416,-13.965677,-27.567621
129,-3.1035046577453613,-23.38800811767578,77.86249542236328,0.8547868398975899,-0.041175742520667684,-64.76294425740303,7.5759406,8.136871,-16.23174,24.764519,-5.396654,-10.210828,-6.1442595,-9.490285,-23.581308,18.204103,-11.911621,3.7834563,-1.8686161,-4.4278474,7.558526,8.313816,25.009163,-5.693156,46.459576,10.3449745,4.5230336,-2.358556,-147.36443,-67.73966,79.52201,19.236385,-9.01618,-15.009594,-28.58816
130,-3.2056055068969727,-23.530860900878906,77.86762237548828,0.9815287280240189,0.04533065623676551,-64.93557940087335,7.54467,8.076745,-16.15667,24.832487,-5.110443,-10.274213,-6.3267703,-9.488849,-23.386055,18.442957,-12.115316,3.6625116,-1.6455677,-4.432424,7.6470904,8.13988,24.652988,-5.291166,46.399933,9.264259,4.15705,-1.2717584,-147.90991,-66.676636,80.85195,18.287773,-12.140757,-16.076715,-29.807781
131,-3.3065333366394043,-23.676671981811523,77.8788833618164,1.1063949216431508,0.1445990364147006,-65.09707954538487,7.4975224,8.011793,-16.118944,24.888435,-4.8201156,-10.33607,-6.501888,-9.482263,-23.205702,18.637487,-12.295797,3.545081,-1.4519923,-4.4406896,7.714178,7.972999,24.326845,-4.995982,46.33043,8.343803,3.7822042,-0.21234861,-148.41476,-65.59785,82.145874,17.597654,-15.321428,-17.1587,-31.189117
132,-3.4014503955841064,-23.81642723083496,77.89163970947266,1.230437485133508,0.2529552248088588,-65.23904532579616,7.4219446,7.943217,-16.090252,24.965069,-4.537971,-10.366441,-6.6556277,-9.473342,-23.052164,18.775894,-12.448382,3.4391856,-1.2921858,-4.4429235,7.756108,7.8143473,24.027435,-4.7919903,46.224937,7.691933,3.4796808,0.68303764,-148.88066,-64.512024,83.38246,17.161835,-18.15942,-18.269524,-32.678402
133,-3.4958903789520264,-23.959653854370117,77.9100341796875,1.354608317955135,0.37245846562711304,-65.36665992059783,7.3159537,7.867461,-16.071663,25.063751,-4.2652006,-10.356972,-6.7865353,-9.461593,-22.923681,18.848015,-12.567527,3.3474247,-1.168467,-4.446008,7.7733006,7.66967,23.755224,-4.6698604,46.076077,7.3528833,3.2778773,1.4084324,-149.30731,-63.423973,84.576935,16.992039,-20.608385,-19.534582,-34.439228
134,-3.5855724811553955,-24.097627639770508,77.9295883178711,1.4781350873793613,0.5039994679343166,-65.48179909757559,7.1831875,7.784216,-16.075472,25.173975,-3.9964087,-10.3251295,-6.9021583,-9.446671,-22.815798,18.864626,-12.658809,3.2653239,-1.0780728,-4.4539924,7.7693954,7.5355363,23.511164,-4.638122,45.89974,7.260691,3.1435535,2.0318978,-149.69632,-62.33599,85.735405,17.079924,-22.886316,-20.900564,-36.452023
135,-3.6761343479156494,-24.227523803710938,77.95024871826172,1.5993122106745523,0.642096009324156,-65.5713825154078,7.030095,7.702748,-16.088854,25.289408,-3.7308006,-10.28013,-6.9976625,-9.430103,-22.735916,18.834888,-12.727698,3.1903086,-1.0190594,-4.4535265,7.7470317,7.4005394,23.291826,-4.7047043,45.702538,7.35616,3.068135,2.5278552,-150.05086,-61.2589,86.81988,17.384937,-24.956686,-22.152603,-38.35074
136,-3.7664637565612793,-24.36309242248535,77.97634887695312,1.7163408611607018,0.7812941757570618,-65.62268192778744,6.8599405,7.631838,-16.099718,25.410646,-3.4701352,-10.230794,-7.0737023,-9.416072,-22.6908,18.78018,-12.785494,3.1198282,-0.9914926,-4.4315524,7.7104363,7.2560253,23.092607,-4.873839,45.48764,7.5818954,3.0407803,2.8704753,-150.37144,-60.211746,87.78576,17.859154,-26.741823,-23.101631,-39.735836
137,-3.859605312347412,-24.492151260375977,78.00544738769531,1.834434653964498,0.9245780835717627,-65.63127712532497,6.6660037,7.5669537,-16.105986,25.538685,-3.2114367,-10.171623,-7.133484,-9.410792,-22.682318,18.700653,-12.831584,3.0559256,-0.99502295,-4.397686,7.6567755,7.086967,22.910149,-5.150154,45.27197,7.950544,3.0814507,3.0444734,-150.66222,-59.213802,88.631165,18.47991,-28.23998,-23.717955,-40.416424
138,-3.952488660812378,-24.626161575317383,78.03291320800781,1.95269325099337,1.073324819954781,-65.60410462519513,6.448566,7.5058155,-16.113907,25.673826,-2.9552248,-10.101133,-7.1762166,-9.41077,-22.706934,18.588243,-12.861699,2.9991038,-1.0294422,-4.3583508,7.587654,6.904152,22.746223,-5.526742,45.045685,8.485404,3.1888463,3.067087,-150.92508,-58.277855,89.37719,19.253044,-29.447279,-24.140509,-40.593555
139,-4.037607669830322,-24.754169464111328,78.06123352050781,2.061087184287391,1.2195878208534254,-65.5462378523615,6.2244773,7.4600515,-16.1229,25.808327,-2.7050514,-10.032949,-7.192408,-9.403058,-22.763489,18.440496,-12.877078,2.9448807,-1.0978194,-4.2968335,7.5137825,6.7408733,22.605658,-5.988972,44.768917,9.144334,3.3179743,2.96124,-151.1583,-57.415237,90.01262,20.17324,-30.267042,-24.439842,-40.441463
140,-4.124728679656982,-24.885427474975586,78.09102630615234,2.149243097583358,1.3554803774982866,-65.46217680087538,6.0102606,7.441407,-16.132898,25.935669,-2.4650652,-9.980331,-7.171944,-9.373932,-22.850948,18.253893,-12.876616,2.888418,-1.2058517,-4.1985297,7.4459143,6.633855,22.495556,-6.5180945,44.398434,9.8860035,3.4237285,2.7499285,-151.3608,-56.636227,90.522835,21.233028,-30.610231,-24.67547,-40.139996
141,-4.2109599113464355,-25.013351440429688,78.11970520019531,2.217304497046192,1.4784796624401793,-65.34674436387931,5.8048778,7.448489,-16.153357,26.058485,-2.231749,-9.950384,-7.107865,-9.323276,-22.973486,18.020891,-12.8602495,2.8295476,-1.3622755,-4.062666,7.388732,6.5869155,22.42392,-7.1412005,43.916718,10.745555,3.5057204,2.4227462,-151.53354,-55.953056,90.890884,22.42066,-30.332878,-24.843271,-39.608604
142,-4.294780254364014,-25.133731842041016,78.14820098876953,2.2697563840452997,1.5929733682656282,-65.1995827281974,5.602103,7.476467,-16.181435,26.177183,-2.003582,-9.934646,-7.0080404,-9.257364,-23.130245,17.748213,-12.82797,2.7706432,-1.5626434,-3.9014149,7.3366313,6.586948,22.391853,-7.856359,43.34177,11.727597,3.5780358,1.9709152,-151.68108,-55.377205,91.126915,23.72648,-29.520664,-24.909973,-38.786526
143,-4.3765153884887695,-25.26062774658203,78.17631530761719,2.3043098381369704,1.7012861449027172,-65.03343966902715,5.406927,7.530703,-16.198757,26.28839,-1.7907654,-9.922814,-6.8776155,-9.169817,-23.312899,17.435509,-12.779096,2.7111192,-1.7954375,-3.7202005,7.284724,6.6482587,22.39439,-8.597355,42.682014,12.74836,3.618789,1.422852,-151.8096,-54.9137,91.25827,25.14784,-28.434786,-24.890736,-37.89012
144,-4.455556392669678,-25.387659072875977,78.20157623291016,2.317992685078331,1.8058483299391748,-64.86091071661227,5.2253203,7.617327,-16.187021,26.38647,-1.6021246,-9.904995,-6.719453,-9.053001,-23.513622,17.076942,-12.711263,2.64986,-2.0524724,-3.5216272,7.2288823,6.7876177,22.42373,-9.293714,41.944756,13.724873,3.608113,0.8082224,-151.92331,-54.56107,91.30862,26.68456,-27.335333,-24.81036,-37.13504
145,-4.53591251373291,-25.513168334960938,78.22333526611328,2.3080092989729466,1.907999761031544,-64.68050759710007,5.057124,7.741247,-16.13932,26.471321,-1.4390172,-9.878682,-6.5305147,-8.90285,-23.737547,16.665794,-12.620984,2.5870717,-2.3416483,-3.2989933,7.168028,7.0232806,22.477325,-9.9299,41.103832,14.682066,3.5283911,0.0871555,-152.01984,-54.317516,91.27366,28.372345,-26.2415,-24.673693,-36.63219
146,-4.59995698928833,-25.641462326049805,78.24610137939453,2.276836110120898,2.006420005288404,-64.48700981631364,4.899542,7.8979874,-16.06636,26.54638,-1.2973651,-9.849275,-6.3106284,-8.723408,-23.985823,16.205976,-12.51026,2.5233173,-2.6686234,-3.0522227,7.104531,7.346151,22.557234,-10.536621,40.161304,15.649634,3.3896034,-0.73703724,-152.10176,-54.182697,91.14351,30.195019,-25.035612,-24.469156,-36.252968
147,-4.66784143447876,-25.767404556274414,78.26769256591797,2.2299504459995023,2.099353015523901,-64.28815535496977,4.7559767,8.079549,-15.975886,26.608349,-1.1768209,-9.818523,-6.065829,-8.520295,-24.24645,15.707342,-12.383203,2.4594274,-3.02356,-2.7915895,7.0408325,7.7291255,22.65545,-11.10944,39.171616,16.556715,3.2195954,-1.5693387,-152.17825,-54.155575,90.93045,32.078064,-23.771387,-24.205568,-35.853115
148,-4.72656774520874,-25.888896942138672,78.287109375,2.1727702339586927,2.1851752906628734,-64.09146117409546,4.629423,8.277644,-15.875331,26.654396,-1.0769562,-9.787944,-5.803851,-8.300068,-24.506973,15.184365,-12.246092,2.3961425,-3.386808,-2.5281608,6.976522,8.142135,22.77976,-11.661238,38.187943,17.318306,3.051198,-2.3191009,-152.2591,-54.222694,90.659065,33.96538,-22.500761,-23.885351,-35.29018
149,-4.778727054595947,-26.007890701293945,78.30131530761719,2.1003678527020577,2.2599562638065445,-63.89895829034779,4.526245,8.5006695,-15.75791,26.683224,-1.0012019,-9.757326,-5.509495,-8.050988,-24.76708,14.612151,-12.087812,2.3323429,-3.7640986,-2.2545803,6.913938,8.595601,22.92507,-12.183391,37.207405,17.939693,2.8859508,-2.977602,-152.34673,-54.38856,90.30291,35.85754,-21.294035,-23.48076,-34.492928
150,-4.833860874176025,-26.13119125366211,78.31195831298828,2.0124624411562464,2.3259243027979633,-63.70663358830874,4.442237,8.748347,-15.622421,26.698868,-0.949806,-9.725816,-5.185755,-7.7748365,-25.031471,13.994723,-11.910248,2.2686338,-4.1635947,-1.9653462,6.8521433,9.098791,23.084946,-12.672547,36.20975,18.457457,2.7138124,-3.5880117,-152.43611,-54.647404,89.86223,37.78556,-20.109936,-22.991798,-33.55636
151,-4.890127658843994,-26.25299644470215,78.32269287109375,1.9217393117768062,2.3903186377015464,-63.51314603216998,4.3689585,9.001082,-15.484683,26.697708,-0.91274995,-9.694717,-4.8625145,-7.4963365,-25.296352,13.37935,-11.733714,2.2075381,-4.5779347,-1.6798201,6.7889953,9.628203,23.260012,-13.13115,35.215622,18.847277,2.5546193,-4.1374416,-152.5247,-54.993755,89.388435,39.712997,-18.834513,-22.460447,-32.58625
152,-4.944735527038574,-26.370365142822266,78.33100891113281,1.840341047569705,2.460294679837194,-63.317341093249055,4.296459,9.239481,-15.360574,26.679146,-0.8817954,-9.665321,-4.5690403,-7.239928,-25.558538,12.812793,-11.580603,2.1510057,-4.9977894,-1.4150317,6.7218285,10.156757,23.44939,-13.564767,34.248684,19.084873,2.4286172,-4.613281,-152.60954,-55.420094,88.93459,41.60744,-17.349188,-21.930101,-31.686615
153,-4.991857528686523,-26.48396873474121,78.33631896972656,1.7679503386808655,2.5372893717140337,-63.11591756791804,4.2197285,9.463583,-15.252301,26.647978,-0.86466575,-9.633713,-4.315231,-7.011086,-25.820824,12.315101,-11.459277,2.0988324,-5.4248753,-1.1677327,6.647307,10.681541,23.653076,-13.980444,33.302113,19.130447,2.3551145,-5.0056505,-152.69139,-55.919044,88.532936,43.479153,-15.524573,-21.423807,-30.937548
154,-5.035903453826904,-26.59403419494629,78.33619689941406,1.6987455606891917,2.617602540876184,-62.91055585829146,4.1450076,9.682601,-15.152046,26.602552,-0.86219794,-9.600728,-4.084114,-6.7970386,-26.084185,11.856841,-11.356879,2.049435,-5.8599563,-0.9279503,6.5657897,11.210771,23.869663,-14.378947,32.37299,19.007492,2.3230157,-5.324268,-152.77165,-56.48516,88.156265,45.350533,-13.453757,-20.913912,-30.273916
155,-5.080743312835693,-26.703020095825195,78.33331298828125,1.6361910315891186,2.70084122449046,-62.707565291706615,4.0773573,9.891168,-15.061084,26.536428,-0.8584425,-9.574542,-3.877587,-6.6004086,-26.341097,11.440338,-11.271436,2.002919,-6.2948217,-0.7022558,6.4804044,11.735843,24.094572,-14.752316,31.489527,18.788462,2.3056033,-5.5858316,-152.84738,-57.1139,87.763214,47.206676,-11.350988,-20.366283,-29.579403
156,-5.124524116516113,-26.808940887451172,78.33028411865234,1.5837239320133432,2.7864414870695238,-62.51346187190021,4.020905,10.084107,-14.980851,26.444803,-0.83725804,-9.563359,-3.6989524,-6.424792,-26.584106,11.071509,-11.202596,1.9595616,-6.721503,-0.4963299,6.3951697,12.247869,24.321207,-15.091659,30.679703,18.54671,2.275058,-5.8067408,-152.91428,-57.801926,87.31021,49.032284,-9.431519,-19.74207,-28.735611
157,-5.161055088043213,-26.913686752319336,78.32849884033203,1.5395988350029226,2.872987270276467,-62.33060593390756,3.985976,10.265885,-14.903846,26.312952,-0.7932349,-9.573074,-3.5445888,-6.26739,-26.812609,10.745534,-11.146734,1.9204749,-7.142359,-0.30784222,6.3119054,12.752548,24.544659,-15.3861065,29.945805,18.287819,2.2261922,-5.9816422,-152.97131,-58.54715,86.78912,50.825455,-7.805666,-18.99745,-27.66845
158,-5.19944953918457,-27.014995574951172,78.32470703125,1.5023149240132239,2.9610943088904524,-62.155344476568295,3.9638314,10.437358,-14.832372,26.155441,-0.738216,-9.597301,-3.4161928,-6.128466,-27.030277,10.467143,-11.108679,1.8850721,-7.5633745,-0.13270782,6.229357,13.251448,24.76424,-15.63887,29.27653,17.980238,2.1729088,-6.10497,-153.01694,-59.347683,86.21626,52.596382,-6.3456,-18.158077,-26.457615
159,-5.238746643066406,-27.111434936523438,78.32062530517578,1.4751783115331443,3.053137448773086,-61.985044026251366,3.9444623,10.591578,-14.781442,25.980145,-0.67286325,-9.629407,-3.317499,-6.012302,-27.237312,10.238181,-11.08944,1.8507447,-7.9792075,0.024335496,6.146451,13.726615,24.981195,-15.865709,28.68222,17.641544,2.115447,-6.192258,-153.04771,-60.20041,85.58375,54.340992,-4.9136224,-17.288721,-25.211586
160,-5.267915725708008,-27.205530166625977,78.31343078613281,1.4614431397680931,3.1514960443356923,-61.817210582098,3.9142084,10.720903,-14.765031,25.802074,-0.60122716,-9.659326,-3.2528455,-5.923551,-27.433462,10.061377,-11.09091,1.815265,-8.384719,0.1586727,6.062698,14.161562,25.1977,-16.081903,28.171019,17.289207,2.053906,-6.2596283,-153.0588,-61.101784,84.881676,56.057365,-3.3668354,-16.454475,-24.037928
161,-5.299689292907715,-27.29775047302246,78.30858612060547,1.4637959097463176,3.260647031854644,-61.65527493882585,3.8690634,10.823343,-14.774672,25.619747,-0.5261013,-9.678115,-3.2370641,-5.868594,-27.613184,9.957296,-11.122123,1.7752825,-8.7755575,0.2701901,5.974047,14.549245,25.416666,-16.301138,27.748936,16.896238,1.9841242,-6.299087,-153.04608,-62.049076,84.09338,57.749207,-1.5792495,-15.690171,-22.930307
162,-5.336848258972168,-27.3889102935791,78.30845642089844,1.4794195138592714,3.378087211004358,-61.49907765584052,3.8135796,10.903616,-14.807451,25.432371,-0.44576573,-9.69235,-3.2635143,-5.8434815,-27.778654,9.918543,-11.179423,1.7328621,-9.160604,0.35730842,5.8776026,14.905099,25.638939,-16.507454,27.410295,16.463823,1.9071621,-6.306834,-153.0204,-63.039803,83.26688,59.427383,0.39015806,-14.9531765,-21.846014
163,-5.369341850280762,-27.471181869506836,78.30913543701172,1.5046958975785207,3.4951931056365884,-61.340917354168,3.7578998,10.963757,-14.88548,25.232376,-0.35403535,-9.719194,-3.3042893,-5.8379116,-27.941298,9.90884,-11.247868,1.693785,-9.578285,0.39329362,5.754344,15.270685,25.866228,-16.648209,27.152437,16.057085,1.8327806,-6.3042965,-153.03912,-64.063705,82.64413,61.117935,2.552014,-14.207244,-20.848436
164,-5.397690773010254,-27.54994010925293,78.30802917480469,1.5332826371226078,3.6030463253661775,-61.173448828615285,3.706157,11.006588,-15.032739,25.02762,-0.25267184,-9.776614,-3.3344522,-5.8406906,-28.112356,9.899745,-11.316851,1.6636602,-9.875379,0.4919523,5.723255,15.490752,26.072226,-16.865726,26.94786,15.703263,1.7613636,-6.3145595,-152.88635,-65.13688,81.412384,62.713722,3.8858204,-13.368847,-19.906708
165,-5.430417537689209,-27.624711990356445,78.30799865722656,1.5683204973862372,3.6979019919944656,-60.99233411018403,3.6683278,11.027588,-15.260762,24.798122,-0.13018295,-9.88065,-3.3476949,-5.8556056,-28.296366,9.8879595,-11.385313,1.6461234,-10.249343,0.5193663,5.683358,15.758458,26.269388,-16.938173,26.8049,15.46301,1.6914729,-6.3474145,-152.76773,-66.25456,80.45719,64.300354,5.1421967,-12.4316,-19.077118
166,-5.461158752441406,-27.698734283447266,78.3086929321289,1.610416045310677,3.784835497072813,-60.80228794790068,3.6381407,11.027448,-15.555623,24.550085,0.008198536,-10.018348,-3.3575609,-5.885914,-28.486944,9.88952,-11.460018,1.637405,-10.604294,0.5296538,5.6570106,15.972879,26.455809,-16.989353,26.751274,15.281386,1.6205584,-6.3880963,-152.62872,-67.408,79.51552,65.87135,6.16904,-11.427055,-18.312574
167,-5.486807823181152,-27.770837783813477,78.30987548828125,1.6566081306774423,3.869049111494796,-60.609211975531395,3.6050053,11.010978,-15.899172,24.304195,0.1512462,-10.163157,-3.3665118,-5.923681,-28.678247,9.892772,-11.533441,1.6324499,-10.940084,0.5327891,5.6367598,16.14571,26.627966,-17.026009,26.768074,15.154739,1.5686278,-6.421963,-152.47116,-68.59506,78.4713,67.41602,7.135596,-10.461675,-17.64904
168,-5.512338638305664,-27.836713790893555,78.31407165527344,1.7041573925733093,3.9558747420427105,-60.418383264679626,3.5605264,10.982674,-16.272635,24.076874,0.29031262,-10.288264,-3.3728373,-5.9596586,-28.864805,9.877641,-11.594031,1.6264048,-11.250539,0.5402026,5.6172476,16.283031,26.782352,-17.06034,26.838062,15.080037,1.555577,-6.434395,-152.29283,-69.81653,77.2033,68.92093,8.208544,-9.639364,-17.123468
169,-5.534981727600098,-27.902692794799805,78.31956481933594,1.754789839828814,4.049060359204442,-60.224240694432964,3.497695,10.936101,-16.6932,23.868687,0.42693067,-10.387623,-3.3786454,-5.9950247,-29.050825,9.839384,-11.638828,1.6164813,-11.539041,0.5531516,5.6001134,16.373924,26.920341,-17.092703,26.958633,15.111311,1.5960294,-6.4433813,-152.07735,-71.07583,75.72673,70.42651,9.423266,-9.027192,-16.615253
170,-5.556119918823242,-27.96737289428711,78.32565307617188,1.8088779432050506,4.144998114598058,-60.026392303697186,3.4220176,10.869536,-17.163277,23.673452,0.5644371,-10.47573,-3.384467,-6.0336633,-29.237358,9.790305,-11.675085,1.6058009,-11.801355,0.56628186,5.59326,16.412998,27.043629,-17.119995,27.13676,15.233931,1.6760607,-6.4497585,-151.81357,-72.37323,74.068565,71.92054,10.698887,-8.555471,-16.136505
171,-5.581707000732422,-28.030908584594727,78.33069610595703,1.8625241381081363,4.23785156674915,-59.83744518436381,3.3455348,10.795481,-17.640947,23.49262,0.69836473,-10.556095,-3.3843617,-6.068745,-29.414543,9.728399,-11.702086,1.598135,-12.019982,0.5817623,5.6032295,16.414423,27.147879,-17.148201,27.366947,15.3432,1.7729316,-6.413734,-151.50235,-73.70349,72.12004,73.311485,12.0290985,-8.128866,-15.924397
172,-5.603662490844727,-28.094058990478516,78.33694458007812,1.911141198545716,4.322042126294961,-59.67044938824988,3.279065,10.727689,-18.085043,23.330551,0.82299423,-10.632304,-3.37555,-6.0948286,-29.572287,9.658531,-11.722293,1.5972966,-12.18333,0.60232437,5.6383376,16.397644,27.225521,-17.174416,27.641108,15.336549,1.8634651,-6.2961464,-151.13654,-75.05825,69.76003,74.51186,13.407857,-7.66172,-16.21708
173,-5.617334365844727,-28.157817840576172,78.34369659423828,1.9531929221968876,4.395690861566972,-59.524026941081495,3.228529,10.670401,-18.500679,23.178724,0.94055283,-10.707874,-3.3499753,-6.1083155,-29.71301,9.571021,-11.731799,1.6085349,-12.277425,0.6345008,5.6966677,16.364044,27.264847,-17.181168,27.959957,15.225225,1.9467944,-6.1020246,-150.72331,-76.42807,66.840065,75.57809,14.872781,-7.2160187,-17.123682
174,-5.63248348236084,-28.217304229736328,78.35169982910156,1.9908698456540446,4.462003910437845,-59.39294045086784,3.182605,10.614869,-18.905663,23.048092,1.0496267,-10.779946,-3.3136268,-6.113848,-29.840197,9.4718075,-11.733094,1.6283492,-12.306146,0.6763647,5.779759,16.295889,27.266308,-17.175175,28.331764,15.059844,2.0325058,-5.848388,-150.22862,-77.798706,63.425617,76.54886,16.416464,-6.8303075,-18.486568
175,-5.6478471755981445,-28.272563934326172,78.35790252685547,2.0265669191777658,4.522029639339422,-59.28429551566299,3.1421378,10.561538,-19.274065,22.937487,1.1498904,-10.842274,-3.2761483,-6.1146436,-29.946016,9.370251,-11.729786,1.6474931,-12.279187,0.71735597,5.8891077,16.175642,27.24656,-17.20654,28.772665,14.787277,2.1132197,-5.5129695,-149.61298,-79.14139,59.75955,77.334724,17.972706,-6.3950872,-20.156488
176,-5.656861782073975,-28.331466674804688,78.36495971679688,2.0616733715138387,4.577393006046977,-59.20568441443153,3.1018581,10.50975,-19.581303,22.858824,1.2348988,-10.888676,-3.2512038,-6.1150665,-30.02218,9.285784,-11.731294,1.6566058,-12.210485,0.75155985,6.017571,15.99864,27.2265,-17.328026,29.29195,14.345254,2.1803017,-5.073885,-148.86809,-80.41858,56.119766,77.8583,19.484291,-5.7945285,-22.003925
177,-5.6729416847229,-28.381187438964844,78.369140625,2.098337347681882,4.633075894903193,-59.156942948222664,3.0578184,10.46108,-19.821022,22.80852,1.306072,-10.918372,-3.244063,-6.115563,-30.067652,9.215028,-11.735577,1.6515435,-12.098783,0.786568,6.1418443,15.767077,27.211817,-17.572258,29.914045,13.638048,2.2214136,-4.4661684,-148.06595,-81.58841,52.486977,78.08053,21.05805,-4.938144,-24.366022
178,-5.682108402252197,-28.427080154418945,78.37092590332031,2.1347707225472465,4.687098573977085,-59.13499551920452,3.0131679,10.416504,-20.0064,22.783281,1.3649511,-10.934254,-3.2476964,-6.1139965,-30.08621,9.152048,-11.740311,1.6378284,-11.952168,0.83027124,6.253964,15.508379,27.194769,-17.90303,30.619293,12.712241,2.2357855,-3.7241902,-147.26714,-82.61791,48.8267,78.12155,22.715538,-3.9462397,-27.222048
179,-5.692624092102051,-28.467681884765625,78.37251281738281,2.167620507079916,4.730220301486588,-59.14218366262925,2.9740865,10.37375,-20.142279,22.793695,1.4069852,-10.935882,-3.2573905,-6.1118565,-30.077333,9.111217,-11.752488,1.6206423,-11.809718,0.8782364,6.36791,15.25906,27.173658,-18.265976,31.354012,11.713787,2.2352116,-2.9735394,-146.43579,-83.49555,45.387833,78.118965,24.254627,-2.9840496,-29.906696
180,-5.69792366027832,-28.502017974853516,78.37144470214844,2.193875665177865,4.753329543524524,-59.18127816920806,2.9526348,10.332493,-20.232172,22.83661,1.4346371,-10.922401,-3.2646613,-6.108857,-30.040356,9.0971575,-11.773655,1.6049817,-11.690349,0.92924076,6.496884,15.033703,27.150152,-18.631655,32.07583,10.783932,2.2390363,-2.3381898,-145.53685,-84.23031,42.445206,78.19164,25.449568,-2.1676137,-31.738268
181,-5.703545093536377,-28.531105041503906,78.36804962158203,2.212720039860083,4.750426328953718,-59.25739913147493,2.9502451,10.290655,-20.271587,22.926857,1.4397742,-10.881377,-3.2678883,-6.1058974,-29.970892,9.120413,-11.810077,1.5914087,-11.597811,0.98915714,6.6465364,14.825194,27.123312,-19.024666,32.79849,9.834061,2.2603343,-1.8020064,-144.5901,-84.84713,40.08778,78.36051,26.165283,-1.3920546,-32.373867
182,-5.7087321281433105,-28.55451774597168,78.36479949951172,2.2258030027051916,4.727736354863204,-59.36777951961894,2.9618692,10.249461,-20.260256,23.058437,1.4254216,-10.817179,-3.2715216,-6.102788,-29.870638,9.17493,-11.858284,1.577436,-11.51531,1.0625547,6.80843,14.619693,27.089678,-19.462091,33.54172,8.82769,2.2874596,-1.3140049,-143.64194,-85.36602,38.21525,78.53849,26.533585,-0.59801424,-32.22378
183,-5.706528663635254,-28.571352005004883,78.36083984375,2.2332848447449005,4.694441857391391,-59.50226805767722,2.9837708,10.2119055,-20.20949,23.211323,1.4027765,-10.754577,-3.2739363,-6.0956683,-29.748898,9.236993,-11.905242,1.5637376,-11.429867,1.141667,6.9743137,14.415435,27.05036,-19.905138,34.279846,7.983607,2.312946,-0.94507015,-142.6363,-85.79734,36.76357,78.65915,26.718365,0.046741027,-31.72935
184,-5.7047953605651855,-28.584728240966797,78.35670471191406,2.2350832397849163,4.659902801954863,-59.651211179587726,3.0140054,10.18136,-20.130186,23.362524,1.38461,-10.718438,-3.2760534,-6.0819964,-29.614582,9.288985,-11.940694,1.5509784,-11.3285475,1.2204099,7.1340685,14.214565,27.007996,-20.314487,34.98377,7.519453,2.3335397,-0.7676618,-141.5197,-86.14105,35.66805,78.66558,26.892254,0.3668621,-31.336428
185,-5.69594144821167,-28.58824348449707,78.35204315185547,2.228338461317181,4.623873575615554,-59.822858236143766,3.0560644,10.163238,-20.003906,23.514032,1.3700254,-10.719548,-3.2802548,-6.0583024,-29.460943,9.331638,-11.963023,1.5388666,-11.215277,1.2954369,7.2893925,14.029387,26.96489,-20.665808,35.64862,7.525751,2.3362565,-0.8301599,-140.13138,-86.40729,34.94218,78.5076,27.092497,0.18304616,-31.098307
186,-5.682597637176514,-28.593843460083008,78.34833526611328,2.2139187230761865,4.582364067236943,-60.01899644911059,3.1095,10.153922,-19.832027,23.676014,1.3546171,-10.743075,-3.2843945,-6.0262647,-29.286312,9.370489,-11.976121,1.5272449,-11.095294,1.3660995,7.440507,13.856778,26.922209,-20.982584,36.290607,7.8762236,2.330391,-1.0845331,-138.47182,-86.612976,34.540016,78.19196,27.236132,-0.36664924,-30.795597
187,-5.672545433044434,-28.595178604125977,78.34536743164062,2.1987478200494084,4.538637461651166,-60.219009341462744,3.163476,10.142345,-19.655468,23.842293,1.3389665,-10.7757015,-3.287645,-5.9949603,-29.10702,9.406537,-11.984513,1.516918,-10.9626255,1.428272,7.57953,13.681225,26.881351,-21.29044,36.906967,8.463282,2.3452713,-1.4585729,-136.75171,-86.761475,34.324245,77.7566,27.322521,-0.9826296,-30.469305
188,-5.657644748687744,-28.59233856201172,78.342041015625,2.1884570915774404,4.496158343314262,-60.4022878060333,3.20326,10.117071,-19.516233,24.01619,1.32259,-10.804144,-3.284516,-5.9699655,-28.939667,9.430241,-11.986809,1.5083848,-10.818813,1.4796883,7.7043505,13.4962,26.842896,-21.604784,37.484097,9.18096,2.410741,-1.8811817,-135.20468,-86.846596,34.160213,77.25052,27.334597,-1.3658069,-30.162567
189,-5.643063068389893,-28.589191436767578,78.34110260009766,2.184682662295215,4.459063414693327,-60.57098019769302,3.226956,10.076133,-19.41667,24.192165,1.3066354,-10.828321,-3.2838023,-5.955193,-28.781807,9.449854,-11.986672,1.5012088,-10.666035,1.5142578,7.8162656,13.314017,26.808723,-21.909788,38.005337,10.094507,2.5417552,-2.3858042,-133.83217,-86.86161,34.019394,76.647385,27.178585,-1.3768374,-29.888721
190,-5.62800407409668,-28.586700439453125,78.34134674072266,2.183937243321166,4.4241120509407486,-60.7334531536614,3.2410269,10.025319,-19.337486,24.373526,1.2900686,-10.854458,-3.283069,-5.945441,-28.626892,9.463254,-11.981461,1.4950773,-10.52244,1.5261254,7.971429,13.216365,26.804848,-22.090538,38.357437,11.280497,2.707838,-3.0268312,-132.68997,-86.83775,34.07261,75.95307,26.908955,-1.181134,-29.591328
191,-5.609663009643555,-28.577470779418945,78.3420639038086,2.1859173473120332,4.384720100849175,-60.87901139236997,3.2452464,9.963715,-19.287527,24.567606,1.2723517,-10.878273,-3.269578,-5.9398327,-28.485006,9.464253,-11.970952,1.49153,-10.346714,1.5307729,8.084888,13.040974,26.800348,-22.375145,38.763786,12.485794,2.8904743,-3.661343,-131.54118,-86.785324,34.099026,75.17137,26.662485,-0.9830133,-29.31197
192,-5.5902485847473145,-28.568151473999023,78.3430404663086,2.1901541170058088,4.333183338327193,-60.99710659626923,3.239318,9.890959,-19.275818,24.78528,1.2511404,-10.8955345,-3.22859,-5.936082,-28.365826,9.44462,-11.953649,1.4917547,-10.179065,1.529762,8.196458,12.840278,26.796772,-22.686129,39.160492,13.588004,3.067206,-4.220592,-130.52032,-86.7114,34.11191,74.38448,26.623144,-0.95151126,-29.026005
193,-5.5734639167785645,-28.556241989135742,78.34793853759766,2.1967930928465806,4.266293759513379,-61.0814321201404,3.2205956,9.804898,-19.311495,25.035093,1.2240903,-10.899253,-3.1501412,-5.932314,-28.274,9.392297,-11.92555,1.4964778,-10.023477,1.5237025,8.301865,12.60717,26.794107,-23.045486,39.56388,14.578529,3.2418475,-4.6855993,-129.65483,-86.605484,34.104736,73.61905,26.923935,-1.1796335,-28.754307
194,-5.557308197021484,-28.54784393310547,78.35218811035156,2.2057846837640915,4.188916875281901,-61.138923621028646,3.190363,9.706867,-19.387491,25.308592,1.1936105,-10.893831,-3.0457575,-5.930514,-28.203135,9.316777,-11.889021,1.5049758,-9.877682,1.5071938,8.402747,12.351839,26.793766,-23.426588,39.962517,15.5352335,3.4211917,-5.105685,-128.92506,-86.46388,34.099895,72.8453,27.444483,-1.5542842,-28.489754
195,-5.542465686798096,-28.53235626220703,78.35809326171875,2.217318363923476,4.103831754742504,-61.178581670709654,3.1543496,9.600875,-19.488409,25.594975,1.161616,-10.891198,-2.9274817,-5.933755,-28.14813,9.235327,-11.850317,1.5164957,-9.745308,1.4825206,8.4954605,12.093892,26.796469,-23.811768,40.326546,16.402534,3.6097944,-5.481571,-128.30513,-86.271965,34.127247,72.05374,27.977816,-1.949693,-28.203064
196,-5.528084754943848,-28.517269134521484,78.36219024658203,2.231262492716129,4.015078884333772,-61.20945037495483,3.1178567,9.490957,-19.59936,25.88043,1.1318486,-10.904084,-2.8117945,-5.9469175,-28.103552,9.172439,-11.818906,1.5300927,-9.6796,1.4587948,8.563417,11.895416,26.79644,-24.14488,40.618477,17.111137,3.805963,-5.813825,-127.8713,-85.90012,34.324238,71.32598,28.320486,-2.2681518,-27.892637
197,-5.514871120452881,-28.50406837463379,78.37187957763672,2.249892901034296,3.92009157405941,-61.22953027145063,3.07825,9.372224,-19.724134,26.173965,1.104171,-10.928156,-2.69482,-5.972757,-28.072674,9.127003,-11.793716,1.5460383,-9.610931,1.4239879,8.656801,11.707346,26.81059,-24.428766,40.80766,17.713669,4.029993,-6.1209717,-127.67318,-85.53265,34.692142,70.574425,28.471449,-2.4193375,-27.440378
198,-5.503406524658203,-28.48695182800293,78.37870025634766,2.2725805172335036,3.8181465668185592,-61.23563558977968,3.033555,9.2436905,-19.86857,26.47949,1.0769612,-10.959793,-2.5710886,-6.0083632,-28.055773,9.088937,-11.771298,1.5638067,-9.523987,1.3783375,8.749259,11.492866,26.842922,-24.734495,40.95067,18.19683,4.2808137,-6.3884234,-127.64634,-85.16422,35.180054,69.80053,28.5193,-2.4848032,-26.895416
199,-5.486591339111328,-28.46900177001953,78.38581085205078,2.294812725079757,3.7145197239919567,-61.23462815299375,2.9935472,9.117558,-20.017986,26.772161,1.051621,-11.010907,-2.4495459,-6.048122,-28.046469,9.061967,-11.752848,1.5835623,-9.427395,1.3244276,8.836421,11.278606,26.887348,-25.020226,41.044945,18.551527,4.5158176,-6.6157265,-127.71873,-84.79148,35.78297,68.97682,28.437273,-2.5228164,-26.368174
200,-5.472308158874512,-28.44812774658203,78.39237976074219,2.3124028556439997,3.61442884582233,-61.233239609809594,2.9661784,9.005144,-20.158401,27.031397,1.0295657,-11.093571,-2.3375287,-6.0849633,-28.038158,9.045269,-11.737169,1.6046686,-9.348254,1.2528913,8.909252,11.102881,26.93681,-25.223614,41.0928,18.773647,4.6927505,-6.7993097,-127.80382,-84.42833,36.566437,68.06927,28.29689,-2.5935967,-25.9763
201,-5.456425666809082,-28.42879867553711,78.39683532714844,2.3245567017338917,3.5174472145440405,-61.230665197677915,2.9543312,8.909036,-20.288185,27.25012,1.0150318,-11.21656,-2.2368517,-6.1192985,-28.031956,9.045709,-11.727188,1.6280663,-9.224582,1.1955805,8.98213,10.910582,26.982761,-25.394709,41.0966,18.821049,4.8020473,-6.9592943,-127.96352,-84.06213,37.42459,67.085335,27.81408,-2.6827002,-25.74851
202,-5.445809364318848,-28.405517578125,78.4002456665039,2.3334358878060035,3.4214894755906577,-61.22404338986846,2.9527304,8.822955,-20.414083,27.441383,1.0053202,-11.371811,-2.1428094,-6.1534543,-28.030611,9.058871,-11.72117,1.6536493,-9.097568,1.1288553,9.044589,10.722197,27.02569,-25.512783,41.065426,18.714895,4.8682833,-7.0840697,-128.14545,-83.69705,38.388954,66.01958,27.15507,-2.7726595,-25.63845
203,-5.437851905822754,-28.38287353515625,78.40177154541016,2.338248691765313,3.3289939635739096,-61.21757864134393,2.9589295,8.746218,-20.534403,27.60982,0.9917782,-11.545939,-2.0554605,-6.184447,-28.029573,9.075401,-11.715364,1.6793753,-8.964249,1.0652808,9.102554,10.539078,27.0645,-25.598022,41.003635,18.524914,4.8927093,-7.1428175,-128.37451,-83.33034,39.43356,64.88344,26.426817,-2.8957987,-25.570845
204,-5.423529148101807,-28.353965759277344,78.40440368652344,2.3373824270420456,3.2425984520092053,-61.215377875947176,2.9693236,8.678722,-20.647585,27.762377,0.96511376,-11.725418,-1.975773,-6.209537,-28.024544,9.087171,-11.706626,1.7031918,-8.837949,1.0083891,9.15705,10.374568,27.098017,-25.654945,40.918392,18.322495,4.8766146,-7.102871,-128.64734,-82.961334,40.545723,63.673508,25.781298,-3.0832777,-25.479504
205,-5.409605503082275,-28.323619842529297,78.40678405761719,2.331699649649103,3.162686260516541,-61.21848873301643,2.9857779,8.620825,-20.75143,27.896772,0.92257977,-11.912456,-1.9005361,-6.2268677,-28.014065,9.0850725,-11.691962,1.7235724,-8.719737,0.95698565,9.207059,10.228373,27.12693,-25.685547,40.817055,18.124666,4.799406,-6.938649,-128.95804,-82.59108,41.722855,62.380817,25.278118,-3.3524997,-25.38294
206,-5.392502784729004,-28.293663024902344,78.40772247314453,2.3210435081480463,3.088163277485877,-61.22460675532754,3.00985,8.573268,-20.847237,28.008896,0.87026936,-12.112296,-1.8321049,-6.238785,-28.000523,9.079108,-11.675182,1.7418075,-8.602206,0.90938735,9.252362,10.09274,27.151802,-25.688374,40.695415,17.894707,4.6664696,-6.6733923,-129.30106,-82.21935,42.962048,61.005074,24.828367,-3.6818922,-25.304955
207,-5.375454425811768,-28.260251998901367,78.40575408935547,2.3049235973583877,3.0186842748265676,-61.23337786046406,3.0348017,8.534025,-20.938555,28.110006,0.80793583,-12.315078,-1.7712221,-6.2453394,-27.985357,9.071683,-11.655234,1.7605077,-8.49018,0.8669208,9.295124,9.974085,27.17075,-25.657352,40.542404,17.624434,4.517726,-6.347619,-129.67114,-81.84507,44.258785,59.56031,24.377003,-4.0472493,-25.189367
208,-5.358358383178711,-28.222837448120117,78.40302276611328,2.2819289692274003,2.9541554375379273,-61.244380116784804,3.0551107,8.501791,-21.029274,28.208761,0.7373584,-12.511563,-1.7246242,-6.249559,-27.969233,9.078848,-11.637684,1.782063,-8.3878565,0.8315741,9.337644,9.876309,27.180557,-25.587547,40.348816,17.305191,4.393167,-6.001423,-130.06209,-81.465614,45.605343,58.059303,23.865608,-4.4253483,-24.979921
209,-5.337712287902832,-28.182865142822266,78.39735412597656,2.2513030898810755,2.8950728494174087,-61.25892928738353,3.0700293,8.476873,-21.118902,28.30692,0.65771776,-12.701074,-1.6915858,-6.249405,-27.950882,9.097593,-11.620148,1.8095945,-8.295255,0.804923,9.381185,9.807143,27.177397,-25.462204,40.1032,16.906546,4.302356,-5.631309,-130.46442,-81.07851,46.998657,56.490353,23.292004,-4.8134823,-24.636093
210,-5.3190412521362305,-28.138607025146484,78.38994598388672,2.2138193371686885,2.8413318319472523,-61.276951162795406,3.08234,8.460093,-21.205936,28.399712,0.569,-12.887945,-1.6709204,-6.2450757,-27.930079,9.124467,-11.601908,1.8410122,-8.211143,0.7857175,9.424211,9.760205,27.161089,-25.288399,39.816326,16.443895,4.22255,-5.2200437,-130.87802,-80.68164,48.438427,54.849205,22.68379,-5.2249174,-24.1982
211,-5.304279327392578,-28.092479705810547,78.3840103149414,2.1709439079055226,2.7918208715889126,-61.29526000746389,3.0912654,8.450167,-21.292427,28.487556,0.47309816,-13.069834,-1.6598876,-6.23759,-27.910887,9.158323,-11.584379,1.8710685,-8.135338,0.77484024,9.465167,9.718883,27.133827,-25.09995,39.51102,15.974944,4.1465654,-4.7872543,-131.30635,-80.272865,49.91284,53.162872,22.02158,-5.6607227,-23.731691
212,-5.282285213470459,-28.041133880615234,78.37875366210938,2.124268963023093,2.7453636642589774,-61.31059200365871,3.0951781,8.445658,-21.380545,28.572245,0.37093854,-13.244379,-1.6603373,-6.230665,-27.89657,9.207428,-11.573775,1.8946214,-8.0681095,0.7722267,9.502037,9.66801,27.098646,-24.930006,39.20896,15.557459,4.0683413,-4.352499,-131.74991,-79.85147,51.40768,51.456924,21.285145,-6.1210375,-23.30274
213,-5.267302989959717,-27.98118019104004,78.36869812011719,2.0735843858769325,2.7054721809458964,-61.32264506043787,3.0900397,8.448365,-21.469807,28.652018,0.2642677,-13.415428,-1.6794924,-6.225467,-27.88895,9.279332,-11.574178,1.9084277,-8.010884,0.7760269,9.530395,9.610054,27.05725,-24.775162,38.909466,15.193644,3.9878156,-3.9041855,-132.20451,-79.41843,52.92817,49.72979,20.49527,-6.613984,-22.917236
214,-5.244422912597656,-27.92449951171875,78.35896301269531,2.0181115701607104,2.671442299794671,-61.33282785918814,3.078048,8.4589815,-21.559635,28.72576,0.15247415,-13.58276,-1.7140398,-6.219848,-27.885956,9.367697,-11.581433,1.9159051,-7.961282,0.7874962,9.552979,9.551054,27.00928,-24.623232,38.600925,14.856563,3.9079647,-3.4377615,-132.66588,-78.973946,54.47526,47.969345,19.654297,-7.136497,-22.545559
215,-5.224933624267578,-27.870586395263672,78.34896087646484,1.9591737044437465,2.6359612633779137,-61.34125422127382,3.0671535,8.472368,-21.651289,28.797722,0.033486176,-13.737736,-1.7504166,-6.2128906,-27.885166,9.459769,-11.588382,1.9217155,-7.91627,0.80675876,9.576949,9.481028,26.955925,-24.493198,38.293587,14.559696,3.8290777,-2.982842,-133.13368,-78.51661,56.02868,46.178,18.712187,-7.671347,-22.201488
216,-5.201884746551514,-27.80626678466797,78.33676147460938,1.898694420271445,2.591680129553349,-61.348196717832046,3.0646076,8.482899,-21.74608,28.872765,-0.095386036,-13.871607,-1.7794216,-6.2072816,-27.883589,9.552959,-11.593232,1.930974,-7.874283,0.83302087,9.608861,9.391661,26.898575,-24.40233,37.997375,14.316483,3.7520258,-2.568872,-133.60153,-78.045616,57.56203,44.356297,17.617908,-8.201613,-21.899609
217,-5.178977012634277,-27.738174438476562,78.32743835449219,1.8362279558112775,2.5328488045209605,-61.350808025961406,3.0781553,8.488263,-21.856556,28.949158,-0.23585582,-13.978677,-1.7875826,-6.199326,-27.884098,9.632411,-11.588957,1.943967,-7.84279,0.8652743,9.652651,9.283912,26.83881,-24.356419,37.71223,14.138642,3.678222,-2.1877682,-134.06349,-77.56321,59.06891,42.50127,16.353785,-8.756722,-21.65643
218,-5.153041362762451,-27.664216995239258,78.31555938720703,1.7715191550128364,2.464704809320572,-61.3499873105603,3.101058,8.491271,-21.978071,29.026854,-0.38706526,-14.064629,-1.7887208,-6.1925473,-27.886332,9.716779,-11.585587,1.9585752,-7.8214455,0.9023503,9.7033615,9.163295,26.776878,-24.344292,37.43327,14.015889,3.608258,-1.8287979,-134.51404,-77.07175,60.554344,40.607677,14.945589,-9.333504,-21.46469
219,-5.127315521240234,-27.586326599121094,78.30330657958984,1.7049770364131784,2.39610456466978,-61.351066927015424,3.1243129,8.496882,-22.08632,29.103437,-0.5416715,-14.138506,-1.7898217,-6.184342,-27.886028,9.795173,-11.574865,1.9747788,-7.798819,0.9448599,9.75354,9.030594,26.711462,-24.356153,37.16166,13.928797,3.5417507,-1.5181005,-134.94289,-76.57105,62.00426,38.67145,13.40653,-9.866748,-21.302454
220,-5.10524320602417,-27.512725830078125,78.29216003417969,1.6374925822008781,2.3359091840377473,-61.35933956310884,3.1375656,8.509186,-22.156906,29.178085,-0.69308585,-14.209221,-1.8069999,-6.1778593,-27.87844,9.878712,-11.560781,1.9930346,-7.7661357,0.9919401,9.795317,8.886681,26.6408,-24.379917,36.900215,13.858318,3.4783828,-1.2813731,-135.33691,-76.059525,63.39992,36.68609,11.748002,-10.292873,-21.144894
221,-5.077516078948975,-27.43760871887207,78.28144836425781,1.566479696279226,2.2879137445623825,-61.374781527680504,3.1343372,8.532664,-22.181276,29.255539,-0.84260345,-14.274236,-1.8375052,-6.1664596,-27.86473,9.951975,-11.535265,2.0130575,-7.729832,1.0460421,9.824522,8.742365,26.56235,-24.399982,36.645943,13.801841,3.4078317,-1.135405,-135.69499,-75.53836,64.74365,34.634373,9.860145,-10.6102295,-20.96127
222,-5.0464277267456055,-27.35356903076172,78.27024841308594,1.4924680182378318,2.2468887382387734,-61.39492168504917,3.1214738,8.564317,-22.173119,29.33356,-0.9921076,-14.330452,-1.8750751,-6.151071,-27.846655,10.015167,-11.499229,2.034763,-7.6948915,1.1063515,9.845378,8.594721,26.475964,-24.423914,36.40024,13.76915,3.334109,-1.0628586,-136.01863,-75.009,66.038574,32.520206,7.7720017,-10.849826,-20.77008
223,-5.01113748550415,-27.25755500793457,78.26103210449219,1.4206581875437294,2.2081505670038344,-61.42180995565611,3.1085138,8.595723,-22.141666,29.404598,-1.1381304,-14.385909,-1.9282869,-6.1443515,-27.820004,10.097434,-11.4671335,2.0583065,-7.6514072,1.1668863,9.862435,8.429412,26.383457,-24.471928,36.16818,13.760553,3.2780414,-1.038233,-136.29626,-74.46993,67.26349,30.367832,5.7043147,-10.994434,-20.614748
224,-4.985858917236328,-27.16297149658203,78.2481918334961,1.355850562710783,2.167123219252507,-61.45726020194601,3.1042976,8.619306,-22.096285,29.461996,-1.2776136,-14.4486885,-1.9999894,-6.1553955,-27.782269,10.215278,-11.447336,2.0850434,-7.591696,1.2213343,9.880274,8.235632,26.287617,-24.561428,35.952118,13.7765875,3.260471,-1.0363679,-136.51094,-73.91871,68.38895,28.202034,3.877213,-11.022835,-20.536097
225,-4.953673839569092,-27.062091827392578,78.23725128173828,1.2996855704044519,2.1205170525743946,-61.50421084118801,3.115639,8.634785,-22.027805,29.500534,-1.4064962,-14.524878,-2.0939512,-6.189146,-27.72939,10.383422,-11.447019,2.1156197,-7.5175166,1.2662888,9.901468,8.014725,26.189947,-24.689377,35.74575,13.830142,3.3028007,-1.0697162,-136.66917,-73.35539,69.41158,26.002785,2.298614,-10.891005,-20.558739
226,-4.918985366821289,-26.958223342895508,78.2278060913086,1.2496350381329162,2.0714560856093795,-61.56099042966015,3.136012,8.645353,-21.935238,29.525702,-1.5277929,-14.60891,-2.2057958,-6.2385936,-27.664062,10.584974,-11.457961,2.1496577,-7.435685,1.3046803,9.922696,7.7771764,26.090408,-24.84457,35.545593,13.916271,3.3886206,-1.1457804,-136.77544,-72.78204,70.3423,23.761572,0.86799395,-10.616771,-20.645943
227,-4.884283065795898,-26.84645652770996,78.21844482421875,1.2044067504032272,2.0249325961938425,-61.62194612421236,3.1561365,8.648512,-21.839241,29.542763,-1.6474203,-14.690913,-2.3331356,-6.299795,-27.592497,10.805341,-11.4722,2.185598,-7.3459673,1.3385836,9.939793,7.5251718,25.989773,-25.031912,35.359608,14.008413,3.4820547,-1.231615,-136.80682,-72.19944,71.168434,21.522102,-0.35862598,-10.27317,-20.749043
228,-4.848723411560059,-26.729812622070312,78.20531463623047,1.1627366485896602,1.9859630005560067,-61.681588628301405,3.1665168,8.641192,-21.76079,29.557062,-1.7710619,-14.761293,-2.4758558,-6.370436,-27.520403,11.035123,-11.485263,2.2221014,-7.2499003,1.3682566,9.948159,7.2628164,25.889555,-25.253862,35.195145,14.080362,3.5475304,-1.293976,-136.73727,-71.608345,71.8728,19.323816,-1.3275975,-9.932933,-20.824043
229,-4.815393924713135,-26.61305046081543,78.1939697265625,1.128706519373566,1.957702827829063,-61.737451025255844,3.1596432,8.616566,-21.702372,29.574326,-1.8953345,-14.813458,-2.6366742,-6.455293,-27.448929,11.273632,-11.495519,2.2599444,-7.149326,1.3865345,9.94246,6.987635,25.792353,-25.518568,35.057407,14.116075,3.5782628,-1.3245189,-136.5562,-71.00893,72.44206,17.166798,-1.9560425,-9.6081295,-20.910906
230,-4.775796413421631,-26.488182067871094,78.18624877929688,1.1015651103212734,1.9368949545394987,-61.79285953182941,3.1429071,8.578533,-21.653664,29.588688,-2.0177796,-14.853938,-2.8158233,-6.554439,-27.374813,11.527697,-11.506998,2.2996774,-7.045984,1.3929043,9.9257555,6.703632,25.69899,-25.818546,34.938847,14.132121,3.5925188,-1.3409468,-136.27632,-70.40271,72.88281,15.029667,-2.29804,-9.262275,-21.019705
231,-4.7347211837768555,-26.360151290893555,78.17652893066406,1.073161277150274,1.9188526254314584,-61.85094153029859,3.1268718,8.539012,-21.616983,29.593115,-2.1492789,-14.892155,-3.0006707,-6.6534743,-27.298471,11.778543,-11.511601,2.3389506,-6.9409375,1.3979652,9.906014,6.4237,25.607203,-26.133194,34.82744,14.151329,3.5922801,-1.3485253,-135.90826,-69.7928,73.20901,12.924201,-2.505924,-8.899503,-21.064556
232,-4.693434238433838,-26.22891616821289,78.1667251586914,1.0346657928776308,1.8988838676895596,-61.91488095352403,3.1217864,8.510294,-21.594742,29.58142,-2.3012109,-14.937821,-3.1827025,-6.7397633,-27.22061,12.016997,-11.506988,2.375294,-6.8349023,1.4135273,9.891199,6.158538,25.513344,-26.442698,34.714428,14.196978,3.579537,-1.3520497,-135.46262,-69.18323,73.43459,10.862513,-2.7327504,-8.524626,-20.95745
233,-4.654468536376953,-26.089998245239258,78.15299224853516,0.982999893037432,1.87559945224134,-61.986461887843696,3.1339276,8.499091,-21.586033,29.546827,-2.4774675,-14.995951,-3.3536296,-6.805645,-27.142502,12.228199,-11.485906,2.405906,-6.7230506,1.4427285,9.880702,5.902244,25.415442,-26.755003,34.611042,14.278817,3.54468,-1.3427726,-134.92467,-68.57527,73.53307,8.834437,-2.9381378,-8.13719,-20.632986
234,-4.603320598602295,-25.948938369750977,78.1372299194336,0.9235846547415174,1.8513970666918316,-62.06369021465682,3.155605,8.494782,-21.580267,29.498007,-2.6730187,-15.000033,-3.5226207,-6.8619003,-27.062855,12.427496,-11.455185,2.4335465,-6.608503,1.4778967,9.870002,5.65136,25.313791,-27.07456,34.52171,14.384578,3.4901175,-1.3207793,-134.29385,-67.97007,73.50537,6.833648,-3.0728273,-7.7368827,-20.153631
235,-4.551652431488037,-25.803720474243164,78.12480163574219,0.8586838399377688,1.8275694534587865,-62.14401834378104,3.1807945,8.492952,-21.588951,29.437967,-2.879669,-15.000033,-3.6922286,-6.9126005,-26.981028,12.616512,-11.414773,2.4618888,-6.500257,1.5156052,9.862229,5.415209,25.208668,-27.3805,34.427715,14.504492,3.4357724,-1.30424,-133.61412,-67.371796,73.42239,4.8797436,-3.2726023,-7.3305507,-19.620333
236,-4.501165390014648,-25.655170440673828,78.11166381835938,0.7916590252647583,1.8052169212474385,-62.22491928538936,3.2010133,8.485829,-21.616066,29.37682,-3.0919816,-15.000033,-3.871042,-6.966535,-26.895662,12.810223,-11.369953,2.495288,-6.40239,1.5549967,9.861443,5.199509,25.09989,-27.65716,34.31076,14.628263,3.4014895,-1.3114266,-132.93889,-66.784966,73.36748,2.9956553,-3.6679988,-6.9264293,-19.132141
237,-4.446638584136963,-25.494544982910156,78.09894561767578,0.7219344666532735,1.7836865450759791,-62.30507790356855,3.2145813,8.47228,-21.666811,29.317314,-3.3082857,-15.000033,-4.0499425,-7.0192966,-26.807919,12.989587,-11.314717,2.5350633,-6.311565,1.5988679,9.874102,5.0046782,24.985968,-27.898554,34.1581,14.76554,3.3934999,-1.3517634,-132.3035,-66.21244,73.3835,1.1725799,-4.3316097,-6.5062766,-18.67889
238,-4.386227607727051,-25.32748794555664,78.07894897460938,0.6481993058499379,1.7626598417085404,-62.3860157471553,3.2252033,8.456205,-21.738321,29.255457,-3.5320954,-15.000033,-4.2305193,-7.069669,-26.71743,13.159513,-11.250047,2.5782173,-6.21971,1.6496994,9.89719,4.8202868,24.865913,-28.121954,33.985634,14.916905,3.4006724,-1.4138438,-131.68903,-65.65354,73.44024,-0.5941744,-5.1767373,-6.0768514,-18.217058
